; Complex CNC Router Job - 10K Operations Performance Test
; Generated for graphics rendering performance testing
; Work Area: 200x200mm
; Includes multiple toolchanges and spindle speed variations

G17 G21 G90 G64 P0.025
G0 Z25.000
T1 M6  ; Load Tool 1 - 6mm End Mill
G0 Z10.000

; ===== SPIRAL PATTERN - 2000 operations =====
M3 S19371  ; Start spindle at 19371 RPM
G4 P2.0  ; Wait 2 seconds for spindle to reach speed
G0 X50.000 Y50.000
G1 Z-0.500 F300
G1 X50.020 Y50.001 F1000
G1 X50.040 Y50.005 F1000
G1 X50.059 Y50.011 F1000
G1 X50.077 Y50.020 F1000
G1 X50.095 Y50.031 F1000
G1 X50.112 Y50.044 F1000
G1 X50.127 Y50.060 F1000
G1 X50.140 Y50.077 F1000
G1 X50.152 Y50.096 F1000
G1 X50.162 Y50.118 F1000
G1 X50.170 Y50.140 F1000
G1 X50.175 Y50.164 F1000
G1 X50.178 Y50.190 F1000
G1 X50.178 Y50.216 F1000
G1 X50.176 Y50.243 F1000
G1 X50.171 Y50.270 F1000
G1 X50.164 Y50.298 F1000
G1 X50.153 Y50.326 F1000
G1 X50.140 Y50.353 F1000
G1 X50.124 Y50.380 F1000
G1 X50.104 Y50.407 F1000
G1 X50.082 Y50.432 F1000
G1 X50.058 Y50.456 F1000
G1 X50.030 Y50.479 F1000
G1 X50.000 Y50.500 F1000
G1 X49.967 Y50.519 F1000
G1 X49.932 Y50.536 F1000
G1 X49.895 Y50.550 F1000
G1 X49.856 Y50.562 F1000
G1 X49.815 Y50.571 F1000
G1 X49.772 Y50.576 F1000
G1 X49.728 Y50.579 F1000
G1 X49.682 Y50.578 F1000
G1 X49.636 Y50.574 F1000
G1 X49.589 Y50.566 F1000
G1 X49.541 Y50.555 F1000
G1 X49.493 Y50.539 F1000
G1 X49.446 Y50.520 F1000
G1 X49.399 Y50.497 F1000
G1 X49.353 Y50.470 F1000
G1 X49.308 Y50.439 F1000
G1 X49.264 Y50.405 F1000
G1 X49.222 Y50.366 F1000
G1 X49.182 Y50.324 F1000
G1 X49.144 Y50.278 F1000
G1 X49.109 Y50.229 F1000
G1 X49.077 Y50.176 F1000
G1 X49.048 Y50.120 F1000
G1 X49.022 Y50.062 F1000
G1 X49.000 Y50.000 F1000
G1 X48.982 Y49.936 F1000
G1 X48.968 Y49.870 F1000
G1 X48.959 Y49.801 F1000
G1 X48.954 Y49.731 F1000
G1 X48.954 Y49.660 F1000
G1 X48.959 Y49.588 F1000
G1 X48.968 Y49.515 F1000
G1 X48.983 Y49.441 F1000
G1 X49.004 Y49.368 F1000
G1 X49.029 Y49.295 F1000
G1 X49.060 Y49.222 F1000
G1 X49.096 Y49.151 F1000
G1 X49.137 Y49.081 F1000
G1 X49.184 Y49.014 F1000
G1 X49.236 Y48.948 F1000
G1 X49.293 Y48.885 F1000
G1 X49.354 Y48.826 F1000
G1 X49.421 Y48.769 F1000
G1 X49.492 Y48.717 F1000
G1 X49.567 Y48.669 F1000
G1 X49.647 Y48.625 F1000
G1 X49.730 Y48.586 F1000
G1 X49.817 Y48.552 F1000
G1 X49.907 Y48.523 F1000
G1 X50.000 Y48.500 F1000
G1 X50.095 Y48.483 F1000
G1 X50.193 Y48.472 F1000
G1 X50.292 Y48.468 F1000
G1 X50.393 Y48.470 F1000
G1 X50.494 Y48.478 F1000
G1 X50.596 Y48.494 F1000
G1 X50.698 Y48.516 F1000
G1 X50.800 Y48.545 F1000
G1 X50.900 Y48.582 F1000
G1 X50.999 Y48.625 F1000
G1 X51.096 Y48.675 F1000
G1 X51.191 Y48.732 F1000
G1 X51.283 Y48.795 F1000
G1 X51.372 Y48.865 F1000
G1 X51.456 Y48.942 F1000
G1 X51.537 Y49.025 F1000
G1 X51.612 Y49.114 F1000
G1 X51.683 Y49.208 F1000
G1 X51.748 Y49.308 F1000
G1 X51.807 Y49.413 F1000
G1 X51.860 Y49.523 F1000
G1 X51.906 Y49.636 F1000
G1 X51.945 Y49.754 F1000
G1 X51.976 Y49.876 F1000
G1 X52.000 Y50.000 F1000
G1 X52.016 Y50.127 F1000
G1 X52.024 Y50.256 F1000
G1 X52.024 Y50.386 F1000
G1 X52.015 Y50.517 F1000
G1 X51.997 Y50.649 F1000
G1 X51.971 Y50.780 F1000
G1 X51.936 Y50.911 F1000
G1 X51.893 Y51.041 F1000
G1 X51.841 Y51.168 F1000
G1 X51.780 Y51.293 F1000
G1 X51.711 Y51.415 F1000
G1 X51.633 Y51.533 F1000
G1 X51.547 Y51.647 F1000
G1 X51.453 Y51.757 F1000
G1 X51.352 Y51.861 F1000
G1 X51.243 Y51.959 F1000
G1 X51.127 Y52.051 F1000
G1 X51.005 Y52.135 F1000
G1 X50.876 Y52.213 F1000
G1 X50.742 Y52.283 F1000
G1 X50.602 Y52.344 F1000
G1 X50.457 Y52.397 F1000
G1 X50.308 Y52.441 F1000
G1 X50.156 Y52.475 F1000
G1 X50.000 Y52.500 F1000
G1 X49.842 Y52.515 F1000
G1 X49.682 Y52.520 F1000
G1 X49.520 Y52.515 F1000
G1 X49.358 Y52.499 F1000
G1 X49.197 Y52.473 F1000
G1 X49.036 Y52.436 F1000
G1 X48.876 Y52.389 F1000
G1 X48.719 Y52.331 F1000
G1 X48.564 Y52.263 F1000
G1 X48.413 Y52.184 F1000
G1 X48.266 Y52.096 F1000
G1 X48.124 Y51.997 F1000
G1 X47.988 Y51.889 F1000
G1 X47.858 Y51.772 F1000
G1 X47.735 Y51.646 F1000
G1 X47.619 Y51.511 F1000
G1 X47.511 Y51.368 F1000
G1 X47.412 Y51.218 F1000
G1 X47.322 Y51.060 F1000
G1 X47.242 Y50.896 F1000
G1 X47.172 Y50.726 F1000
G1 X47.112 Y50.551 F1000
G1 X47.063 Y50.371 F1000
G1 X47.026 Y50.187 F1000
G1 X47.000 Y50.000 F1000
G1 X46.986 Y49.810 F1000
G1 X46.984 Y49.619 F1000
G1 X46.994 Y49.427 F1000
G1 X47.017 Y49.234 F1000
G1 X47.052 Y49.042 F1000
G1 X47.099 Y48.851 F1000
G1 X47.159 Y48.663 F1000
G1 X47.231 Y48.478 F1000
G1 X47.315 Y48.296 F1000
G1 X47.411 Y48.119 F1000
G1 X47.519 Y47.947 F1000
G1 X47.638 Y47.782 F1000
G1 X47.768 Y47.624 F1000
G1 X47.909 Y47.473 F1000
G1 X48.060 Y47.330 F1000
G1 X48.221 Y47.197 F1000
G1 X48.391 Y47.073 F1000
G1 X48.569 Y46.960 F1000
G1 X48.756 Y46.857 F1000
G1 X48.949 Y46.766 F1000
G1 X49.149 Y46.687 F1000
G1 X49.355 Y46.621 F1000
G1 X49.566 Y46.567 F1000
G1 X49.781 Y46.527 F1000
G1 X50.000 Y46.500 F1000
G1 X50.221 Y46.487 F1000
G1 X50.444 Y46.488 F1000
G1 X50.667 Y46.503 F1000
G1 X50.890 Y46.532 F1000
G1 X51.112 Y46.576 F1000
G1 X51.333 Y46.634 F1000
G1 X51.550 Y46.706 F1000
G1 X51.763 Y46.793 F1000
G1 X51.972 Y46.893 F1000
G1 X52.175 Y47.007 F1000
G1 X52.371 Y47.134 F1000
G1 X52.560 Y47.274 F1000
G1 X52.741 Y47.426 F1000
G1 X52.913 Y47.591 F1000
G1 X53.074 Y47.766 F1000
G1 X53.225 Y47.953 F1000
G1 X53.365 Y48.150 F1000
G1 X53.493 Y48.356 F1000
G1 X53.608 Y48.572 F1000
G1 X53.709 Y48.795 F1000
G1 X53.797 Y49.025 F1000
G1 X53.870 Y49.262 F1000
G1 X53.929 Y49.504 F1000
G1 X53.972 Y49.750 F1000
G1 X54.000 Y50.000 F1000
G1 X54.012 Y50.252 F1000
G1 X54.008 Y50.506 F1000
G1 X53.988 Y50.761 F1000
G1 X53.952 Y51.015 F1000
G1 X53.899 Y51.267 F1000
G1 X53.831 Y51.517 F1000
G1 X53.746 Y51.763 F1000
G1 X53.645 Y52.004 F1000
G1 X53.529 Y52.240 F1000
G1 X53.398 Y52.469 F1000
G1 X53.252 Y52.690 F1000
G1 X53.091 Y52.902 F1000
G1 X52.916 Y53.105 F1000
G1 X52.728 Y53.298 F1000
G1 X52.527 Y53.479 F1000
G1 X52.315 Y53.647 F1000
G1 X52.091 Y53.803 F1000
G1 X51.856 Y53.945 F1000
G1 X51.612 Y54.072 F1000
G1 X51.360 Y54.185 F1000
G1 X51.099 Y54.281 F1000
G1 X50.832 Y54.361 F1000
G1 X50.559 Y54.425 F1000
G1 X50.281 Y54.471 F1000
G1 X50.000 Y54.500 F1000
G1 X49.716 Y54.511 F1000
G1 X49.431 Y54.504 F1000
G1 X49.146 Y54.479 F1000
G1 X48.861 Y54.436 F1000
G1 X48.579 Y54.375 F1000
G1 X48.299 Y54.296 F1000
G1 X48.024 Y54.198 F1000
G1 X47.755 Y54.084 F1000
G1 X47.492 Y53.951 F1000
G1 X47.237 Y53.802 F1000
G1 X46.991 Y53.637 F1000
G1 X46.755 Y53.455 F1000
G1 X46.530 Y53.258 F1000
G1 X46.317 Y53.047 F1000
G1 X46.117 Y52.821 F1000
G1 X45.930 Y52.583 F1000
G1 X45.759 Y52.332 F1000
G1 X45.603 Y52.069 F1000
G1 X45.463 Y51.796 F1000
G1 X45.340 Y51.514 F1000
G1 X45.235 Y51.224 F1000
G1 X45.148 Y50.926 F1000
G1 X45.079 Y50.622 F1000
G1 X45.030 Y50.313 F1000
G1 X45.000 Y50.000 F1000
G1 X44.990 Y49.685 F1000
G1 X45.000 Y49.368 F1000
G1 X45.030 Y49.052 F1000
G1 X45.080 Y48.737 F1000
G1 X45.150 Y48.424 F1000
G1 X45.240 Y48.115 F1000
G1 X45.349 Y47.811 F1000
G1 X45.478 Y47.514 F1000
G1 X45.626 Y47.224 F1000
G1 X45.793 Y46.944 F1000
G1 X45.978 Y46.673 F1000
G1 X46.180 Y46.413 F1000
G1 X46.399 Y46.166 F1000
G1 X46.634 Y45.932 F1000
G1 X46.885 Y45.712 F1000
G1 X47.149 Y45.508 F1000
G1 X47.427 Y45.321 F1000
G1 X47.718 Y45.150 F1000
G1 X48.019 Y44.998 F1000
G1 X48.331 Y44.864 F1000
G1 X48.652 Y44.750 F1000
G1 X48.981 Y44.656 F1000
G1 X49.316 Y44.583 F1000
G1 X49.656 Y44.531 F1000
G1 X50.000 Y44.500 F1000
G1 X50.347 Y44.491 F1000
G1 X50.694 Y44.504 F1000
G1 X51.042 Y44.538 F1000
G1 X51.388 Y44.595 F1000
G1 X51.730 Y44.674 F1000
G1 X52.069 Y44.775 F1000
G1 X52.401 Y44.897 F1000
G1 X52.727 Y45.040 F1000
G1 X53.043 Y45.204 F1000
G1 X53.350 Y45.389 F1000
G1 X53.646 Y45.593 F1000
G1 X53.929 Y45.816 F1000
G1 X54.199 Y46.057 F1000
G1 X54.454 Y46.316 F1000
G1 X54.692 Y46.591 F1000
G1 X54.914 Y46.881 F1000
G1 X55.118 Y47.187 F1000
G1 X55.302 Y47.505 F1000
G1 X55.467 Y47.835 F1000
G1 X55.611 Y48.177 F1000
G1 X55.734 Y48.528 F1000
G1 X55.835 Y48.887 F1000
G1 X55.913 Y49.253 F1000
G1 X55.968 Y49.625 F1000
G1 X56.000 Y50.000 F1000
G1 X56.008 Y50.378 F1000
G1 X55.992 Y50.757 F1000
G1 X55.953 Y51.136 F1000
G1 X55.889 Y51.512 F1000
G1 X55.801 Y51.885 F1000
G1 X55.690 Y52.253 F1000
G1 X55.556 Y52.614 F1000
G1 X55.398 Y52.968 F1000
G1 X55.218 Y53.311 F1000
G1 X55.016 Y53.644 F1000
G1 X54.793 Y53.965 F1000
G1 X54.549 Y54.272 F1000
G1 X54.285 Y54.563 F1000
G1 X54.003 Y54.839 F1000
G1 X53.703 Y55.097 F1000
G1 X53.386 Y55.336 F1000
G1 X53.054 Y55.556 F1000
G1 X52.708 Y55.755 F1000
G1 X52.349 Y55.932 F1000
G1 X51.978 Y56.087 F1000
G1 X51.597 Y56.218 F1000
G1 X51.207 Y56.326 F1000
G1 X50.810 Y56.409 F1000
G1 X50.407 Y56.467 F1000
G1 X50.000 Y56.500 F1000
G1 X49.591 Y56.507 F1000
G1 X49.180 Y56.488 F1000
G1 X48.771 Y56.444 F1000
G1 X48.364 Y56.373 F1000
G1 X47.960 Y56.277 F1000
G1 X47.563 Y56.155 F1000
G1 X47.173 Y56.008 F1000
G1 X46.792 Y55.836 F1000
G1 X46.421 Y55.640 F1000
G1 X46.062 Y55.420 F1000
G1 X45.717 Y55.178 F1000
G1 X45.386 Y54.913 F1000
G1 X45.072 Y54.628 F1000
G1 X44.776 Y54.322 F1000
G1 X44.499 Y53.997 F1000
G1 X44.242 Y53.654 F1000
G1 X44.006 Y53.295 F1000
G1 X43.793 Y52.921 F1000
G1 X43.603 Y52.533 F1000
G1 X43.438 Y52.132 F1000
G1 X43.297 Y51.721 F1000
G1 X43.183 Y51.300 F1000
G1 X43.095 Y50.872 F1000
G1 X43.034 Y50.438 F1000
G1 X43.000 Y50.000 F1000
G1 X42.994 Y49.559 F1000
G1 X43.016 Y49.118 F1000
G1 X43.065 Y48.677 F1000
G1 X43.142 Y48.239 F1000
G1 X43.247 Y47.806 F1000
G1 X43.380 Y47.379 F1000
G1 X43.540 Y46.960 F1000
G1 X43.726 Y46.551 F1000
G1 X43.938 Y46.153 F1000
G1 X44.175 Y45.768 F1000
G1 X44.437 Y45.398 F1000
G1 X44.722 Y45.044 F1000
G1 X45.030 Y44.708 F1000
G1 X45.360 Y44.391 F1000
G1 X45.709 Y44.094 F1000
G1 X46.078 Y43.820 F1000
G1 X46.464 Y43.568 F1000
G1 X46.866 Y43.340 F1000
G1 X47.283 Y43.138 F1000
G1 X47.713 Y42.962 F1000
G1 X48.155 Y42.813 F1000
G1 X48.606 Y42.692 F1000
G1 X49.065 Y42.599 F1000
G1 X49.530 Y42.535 F1000
G1 X50.000 Y42.500 F1000
G1 X50.472 Y42.495 F1000
G1 X50.945 Y42.519 F1000
G1 X51.417 Y42.574 F1000
G1 X51.885 Y42.658 F1000
G1 X52.349 Y42.772 F1000
G1 X52.805 Y42.915 F1000
G1 X53.253 Y43.087 F1000
G1 X53.690 Y43.287 F1000
G1 X54.115 Y43.516 F1000
G1 X54.526 Y43.771 F1000
G1 X54.921 Y44.052 F1000
G1 X55.298 Y44.358 F1000
G1 X55.657 Y44.688 F1000
G1 X55.995 Y45.041 F1000
G1 X56.310 Y45.415 F1000
G1 X56.603 Y45.810 F1000
G1 X56.870 Y46.223 F1000
G1 X57.112 Y46.653 F1000
G1 X57.327 Y47.099 F1000
G1 X57.513 Y47.559 F1000
G1 X57.671 Y48.030 F1000
G1 X57.799 Y48.512 F1000
G1 X57.897 Y49.002 F1000
G1 X57.964 Y49.499 F1000
G1 X58.000 Y50.000 F1000
G1 X58.004 Y50.504 F1000
G1 X57.977 Y51.008 F1000
G1 X57.917 Y51.510 F1000
G1 X57.826 Y52.009 F1000
G1 X57.704 Y52.503 F1000
G1 X57.550 Y52.989 F1000
G1 X57.365 Y53.466 F1000
G1 X57.151 Y53.931 F1000
G1 X56.907 Y54.383 F1000
G1 X56.634 Y54.820 F1000
G1 X56.334 Y55.240 F1000
G1 X56.007 Y55.641 F1000
G1 X55.654 Y56.021 F1000
G1 X55.278 Y56.380 F1000
G1 X54.879 Y56.715 F1000
G1 X54.458 Y57.025 F1000
G1 X54.018 Y57.308 F1000
G1 X53.560 Y57.564 F1000
G1 X53.085 Y57.792 F1000
G1 X52.596 Y57.989 F1000
G1 X52.094 Y58.155 F1000
G1 X51.581 Y58.291 F1000
G1 X51.060 Y58.393 F1000
G1 X50.532 Y58.463 F1000
G1 X50.000 Y58.500 F1000
G1 X49.465 Y58.503 F1000
G1 X48.930 Y58.473 F1000
G1 X48.396 Y58.408 F1000
G1 X47.866 Y58.310 F1000
G1 X47.342 Y58.179 F1000
G1 X46.827 Y58.015 F1000
G1 X46.321 Y57.818 F1000
G1 X45.828 Y57.589 F1000
G1 X45.349 Y57.329 F1000
G1 X44.886 Y57.038 F1000
G1 X44.442 Y56.719 F1000
G1 X44.017 Y56.371 F1000
G1 X43.614 Y55.997 F1000
G1 X43.235 Y55.597 F1000
G1 X42.881 Y55.173 F1000
G1 X42.553 Y54.726 F1000
G1 X42.253 Y54.259 F1000
G1 X41.983 Y53.772 F1000
G1 X41.744 Y53.269 F1000
G1 X41.536 Y52.750 F1000
G1 X41.360 Y52.218 F1000
G1 X41.218 Y51.675 F1000
G1 X41.111 Y51.123 F1000
G1 X41.038 Y50.564 F1000
G1 X41.000 Y50.000 F1000
G1 X40.998 Y49.434 F1000
G1 X41.031 Y48.867 F1000
G1 X41.100 Y48.302 F1000
G1 X41.205 Y47.742 F1000
G1 X41.345 Y47.188 F1000
G1 X41.520 Y46.643 F1000
G1 X41.730 Y46.108 F1000
G1 X41.973 Y45.587 F1000
G1 X42.249 Y45.081 F1000
G1 X42.557 Y44.592 F1000
G1 X42.896 Y44.123 F1000
G1 X43.264 Y43.675 F1000
G1 X43.661 Y43.250 F1000
G1 X44.085 Y42.850 F1000
G1 X44.534 Y42.476 F1000
G1 X45.006 Y42.131 F1000
G1 X45.500 Y41.815 F1000
G1 X46.015 Y41.531 F1000
G1 X46.547 Y41.279 F1000
G1 X47.095 Y41.060 F1000
G1 X47.657 Y40.876 F1000
G1 X48.231 Y40.727 F1000
G1 X48.814 Y40.615 F1000
G1 X49.405 Y40.539 F1000
G1 X50.000 Y40.500 F1000
G1 X50.598 Y40.499 F1000
G1 X51.196 Y40.535 F1000
G1 X51.791 Y40.609 F1000
G1 X52.382 Y40.721 F1000
G1 X52.967 Y40.870 F1000
G1 X53.541 Y41.056 F1000
G1 X54.105 Y41.277 F1000
G1 X54.654 Y41.535 F1000
G1 X55.187 Y41.827 F1000
G1 X55.702 Y42.153 F1000
G1 X56.196 Y42.511 F1000
G1 X56.667 Y42.900 F1000
G1 X57.115 Y43.319 F1000
G1 X57.536 Y43.766 F1000
G1 X57.928 Y44.240 F1000
G1 X58.291 Y44.738 F1000
G1 X58.623 Y45.260 F1000
G1 X58.922 Y45.802 F1000
G1 X59.186 Y46.363 F1000
G1 X59.415 Y46.941 F1000
G1 X59.608 Y47.533 F1000
G1 X59.764 Y48.137 F1000
G1 X59.881 Y48.752 F1000
G1 X59.960 Y49.373 F1000
G1 X60.000 Y50.000 F1000
G1 X60.000 Y50.629 F1000
G1 X59.961 Y51.258 F1000
G1 X59.882 Y51.885 F1000
G1 X59.763 Y52.507 F1000
G1 X59.606 Y53.121 F1000
G1 X59.409 Y53.725 F1000
G1 X59.175 Y54.317 F1000
G1 X58.903 Y54.895 F1000
G1 X58.595 Y55.455 F1000
G1 X58.252 Y55.995 F1000
G1 X57.875 Y56.514 F1000
G1 X57.465 Y57.010 F1000
G1 X57.023 Y57.479 F1000
G1 X56.553 Y57.921 F1000
G1 X56.054 Y58.333 F1000
G1 X55.530 Y58.713 F1000
G1 X54.981 Y59.061 F1000
G1 X54.411 Y59.374 F1000
G1 X53.821 Y59.651 F1000
G1 X53.214 Y59.891 F1000
G1 X52.591 Y60.093 F1000
G1 X51.956 Y60.255 F1000
G1 X51.311 Y60.378 F1000
G1 X50.658 Y60.459 F1000
G1 X50.000 Y60.500 F1000
G1 X49.339 Y60.499 F1000
G1 X48.679 Y60.457 F1000
G1 X48.021 Y60.373 F1000
G1 X47.369 Y60.248 F1000
G1 X46.724 Y60.081 F1000
G1 X46.091 Y59.874 F1000
G1 X45.470 Y59.627 F1000
G1 X44.865 Y59.341 F1000
G1 X44.277 Y59.017 F1000
G1 X43.711 Y58.656 F1000
G1 X43.167 Y58.260 F1000
G1 X42.648 Y57.829 F1000
G1 X42.156 Y57.366 F1000
G1 X41.694 Y56.871 F1000
G1 X41.263 Y56.348 F1000
G1 X40.864 Y55.798 F1000
G1 X40.501 Y55.222 F1000
G1 X40.174 Y54.624 F1000
G1 X39.884 Y54.005 F1000
G1 X39.633 Y53.368 F1000
G1 X39.423 Y52.716 F1000
G1 X39.254 Y52.050 F1000
G1 X39.126 Y51.374 F1000
G1 X39.042 Y50.689 F1000
G1 X39.000 Y50.000 F1000
G1 X39.002 Y49.308 F1000
G1 X39.047 Y48.616 F1000
G1 X39.136 Y47.928 F1000
G1 X39.268 Y47.245 F1000
G1 X39.443 Y46.570 F1000
G1 X39.661 Y45.906 F1000
G1 X39.920 Y45.257 F1000
G1 X40.220 Y44.624 F1000
G1 X40.560 Y44.009 F1000
G1 X40.939 Y43.417 F1000
G1 X41.355 Y42.848 F1000
G1 X41.806 Y42.306 F1000
G1 X42.292 Y41.792 F1000
G1 X42.810 Y41.309 F1000
G1 X43.358 Y40.858 F1000
G1 X43.934 Y40.442 F1000
G1 X44.537 Y40.063 F1000
G1 X45.163 Y39.721 F1000
G1 X45.811 Y39.419 F1000
G1 X46.477 Y39.158 F1000
G1 X47.160 Y38.939 F1000
G1 X47.856 Y38.763 F1000
G1 X48.564 Y38.630 F1000
G1 X49.279 Y38.543 F1000
G1 X50.000 Y38.500 F1000
G1 X50.723 Y38.503 F1000
G1 X51.446 Y38.551 F1000
G1 X52.166 Y38.645 F1000
G1 X52.880 Y38.784 F1000
G1 X53.585 Y38.968 F1000
G1 X54.278 Y39.196 F1000
G1 X54.956 Y39.468 F1000
G1 X55.617 Y39.782 F1000
G1 X56.258 Y40.138 F1000
G1 X56.877 Y40.535 F1000
G1 X57.471 Y40.970 F1000
G1 X58.037 Y41.442 F1000
G1 X58.573 Y41.950 F1000
G1 X59.077 Y42.491 F1000
G1 X59.546 Y43.064 F1000
G1 X59.980 Y43.667 F1000
G1 X60.375 Y44.296 F1000
G1 X60.731 Y44.950 F1000
G1 X61.046 Y45.627 F1000
G1 X61.318 Y46.323 F1000
G1 X61.546 Y47.036 F1000
G1 X61.729 Y47.763 F1000
G1 X61.866 Y48.501 F1000
G1 X61.956 Y49.248 F1000
G1 X62.000 Y50.000 F1000
G1 X61.996 Y50.755 F1000
G1 X61.945 Y51.509 F1000
G1 X61.846 Y52.260 F1000
G1 X61.700 Y53.004 F1000
G1 X61.508 Y53.739 F1000
G1 X61.269 Y54.462 F1000
G1 X60.985 Y55.169 F1000
G1 X60.656 Y55.858 F1000
G1 X60.284 Y56.526 F1000
G1 X59.870 Y57.171 F1000
G1 X59.416 Y57.789 F1000
G1 X58.923 Y58.379 F1000
G1 X58.393 Y58.937 F1000
G1 X57.828 Y59.462 F1000
G1 X57.230 Y59.951 F1000
G1 X56.601 Y60.402 F1000
G1 X55.945 Y60.814 F1000
G1 X55.263 Y61.184 F1000
G1 X54.557 Y61.511 F1000
G1 X53.832 Y61.793 F1000
G1 X53.089 Y62.030 F1000
G1 X52.331 Y62.220 F1000
G1 X51.562 Y62.362 F1000
G1 X50.784 Y62.455 F1000
G1 X50.000 Y62.500 F1000
G1 X49.214 Y62.495 F1000
G1 X48.428 Y62.441 F1000
G1 X47.646 Y62.338 F1000
G1 X46.871 Y62.185 F1000
G1 X46.106 Y61.983 F1000
G1 X45.354 Y61.734 F1000
G1 X44.618 Y61.437 F1000
G1 X43.901 Y61.094 F1000
G1 X43.206 Y60.706 F1000
G1 X42.535 Y60.275 F1000
G1 X41.892 Y59.801 F1000
G1 X41.279 Y59.287 F1000
G1 X40.698 Y58.735 F1000
G1 X40.153 Y58.146 F1000
G1 X39.645 Y57.524 F1000
G1 X39.176 Y56.869 F1000
G1 X38.748 Y56.186 F1000
G1 X38.364 Y55.476 F1000
G1 X38.024 Y54.741 F1000
G1 X37.731 Y53.986 F1000
G1 X37.486 Y53.213 F1000
G1 X37.289 Y52.425 F1000
G1 X37.142 Y51.624 F1000
G1 X37.046 Y50.815 F1000
G1 X37.000 Y50.000 F1000
G1 X37.006 Y49.182 F1000
G1 X37.063 Y48.366 F1000
G1 X37.171 Y47.553 F1000
G1 X37.331 Y46.747 F1000
G1 X37.541 Y45.952 F1000
G1 X37.801 Y45.170 F1000
G1 X38.111 Y44.405 F1000
G1 X38.468 Y43.660 F1000
G1 X38.872 Y42.938 F1000
G1 X39.321 Y42.241 F1000
G1 X39.814 Y41.573 F1000
G1 X40.348 Y40.937 F1000
G1 X40.923 Y40.334 F1000
G1 X41.535 Y39.768 F1000
G1 X42.182 Y39.240 F1000
G1 X42.863 Y38.754 F1000
G1 X43.573 Y38.310 F1000
G1 X44.312 Y37.912 F1000
G1 X45.074 Y37.560 F1000
G1 X45.859 Y37.256 F1000
G1 X46.663 Y37.002 F1000
G1 X47.482 Y36.798 F1000
G1 X48.313 Y36.646 F1000
G1 X49.154 Y36.547 F1000
G1 X50.000 Y36.500 F1000
G1 X50.849 Y36.507 F1000
G1 X51.697 Y36.567 F1000
G1 X52.541 Y36.680 F1000
G1 X53.377 Y36.847 F1000
G1 X54.203 Y37.066 F1000
G1 X55.014 Y37.336 F1000
G1 X55.808 Y37.658 F1000
G1 X56.581 Y38.030 F1000
G1 X57.330 Y38.450 F1000
G1 X58.053 Y38.916 F1000
G1 X58.745 Y39.429 F1000
G1 X59.406 Y39.984 F1000
G1 X60.031 Y40.581 F1000
G1 X60.618 Y41.216 F1000
G1 X61.164 Y41.889 F1000
G1 X61.669 Y42.595 F1000
G1 X62.128 Y43.333 F1000
G1 X62.541 Y44.099 F1000
G1 X62.905 Y44.890 F1000
G1 X63.220 Y45.705 F1000
G1 X63.483 Y46.538 F1000
G1 X63.693 Y47.388 F1000
G1 X63.850 Y48.250 F1000
G1 X63.952 Y49.122 F1000
G1 X64.000 Y50.000 F1000
G1 X63.992 Y50.880 F1000
G1 X63.929 Y51.760 F1000
G1 X63.811 Y52.635 F1000
G1 X63.638 Y53.502 F1000
G1 X63.410 Y54.357 F1000
G1 X63.128 Y55.198 F1000
G1 X62.794 Y56.021 F1000
G1 X62.409 Y56.822 F1000
G1 X61.973 Y57.598 F1000
G1 X61.488 Y58.347 F1000
G1 X60.957 Y59.064 F1000
G1 X60.381 Y59.748 F1000
G1 X59.762 Y60.395 F1000
G1 X59.102 Y61.003 F1000
G1 X58.405 Y61.569 F1000
G1 X57.673 Y62.091 F1000
G1 X56.908 Y62.566 F1000
G1 X56.114 Y62.993 F1000
G1 X55.294 Y63.370 F1000
G1 X54.450 Y63.695 F1000
G1 X53.586 Y63.967 F1000
G1 X52.706 Y64.184 F1000
G1 X51.812 Y64.346 F1000
G1 X50.909 Y64.451 F1000
G1 X50.000 Y64.500 F1000
G1 X49.088 Y64.491 F1000
G1 X48.178 Y64.425 F1000
G1 X47.272 Y64.302 F1000
G1 X46.374 Y64.122 F1000
G1 X45.488 Y63.885 F1000
G1 X44.618 Y63.593 F1000
G1 X43.767 Y63.247 F1000
G1 X42.937 Y62.847 F1000
G1 X42.134 Y62.395 F1000
G1 X41.360 Y61.893 F1000
G1 X40.617 Y61.342 F1000
G1 X39.910 Y60.745 F1000
G1 X39.240 Y60.104 F1000
G1 X38.612 Y59.421 F1000
G1 X38.027 Y58.699 F1000
G1 X37.487 Y57.941 F1000
G1 X36.996 Y57.149 F1000
G1 X36.554 Y56.327 F1000
G1 X36.165 Y55.478 F1000
G1 X35.829 Y54.604 F1000
G1 X35.549 Y53.710 F1000
G1 X35.325 Y52.799 F1000
G1 X35.158 Y51.875 F1000
G1 X35.050 Y50.941 F1000
G1 X35.000 Y50.000 F1000
G1 X35.010 Y49.057 F1000
G1 X35.079 Y48.115 F1000
G1 X35.207 Y47.178 F1000
G1 X35.394 Y46.250 F1000
G1 X35.639 Y45.334 F1000
G1 X35.942 Y44.434 F1000
G1 X36.301 Y43.554 F1000
G1 X36.715 Y42.697 F1000
G1 X37.183 Y41.866 F1000
G1 X37.703 Y41.066 F1000
G1 X38.273 Y40.298 F1000
G1 X38.891 Y39.568 F1000
G1 X39.554 Y38.876 F1000
G1 X40.260 Y38.227 F1000
G1 X41.007 Y37.622 F1000
G1 X41.791 Y37.065 F1000
G1 X42.610 Y36.557 F1000
G1 X43.460 Y36.102 F1000
G1 X44.338 Y35.700 F1000
G1 X45.241 Y35.354 F1000
G1 X46.165 Y35.064 F1000
G1 X47.107 Y34.833 F1000
G1 X48.062 Y34.662 F1000
G1 X49.028 Y34.551 F1000
G1 X50.000 Y34.500 F1000
G1 X50.975 Y34.511 F1000
G1 X51.948 Y34.583 F1000
G1 X52.916 Y34.716 F1000
G1 X53.875 Y34.909 F1000
G1 X54.821 Y35.164 F1000
G1 X55.750 Y35.477 F1000
G1 X56.659 Y35.849 F1000
G1 X57.544 Y36.277 F1000
G1 X58.402 Y36.761 F1000
G1 X59.228 Y37.298 F1000
G1 X60.020 Y37.888 F1000
G1 X60.775 Y38.526 F1000
G1 X61.489 Y39.212 F1000
G1 X62.159 Y39.941 F1000
G1 X62.782 Y40.713 F1000
G1 X63.357 Y41.523 F1000
G1 X63.881 Y42.369 F1000
G1 X64.351 Y43.247 F1000
G1 X64.765 Y44.154 F1000
G1 X65.122 Y45.087 F1000
G1 X65.420 Y46.041 F1000
G1 X65.658 Y47.013 F1000
G1 X65.834 Y48.000 F1000
G1 X65.948 Y48.997 F1000
G1 X66.000 Y50.000 F1000
G1 X65.988 Y51.006 F1000
G1 X65.914 Y52.010 F1000
G1 X65.776 Y53.009 F1000
G1 X65.575 Y53.999 F1000
G1 X65.312 Y54.975 F1000
G1 X64.988 Y55.934 F1000
G1 X64.604 Y56.872 F1000
G1 X64.161 Y57.785 F1000
G1 X63.661 Y58.670 F1000
G1 X63.106 Y59.522 F1000
G1 X62.498 Y60.339 F1000
G1 X61.838 Y61.117 F1000
G1 X61.131 Y61.853 F1000
G1 X60.377 Y62.544 F1000
G1 X59.581 Y63.187 F1000
G1 X58.745 Y63.779 F1000
G1 X57.872 Y64.319 F1000
G1 X56.966 Y64.803 F1000
G1 X56.030 Y65.230 F1000
G1 X55.068 Y65.597 F1000
G1 X54.083 Y65.904 F1000
G1 X53.081 Y66.149 F1000
G1 X52.063 Y66.330 F1000
G1 X51.035 Y66.447 F1000
G1 X50.000 Y66.500 F1000
G1 X48.963 Y66.487 F1000
G1 X47.927 Y66.410 F1000
G1 X46.897 Y66.267 F1000
G1 X45.877 Y66.059 F1000
G1 X44.870 Y65.788 F1000
G1 X43.882 Y65.453 F1000
G1 X42.915 Y65.056 F1000
G1 X41.974 Y64.599 F1000
G1 X41.062 Y64.083 F1000
G1 X40.184 Y63.511 F1000
G1 X39.342 Y62.883 F1000
G1 X38.541 Y62.203 F1000
G1 X37.782 Y61.473 F1000
G1 X37.071 Y60.696 F1000
G1 X36.409 Y59.875 F1000
G1 X35.798 Y59.013 F1000
G1 X35.243 Y58.113 F1000
G1 X34.745 Y57.179 F1000
G1 X34.305 Y56.214 F1000
G1 X33.927 Y55.222 F1000
G1 X33.612 Y54.208 F1000
G1 X33.360 Y53.174 F1000
G1 X33.174 Y52.126 F1000
G1 X33.054 Y51.066 F1000
G1 X33.000 Y50.000 F1000
G1 X33.014 Y48.931 F1000
G1 X33.094 Y47.864 F1000
G1 X33.242 Y46.803 F1000
G1 X33.457 Y45.752 F1000
G1 X33.737 Y44.716 F1000
G1 X34.082 Y43.698 F1000
G1 X34.491 Y42.702 F1000
G1 X34.963 Y41.733 F1000
G1 X35.494 Y40.794 F1000
G1 X36.085 Y39.890 F1000
G1 X36.732 Y39.024 F1000
G1 X37.433 Y38.198 F1000
G1 X38.185 Y37.418 F1000
G1 X38.985 Y36.686 F1000
G1 X39.831 Y36.004 F1000
G1 X40.719 Y35.376 F1000
G1 X41.646 Y34.805 F1000
G1 X42.608 Y34.292 F1000
G1 X43.602 Y33.840 F1000
G1 X44.623 Y33.452 F1000
G1 X45.668 Y33.127 F1000
G1 X46.732 Y32.869 F1000
G1 X47.812 Y32.678 F1000
G1 X48.902 Y32.554 F1000
G1 X50.000 Y32.500 F1000
G1 X51.100 Y32.515 F1000
G1 X52.198 Y32.598 F1000
G1 X53.290 Y32.751 F1000
G1 X54.372 Y32.972 F1000
G1 X55.439 Y33.261 F1000
G1 X56.486 Y33.617 F1000
G1 X57.511 Y34.039 F1000
G1 X58.508 Y34.524 F1000
G1 X59.473 Y35.072 F1000
G1 X60.404 Y35.680 F1000
G1 X61.295 Y36.347 F1000
G1 X62.144 Y37.068 F1000
G1 X62.946 Y37.842 F1000
G1 X63.700 Y38.667 F1000
G1 X64.401 Y39.537 F1000
G1 X65.046 Y40.452 F1000
G1 X65.633 Y41.406 F1000
G1 X66.160 Y42.396 F1000
G1 X66.624 Y43.418 F1000
G1 X67.024 Y44.469 F1000
G1 X67.357 Y45.543 F1000
G1 X67.622 Y46.638 F1000
G1 X67.818 Y47.749 F1000
G1 X67.945 Y48.871 F1000
G1 X68.000 Y50.000 F1000
G1 X67.984 Y51.131 F1000
G1 X67.898 Y52.261 F1000
G1 X67.740 Y53.384 F1000
G1 X67.512 Y54.496 F1000
G1 X67.214 Y55.593 F1000
G1 X66.848 Y56.670 F1000
G1 X66.414 Y57.724 F1000
G1 X65.914 Y58.749 F1000
G1 X65.350 Y59.741 F1000
G1 X64.724 Y60.698 F1000
G1 X64.039 Y61.614 F1000
G1 X63.296 Y62.486 F1000
G1 X62.500 Y63.311 F1000
G1 X61.652 Y64.085 F1000
G1 X60.756 Y64.805 F1000
G1 X59.816 Y65.468 F1000
G1 X58.835 Y66.071 F1000
G1 X57.817 Y66.613 F1000
G1 X56.766 Y67.089 F1000
G1 X55.686 Y67.499 F1000
G1 X54.581 Y67.841 F1000
G1 X53.455 Y68.113 F1000
G1 X52.314 Y68.314 F1000
G1 X51.160 Y68.444 F1000
G1 X50.000 Y68.500 F1000
G1 X48.837 Y68.483 F1000
G1 X47.676 Y68.394 F1000
G1 X46.522 Y68.231 F1000
G1 X45.379 Y67.996 F1000
G1 X44.252 Y67.690 F1000
G1 X43.146 Y67.312 F1000
G1 X42.063 Y66.866 F1000
G1 X41.010 Y66.352 F1000
G1 X39.991 Y65.772 F1000
G1 X39.008 Y65.129 F1000
G1 X38.067 Y64.424 F1000
G1 X37.172 Y63.661 F1000
G1 X36.325 Y62.842 F1000
G1 X35.530 Y61.971 F1000
G1 X34.790 Y61.050 F1000
G1 X34.110 Y60.084 F1000
G1 X33.490 Y59.076 F1000
G1 X32.935 Y58.030 F1000
G1 X32.446 Y56.950 F1000
G1 X32.025 Y55.840 F1000
G1 X31.674 Y54.705 F1000
G1 X31.395 Y53.549 F1000
G1 X31.190 Y52.376 F1000
G1 X31.057 Y51.192 F1000
G1 X31.000 Y50.000 F1000
G1 X31.018 Y48.806 F1000
G1 X31.110 Y47.614 F1000
G1 X31.278 Y46.429 F1000
G1 X31.519 Y45.255 F1000
G1 X31.835 Y44.098 F1000
G1 X32.223 Y42.961 F1000
G1 X32.682 Y41.851 F1000
G1 X33.210 Y40.770 F1000
G1 X33.806 Y39.723 F1000
G1 X34.467 Y38.715 F1000
G1 X35.191 Y37.749 F1000
G1 X35.975 Y36.829 F1000
G1 X36.816 Y35.960 F1000
G1 X37.710 Y35.145 F1000
G1 X38.656 Y34.386 F1000
G1 X39.648 Y33.688 F1000
G1 X40.683 Y33.052 F1000
G1 X41.757 Y32.483 F1000
G1 X42.866 Y31.981 F1000
G1 X44.005 Y31.550 F1000
G1 X45.170 Y31.190 F1000
G1 X46.357 Y30.904 F1000
G1 X47.561 Y30.693 F1000
G1 X48.777 Y30.558 F1000
G1 X50.000 Y30.500 F1000
G1 X51.226 Y30.519 F1000
G1 X52.449 Y30.614 F1000
G1 X53.665 Y30.786 F1000
G1 X54.869 Y31.035 F1000
G1 X56.057 Y31.359 F1000
G1 X57.223 Y31.758 F1000
G1 X58.362 Y32.229 F1000
G1 X59.471 Y32.772 F1000
G1 X60.545 Y33.384 F1000
G1 X61.579 Y34.062 F1000
G1 X62.570 Y34.805 F1000
G1 X63.513 Y35.610 F1000
G1 X64.404 Y36.473 F1000
G1 X65.241 Y37.392 F1000
G1 X66.019 Y38.362 F1000
G1 X66.735 Y39.380 F1000
G1 X67.386 Y40.442 F1000
G1 X67.970 Y41.544 F1000
G1 X68.484 Y42.682 F1000
G1 X68.926 Y43.851 F1000
G1 X69.294 Y45.046 F1000
G1 X69.587 Y46.264 F1000
G1 X69.803 Y47.498 F1000
G1 X69.941 Y48.745 F1000
G1 X70.000 Y50.000 F1000
G1 X69.980 Y51.257 F1000
G1 X69.882 Y52.512 F1000
G1 X69.705 Y53.759 F1000
G1 X69.449 Y54.994 F1000
G1 X69.116 Y56.211 F1000
G1 X68.707 Y57.407 F1000
G1 X68.223 Y58.575 F1000
G1 X67.666 Y59.712 F1000
G1 X67.039 Y60.813 F1000
G1 X66.342 Y61.873 F1000
G1 X65.580 Y62.889 F1000
G1 X64.754 Y63.855 F1000
G1 X63.869 Y64.769 F1000
G1 X62.927 Y65.626 F1000
G1 X61.932 Y66.423 F1000
G1 X60.888 Y67.157 F1000
G1 X59.799 Y67.824 F1000
G1 X58.669 Y68.422 F1000
G1 X57.502 Y68.949 F1000
G1 X56.304 Y69.402 F1000
G1 X55.078 Y69.778 F1000
G1 X53.830 Y70.078 F1000
G1 X52.564 Y70.299 F1000
G1 X51.286 Y70.440 F1000
G1 X50.000 Y70.500 F1000
G1 X48.712 Y70.480 F1000
G1 X47.426 Y70.378 F1000
G1 X46.147 Y70.196 F1000
G1 X44.882 Y69.933 F1000
G1 X43.634 Y69.592 F1000
G1 X42.409 Y69.172 F1000
G1 X41.212 Y68.676 F1000
G1 X40.047 Y68.104 F1000
G1 X38.919 Y67.461 F1000
G1 X37.833 Y66.747 F1000
G1 X36.793 Y65.965 F1000
G1 X35.802 Y65.119 F1000
G1 X34.867 Y64.211 F1000
G1 X33.989 Y63.246 F1000
G1 X33.172 Y62.226 F1000
G1 X32.421 Y61.156 F1000
G1 X31.738 Y60.040 F1000
G1 X31.125 Y58.882 F1000
G1 X30.586 Y57.686 F1000
G1 X30.123 Y56.458 F1000
G1 X29.737 Y55.203 F1000
G1 X29.431 Y53.924 F1000
G1 X29.205 Y52.627 F1000
G1 X29.061 Y51.317 F1000
G1 X29.000 Y50.000 F1000
G1 X29.021 Y48.680 F1000
G1 X29.126 Y47.363 F1000
G1 X29.313 Y46.054 F1000
G1 X29.582 Y44.758 F1000
G1 X29.933 Y43.480 F1000
G1 X30.363 Y42.225 F1000
G1 X30.872 Y40.999 F1000
G1 X31.457 Y39.806 F1000
G1 X32.117 Y38.651 F1000
G1 X32.849 Y37.539 F1000
G1 X33.650 Y36.474 F1000
G1 X34.517 Y35.460 F1000
G1 X35.447 Y34.502 F1000
G1 X36.436 Y33.603 F1000
G1 X37.480 Y32.768 F1000
G1 X38.576 Y31.999 F1000
G1 X39.719 Y31.300 F1000
G1 X40.905 Y30.673 F1000
G1 X42.129 Y30.121 F1000
G1 X43.387 Y29.647 F1000
G1 X44.673 Y29.253 F1000
G1 X45.983 Y28.940 F1000
G1 X47.310 Y28.709 F1000
G1 X48.651 Y28.562 F1000
G1 X50.000 Y28.500 F1000
G1 X51.351 Y28.522 F1000
G1 X52.700 Y28.630 F1000
G1 X54.040 Y28.822 F1000
G1 X55.367 Y29.098 F1000
G1 X56.675 Y29.457 F1000
G1 X57.959 Y29.898 F1000
G1 X59.214 Y30.420 F1000
G1 X60.435 Y31.019 F1000
G1 X61.617 Y31.695 F1000
G1 X62.755 Y32.444 F1000
G1 X63.845 Y33.264 F1000
G1 X64.882 Y34.152 F1000
G1 X65.862 Y35.104 F1000
G1 X66.782 Y36.117 F1000
G1 X67.637 Y37.186 F1000
G1 X68.423 Y38.308 F1000
G1 X69.139 Y39.478 F1000
G1 X69.780 Y40.692 F1000
G1 X70.344 Y41.945 F1000
G1 X70.828 Y43.233 F1000
G1 X71.231 Y44.549 F1000
G1 X71.551 Y45.889 F1000
G1 X71.787 Y47.248 F1000
G1 X71.937 Y48.620 F1000
G1 X72.000 Y50.000 F1000
G1 X71.977 Y51.383 F1000
G1 X71.866 Y52.762 F1000
G1 X71.669 Y54.134 F1000
G1 X71.386 Y55.491 F1000
G1 X71.018 Y56.829 F1000
G1 X70.567 Y58.143 F1000
G1 X70.033 Y59.427 F1000
G1 X69.419 Y60.676 F1000
G1 X68.727 Y61.885 F1000
G1 X67.960 Y63.049 F1000
G1 X67.121 Y64.164 F1000
G1 X66.212 Y65.224 F1000
G1 X65.238 Y66.227 F1000
G1 X64.202 Y67.167 F1000
G1 X63.108 Y68.041 F1000
G1 X61.960 Y68.845 F1000
G1 X60.762 Y69.577 F1000
G1 X59.520 Y70.232 F1000
G1 X58.239 Y70.808 F1000
G1 X56.922 Y71.304 F1000
G1 X55.576 Y71.716 F1000
G1 X54.205 Y72.043 F1000
G1 X52.815 Y72.283 F1000
G1 X51.412 Y72.436 F1000
G1 X50.000 Y72.500 F1000
G1 X48.586 Y72.476 F1000
G1 X47.175 Y72.362 F1000
G1 X45.773 Y72.160 F1000
G1 X44.385 Y71.871 F1000
G1 X43.016 Y71.494 F1000
G1 X41.673 Y71.032 F1000
G1 X40.360 Y70.485 F1000
G1 X39.083 Y69.857 F1000
G1 X37.847 Y69.149 F1000
G1 X36.657 Y68.365 F1000
G1 X35.518 Y67.506 F1000
G1 X34.433 Y66.577 F1000
G1 X33.409 Y65.580 F1000
G1 X32.448 Y64.521 F1000
G1 X31.554 Y63.402 F1000
G1 X30.732 Y62.228 F1000
G1 X29.985 Y61.003 F1000
G1 X29.316 Y59.733 F1000
G1 X28.727 Y58.423 F1000
G1 X28.221 Y57.076 F1000
G1 X27.800 Y55.700 F1000
G1 X27.466 Y54.299 F1000
G1 X27.221 Y52.878 F1000
G1 X27.065 Y51.443 F1000
G1 X27.000 Y50.000 F1000
G1 X27.025 Y48.555 F1000
G1 X27.142 Y47.112 F1000
G1 X27.348 Y45.679 F1000
G1 X27.645 Y44.260 F1000
G1 X28.031 Y42.862 F1000
G1 X28.504 Y41.489 F1000
G1 X29.062 Y40.147 F1000
G1 X29.705 Y38.843 F1000
G1 X30.428 Y37.580 F1000
G1 X31.231 Y36.363 F1000
G1 X32.109 Y35.199 F1000
G1 X33.059 Y34.091 F1000
G1 X34.077 Y33.044 F1000
G1 X35.161 Y32.062 F1000
G1 X36.305 Y31.150 F1000
G1 X37.505 Y30.310 F1000
G1 X38.756 Y29.547 F1000
G1 X40.054 Y28.863 F1000
G1 X41.393 Y28.262 F1000
G1 X42.769 Y27.745 F1000
G1 X44.176 Y27.316 F1000
G1 X45.608 Y26.975 F1000
G1 X47.060 Y26.725 F1000
G1 X48.526 Y26.566 F1000
G1 X50.000 Y26.500 F1000
G1 X51.477 Y26.526 F1000
G1 X52.950 Y26.646 F1000
G1 X54.415 Y26.857 F1000
G1 X55.864 Y27.161 F1000
G1 X57.293 Y27.555 F1000
G1 X58.695 Y28.039 F1000
G1 X60.065 Y28.610 F1000
G1 X61.398 Y29.267 F1000
G1 X62.688 Y30.006 F1000
G1 X63.931 Y30.826 F1000
G1 X65.120 Y31.723 F1000
G1 X66.251 Y32.694 F1000
G1 X67.320 Y33.735 F1000
G1 X68.323 Y34.842 F1000
G1 X69.255 Y36.011 F1000
G1 X70.112 Y37.237 F1000
G1 X70.891 Y38.515 F1000
G1 X71.589 Y39.841 F1000
G1 X72.203 Y41.209 F1000
G1 X72.730 Y42.614 F1000
G1 X73.169 Y44.051 F1000
G1 X73.516 Y45.514 F1000
G1 X73.771 Y46.997 F1000
G1 X73.933 Y48.494 F1000
G1 X74.000 Y50.000 F1000
G1 X73.973 Y51.508 F1000
G1 X73.850 Y53.013 F1000
G1 X73.634 Y54.508 F1000
G1 X73.323 Y55.988 F1000
G1 X72.920 Y57.447 F1000
G1 X72.426 Y58.879 F1000
G1 X71.843 Y60.278 F1000
G1 X71.172 Y61.639 F1000
G1 X70.416 Y62.956 F1000
G1 X69.578 Y64.224 F1000
G1 X68.662 Y65.438 F1000
G1 X67.670 Y66.593 F1000
G1 X66.607 Y67.685 F1000
G1 X65.477 Y68.708 F1000
G1 X64.283 Y69.659 F1000
G1 X63.031 Y70.534 F1000
G1 X61.726 Y71.329 F1000
G1 X60.372 Y72.042 F1000
G1 X58.975 Y72.668 F1000
G1 X57.540 Y73.206 F1000
G1 X56.073 Y73.653 F1000
G1 X54.580 Y74.007 F1000
G1 X53.066 Y74.267 F1000
G1 X51.537 Y74.432 F1000
G1 X50.000 Y74.500 F1000
G1 X48.460 Y74.472 F1000
G1 X46.924 Y74.346 F1000
G1 X45.398 Y74.125 F1000
G1 X43.887 Y73.808 F1000
G1 X42.398 Y73.396 F1000
G1 X40.937 Y72.891 F1000
G1 X39.509 Y72.295 F1000
G1 X38.120 Y71.610 F1000
G1 X36.776 Y70.838 F1000
G1 X35.482 Y69.983 F1000
G1 X34.243 Y69.047 F1000
G1 X33.064 Y68.035 F1000
G1 X31.951 Y66.949 F1000
G1 X30.907 Y65.795 F1000
G1 X29.936 Y64.577 F1000
G1 X29.044 Y63.299 F1000
G1 X28.233 Y61.967 F1000
G1 X27.506 Y60.585 F1000
G1 X26.867 Y59.159 F1000
G1 X26.319 Y57.695 F1000
G1 X25.863 Y56.197 F1000
G1 X25.502 Y54.673 F1000
G1 X25.237 Y53.128 F1000
G1 X25.069 Y51.569 F1000
G1 X25.000 Y50.000 F1000
G1 X25.029 Y48.429 F1000
G1 X25.157 Y46.862 F1000
G1 X25.384 Y45.304 F1000
G1 X25.708 Y43.763 F1000
G1 X26.128 Y42.244 F1000
G1 X26.644 Y40.753 F1000
G1 X27.253 Y39.296 F1000
G1 X27.952 Y37.879 F1000
G1 X28.740 Y36.508 F1000
G1 X29.613 Y35.188 F1000
G1 X30.568 Y33.924 F1000
G1 X31.601 Y32.722 F1000
G1 X32.708 Y31.586 F1000
G1 X33.886 Y30.521 F1000
G1 X35.129 Y29.532 F1000
G1 X36.433 Y28.622 F1000
G1 X37.792 Y27.794 F1000
G1 X39.202 Y27.054 F1000
G1 X40.657 Y26.402 F1000
G1 X42.151 Y25.843 F1000
G1 X43.678 Y25.379 F1000
G1 X45.233 Y25.011 F1000
G1 X46.809 Y24.741 F1000
G1 X48.400 Y24.570 F1000
G1 X50.000 Y24.500 F1000
G1 X51.602 Y24.530 F1000
G1 X53.201 Y24.661 F1000
G1 X54.789 Y24.893 F1000
G1 X56.361 Y25.224 F1000
G1 X57.911 Y25.653 F1000
G1 X59.431 Y26.179 F1000
G1 X60.917 Y26.800 F1000
G1 X62.362 Y27.514 F1000
G1 X63.760 Y28.318 F1000
G1 X65.106 Y29.208 F1000
G1 X66.395 Y30.182 F1000
G1 X67.620 Y31.236 F1000
G1 X68.778 Y32.366 F1000
G1 X69.864 Y33.567 F1000
G1 X70.873 Y34.835 F1000
G1 X71.801 Y36.165 F1000
G1 X72.644 Y37.551 F1000
G1 X73.399 Y38.989 F1000
G1 X74.063 Y40.473 F1000
G1 X74.632 Y41.996 F1000
G1 X75.106 Y43.554 F1000
G1 X75.481 Y45.139 F1000
G1 X75.755 Y46.746 F1000
G1 X75.929 Y48.369 F1000
G1 X76.000 Y50.000 F1000
G1 X75.969 Y51.634 F1000
G1 X75.835 Y53.264 F1000
G1 X75.598 Y54.883 F1000
G1 X75.261 Y56.486 F1000
G1 X74.823 Y58.065 F1000
G1 X74.286 Y59.615 F1000
G1 X73.652 Y61.130 F1000
G1 X72.924 Y62.603 F1000
G1 X72.105 Y64.028 F1000
G1 X71.196 Y65.400 F1000
G1 X70.203 Y66.713 F1000
G1 X69.128 Y67.963 F1000
G1 X67.976 Y69.143 F1000
G1 X66.752 Y70.249 F1000
G1 X65.459 Y71.277 F1000
G1 X64.103 Y72.223 F1000
G1 X62.689 Y73.082 F1000
G1 X61.224 Y73.851 F1000
G1 X59.711 Y74.528 F1000
G1 X58.158 Y75.108 F1000
G1 X56.570 Y75.590 F1000
G1 X54.954 Y75.972 F1000
G1 X53.316 Y76.251 F1000
G1 X51.663 Y76.428 F1000
G1 X50.000 Y76.500 F1000
G1 X48.335 Y76.468 F1000
G1 X46.674 Y76.331 F1000
G1 X45.023 Y76.090 F1000
G1 X43.390 Y75.745 F1000
G1 X41.780 Y75.298 F1000
G1 X40.201 Y74.751 F1000
G1 X38.657 Y74.105 F1000
G1 X37.156 Y73.362 F1000
G1 X35.704 Y72.527 F1000
G1 X34.306 Y71.601 F1000
G1 X32.968 Y70.588 F1000
G1 X31.695 Y69.493 F1000
G1 X30.493 Y68.318 F1000
G1 X29.366 Y67.070 F1000
G1 X28.318 Y65.753 F1000
G1 X27.355 Y64.371 F1000
G1 X26.480 Y62.930 F1000
G1 X25.696 Y61.436 F1000
G1 X25.008 Y59.895 F1000
G1 X24.417 Y58.313 F1000
G1 X23.926 Y56.695 F1000
G1 X23.537 Y55.048 F1000
G1 X23.253 Y53.379 F1000
G1 X23.073 Y51.694 F1000
G1 X23.000 Y50.000 F1000
G1 X23.033 Y48.303 F1000
G1 X23.173 Y46.611 F1000
G1 X23.419 Y44.929 F1000
G1 X23.771 Y43.265 F1000
G1 X24.226 Y41.626 F1000
G1 X24.784 Y40.016 F1000
G1 X25.443 Y38.444 F1000
G1 X26.200 Y36.916 F1000
G1 X27.051 Y35.436 F1000
G1 X27.995 Y34.012 F1000
G1 X29.027 Y32.649 F1000
G1 X30.143 Y31.353 F1000
G1 X31.339 Y30.128 F1000
G1 X32.611 Y28.980 F1000
G1 X33.953 Y27.914 F1000
G1 X35.361 Y26.933 F1000
G1 X36.829 Y26.042 F1000
G1 X38.351 Y25.244 F1000
G1 X39.921 Y24.543 F1000
G1 X41.533 Y23.941 F1000
G1 X43.181 Y23.441 F1000
G1 X44.858 Y23.046 F1000
G1 X46.558 Y22.757 F1000
G1 X48.275 Y22.574 F1000
G1 X50.000 Y22.500 F1000
G1 X51.728 Y22.534 F1000
G1 X53.452 Y22.677 F1000
G1 X55.164 Y22.928 F1000
G1 X56.859 Y23.286 F1000
G1 X58.529 Y23.751 F1000
G1 X60.168 Y24.320 F1000
G1 X61.769 Y24.991 F1000
G1 X63.325 Y25.761 F1000
G1 X64.832 Y26.629 F1000
G1 X66.282 Y27.590 F1000
G1 X67.669 Y28.641 F1000
G1 X68.989 Y29.778 F1000
G1 X70.236 Y30.997 F1000
G1 X71.405 Y32.292 F1000
G1 X72.491 Y33.660 F1000
G1 X73.489 Y35.093 F1000
G1 X74.396 Y36.588 F1000
G1 X75.208 Y38.138 F1000
G1 X75.922 Y39.737 F1000
G1 X76.534 Y41.378 F1000
G1 X77.043 Y43.057 F1000
G1 X77.445 Y44.765 F1000
G1 X77.740 Y46.496 F1000
G1 X77.925 Y48.243 F1000
G1 X78.000 Y50.000 F1000
G1 X77.965 Y51.759 F1000
G1 X77.819 Y53.514 F1000
G1 X77.563 Y55.258 F1000
G1 X77.198 Y56.983 F1000
G1 X76.725 Y58.683 F1000
G1 X76.145 Y60.352 F1000
G1 X75.462 Y61.981 F1000
G1 X74.677 Y63.566 F1000
G1 X73.793 Y65.100 F1000
G1 X72.814 Y66.576 F1000
G1 X71.744 Y67.988 F1000
G1 X70.586 Y69.332 F1000
G1 X69.345 Y70.601 F1000
G1 X68.026 Y71.790 F1000
G1 X66.634 Y72.895 F1000
G1 X65.175 Y73.911 F1000
G1 X63.653 Y74.835 F1000
G1 X62.075 Y75.661 F1000
G1 X60.447 Y76.387 F1000
G1 X58.776 Y77.010 F1000
G1 X57.068 Y77.527 F1000
G1 X55.329 Y77.936 F1000
G1 X53.567 Y78.236 F1000
G1 X51.788 Y78.424 F1000
G1 X50.000 Y78.500 F1000
G1 X48.209 Y78.464 F1000
G1 X46.423 Y78.315 F1000
G1 X44.648 Y78.054 F1000
G1 X42.892 Y77.682 F1000
G1 X41.162 Y77.200 F1000
G1 X39.464 Y76.610 F1000
G1 X37.806 Y75.914 F1000
G1 X36.193 Y75.115 F1000
G1 X34.632 Y74.215 F1000
G1 X33.131 Y73.219 F1000
G1 X31.693 Y72.129 F1000
G1 X30.326 Y70.951 F1000
G1 X29.035 Y69.688 F1000
G1 X27.825 Y68.345 F1000
G1 X26.700 Y66.928 F1000
G1 X25.666 Y65.443 F1000
G1 X24.727 Y63.894 F1000
G1 X23.887 Y62.288 F1000
G1 X23.148 Y60.631 F1000
G1 X22.514 Y58.931 F1000
G1 X21.989 Y57.192 F1000
G1 X21.573 Y55.423 F1000
G1 X21.268 Y53.630 F1000
G1 X21.077 Y51.820 F1000
G1 X21.000 Y50.000 F1000
G1 X21.037 Y48.178 F1000
G1 X21.189 Y46.360 F1000
G1 X21.455 Y44.555 F1000
G1 X21.834 Y42.768 F1000
G1 X22.324 Y41.008 F1000
G1 X22.925 Y39.280 F1000
G1 X23.633 Y37.593 F1000
G1 X24.447 Y35.952 F1000
G1 X25.363 Y34.365 F1000
G1 X26.377 Y32.837 F1000
G1 X27.486 Y31.374 F1000
G1 X28.685 Y29.984 F1000
G1 X29.970 Y28.670 F1000
G1 X31.336 Y27.439 F1000
G1 X32.778 Y26.296 F1000
G1 X34.290 Y25.244 F1000
G1 X35.865 Y24.289 F1000
G1 X37.499 Y23.434 F1000
G1 X39.185 Y22.683 F1000
G1 X40.915 Y22.039 F1000
G1 X42.684 Y21.504 F1000
G1 X44.483 Y21.081 F1000
G1 X46.308 Y20.772 F1000
G1 X48.149 Y20.578 F1000
G1 X50.000 Y20.500 F1000
G1 X51.854 Y20.538 F1000
G1 X53.702 Y20.693 F1000
G1 X55.539 Y20.964 F1000
G1 X57.356 Y21.349 F1000
G1 X59.147 Y21.849 F1000
G1 X60.904 Y22.460 F1000
G1 X62.620 Y23.181 F1000
G1 X64.289 Y24.009 F1000
G1 X65.903 Y24.940 F1000
G1 X67.457 Y25.972 F1000
G1 X68.944 Y27.100 F1000
G1 X70.358 Y28.320 F1000
G1 X71.694 Y29.628 F1000
G1 X72.946 Y31.018 F1000
G1 X74.109 Y32.484 F1000
G1 X75.178 Y34.022 F1000
G1 X76.149 Y35.624 F1000
G1 X77.018 Y37.286 F1000
G1 X77.782 Y39.000 F1000
G1 X78.437 Y40.760 F1000
G1 X78.980 Y42.559 F1000
G1 X79.410 Y44.390 F1000
G1 X79.724 Y46.245 F1000
G1 X79.921 Y48.118 F1000
G1 X80.000 Y50.000 F1000
G1 X79.961 Y51.885 F1000
G1 X79.803 Y53.765 F1000
G1 X79.528 Y55.633 F1000
G1 X79.135 Y57.481 F1000
G1 X78.627 Y59.301 F1000
G1 X78.005 Y61.088 F1000
G1 X77.271 Y62.833 F1000
G1 X76.429 Y64.530 F1000
G1 X75.482 Y66.171 F1000
G1 X74.432 Y67.751 F1000
G1 X73.285 Y69.263 F1000
G1 X72.044 Y70.701 F1000
G1 X70.714 Y72.059 F1000
G1 X69.301 Y73.331 F1000
G1 X67.810 Y74.513 F1000
G1 X66.246 Y75.600 F1000
G1 X64.616 Y76.587 F1000
G1 X62.927 Y77.471 F1000
G1 X61.184 Y78.247 F1000
G1 X59.394 Y78.912 F1000
G1 X57.565 Y79.464 F1000
G1 X55.704 Y79.901 F1000
G1 X53.818 Y80.220 F1000
G1 X51.914 Y80.420 F1000
G1 X50.000 Y80.500 F1000
G1 X48.084 Y80.460 F1000
G1 X46.172 Y80.299 F1000
G1 X44.274 Y80.019 F1000
G1 X42.395 Y79.619 F1000
G1 X40.544 Y79.102 F1000
G1 X38.728 Y78.470 F1000
G1 X36.954 Y77.724 F1000
G1 X35.229 Y76.868 F1000
G1 X33.561 Y75.904 F1000
G1 X31.955 Y74.837 F1000
G1 X30.418 Y73.670 F1000
G1 X28.957 Y72.408 F1000
G1 X27.577 Y71.057 F1000
G1 X26.284 Y69.620 F1000
G1 X25.082 Y68.104 F1000
G1 X23.978 Y66.514 F1000
G1 X22.975 Y64.857 F1000
G1 X22.077 Y63.140 F1000
G1 X21.289 Y61.368 F1000
G1 X20.612 Y59.549 F1000
G1 X20.051 Y57.689 F1000
G1 X19.608 Y55.798 F1000
G1 X19.284 Y53.880 F1000
G1 X19.081 Y51.945 F1000
G1 X19.000 Y50.000 F1000
G1 X19.041 Y48.052 F1000
G1 X19.205 Y46.110 F1000
G1 X19.490 Y44.180 F1000
G1 X19.896 Y42.271 F1000
G1 X20.422 Y40.390 F1000
G1 X21.065 Y38.544 F1000
G1 X21.824 Y36.741 F1000
G1 X22.694 Y34.989 F1000
G1 X23.674 Y33.293 F1000
G1 X24.759 Y31.661 F1000
G1 X25.945 Y30.100 F1000
G1 X27.227 Y28.615 F1000
G1 X28.601 Y27.212 F1000
G1 X30.061 Y25.898 F1000
G1 X31.602 Y24.678 F1000
G1 X33.218 Y23.556 F1000
G1 X34.902 Y22.537 F1000
G1 X36.648 Y21.625 F1000
G1 X38.448 Y20.824 F1000
G1 X40.297 Y20.137 F1000
G1 X42.186 Y19.567 F1000
G1 X44.109 Y19.117 F1000
G1 X46.057 Y18.788 F1000
G1 X48.023 Y18.582 F1000
G1 X50.000 Y18.500 F1000
G1 X51.979 Y18.542 F1000
G1 X53.953 Y18.709 F1000
G1 X55.914 Y18.999 F1000
G1 X57.854 Y19.412 F1000
G1 X59.765 Y19.947 F1000
G1 X61.640 Y20.600 F1000
G1 X63.472 Y21.371 F1000
G1 X65.252 Y22.256 F1000
G1 X66.975 Y23.252 F1000
G1 X68.633 Y24.354 F1000
G1 X70.219 Y25.559 F1000
G1 X71.728 Y26.863 F1000
G1 X73.152 Y28.259 F1000
G1 X74.487 Y29.743 F1000
G1 X75.727 Y31.308 F1000
G1 X76.867 Y32.950 F1000
G1 X77.902 Y34.661 F1000
G1 X78.828 Y36.435 F1000
G1 X79.641 Y38.264 F1000
G1 X80.339 Y40.142 F1000
G1 X80.917 Y42.062 F1000
G1 X81.374 Y44.015 F1000
G1 X81.708 Y45.994 F1000
G1 X81.917 Y47.992 F1000
G1 X82.000 Y50.000 F1000
G1 X81.957 Y52.011 F1000
G1 X81.787 Y54.016 F1000
G1 X81.492 Y56.007 F1000
G1 X81.072 Y57.978 F1000
G1 X80.529 Y59.919 F1000
G1 X79.864 Y61.824 F1000
G1 X79.081 Y63.685 F1000
G1 X78.182 Y65.493 F1000
G1 X77.170 Y67.243 F1000
G1 X76.050 Y68.927 F1000
G1 X74.826 Y70.538 F1000
G1 X73.502 Y72.070 F1000
G1 X72.083 Y73.517 F1000
G1 X70.576 Y74.872 F1000
G1 X68.985 Y76.131 F1000
G1 X67.318 Y77.289 F1000
G1 X65.580 Y78.340 F1000
G1 X63.778 Y79.280 F1000
G1 X61.920 Y80.106 F1000
G1 X60.012 Y80.814 F1000
G1 X58.063 Y81.401 F1000
G1 X56.079 Y81.865 F1000
G1 X54.068 Y82.204 F1000
G1 X52.039 Y82.416 F1000
G1 X50.000 Y82.500 F1000
G1 X47.958 Y82.456 F1000
G1 X45.922 Y82.283 F1000
G1 X43.899 Y81.983 F1000
G1 X41.898 Y81.556 F1000
G1 X39.926 Y81.004 F1000
G1 X37.992 Y80.329 F1000
G1 X36.103 Y79.534 F1000
G1 X34.266 Y78.620 F1000
G1 X32.489 Y77.593 F1000
G1 X30.779 Y76.455 F1000
G1 X29.143 Y75.211 F1000
G1 X27.588 Y73.866 F1000
G1 X26.119 Y72.426 F1000
G1 X24.743 Y70.895 F1000
G1 X23.464 Y69.279 F1000
G1 X22.289 Y67.586 F1000
G1 X21.222 Y65.821 F1000
G1 X20.267 Y63.991 F1000
G1 X19.429 Y62.104 F1000
G1 X18.710 Y60.167 F1000
G1 X18.114 Y58.187 F1000
G1 X17.643 Y56.172 F1000
G1 X17.300 Y54.131 F1000
G1 X17.085 Y52.071 F1000
G1 X17.000 Y50.000 F1000
G1 X17.045 Y47.927 F1000
G1 X17.221 Y45.859 F1000
G1 X17.526 Y43.805 F1000
G1 X17.959 Y41.773 F1000
G1 X18.520 Y39.772 F1000
G1 X19.206 Y37.808 F1000
G1 X20.014 Y35.890 F1000
G1 X20.942 Y34.025 F1000
G1 X21.985 Y32.221 F1000
G1 X23.141 Y30.486 F1000
G1 X24.404 Y28.825 F1000
G1 X25.769 Y27.246 F1000
G1 X27.232 Y25.755 F1000
G1 X28.787 Y24.357 F1000
G1 X30.427 Y23.060 F1000
G1 X32.146 Y21.867 F1000
G1 X33.938 Y20.784 F1000
G1 X35.796 Y19.815 F1000
G1 X37.712 Y18.964 F1000
G1 X39.679 Y18.235 F1000
G1 X41.689 Y17.630 F1000
G1 X43.734 Y17.152 F1000
G1 X45.806 Y16.804 F1000
G1 X47.898 Y16.586 F1000
G1 X50.000 Y16.500 F1000
G1 X52.105 Y16.546 F1000
G1 X54.204 Y16.724 F1000
G1 X56.289 Y17.034 F1000
G1 X58.351 Y17.475 F1000
G1 X60.383 Y18.045 F1000
G1 X62.376 Y18.741 F1000
G1 X64.323 Y19.562 F1000
G1 X66.216 Y20.504 F1000
G1 X68.047 Y21.563 F1000
G1 X69.808 Y22.736 F1000
G1 X71.494 Y24.018 F1000
G1 X73.097 Y25.405 F1000
G1 X74.610 Y26.890 F1000
G1 X76.028 Y28.468 F1000
G1 X77.345 Y30.133 F1000
G1 X78.555 Y31.878 F1000
G1 X79.654 Y33.697 F1000
G1 X80.637 Y35.583 F1000
G1 X81.501 Y37.528 F1000
G1 X82.241 Y39.524 F1000
G1 X82.854 Y41.564 F1000
G1 X83.339 Y43.640 F1000
G1 X83.692 Y45.744 F1000
G1 X83.913 Y47.866 F1000
G1 X84.000 Y50.000 F1000
G1 X83.953 Y52.136 F1000
G1 X83.772 Y54.266 F1000
G1 X83.457 Y56.382 F1000
G1 X83.009 Y58.475 F1000
G1 X82.431 Y60.537 F1000
G1 X81.724 Y62.560 F1000
G1 X80.891 Y64.536 F1000
G1 X79.935 Y66.457 F1000
G1 X78.859 Y68.315 F1000
G1 X77.668 Y70.102 F1000
G1 X76.367 Y71.813 F1000
G1 X74.960 Y73.439 F1000
G1 X73.453 Y74.974 F1000
G1 X71.851 Y76.413 F1000
G1 X70.161 Y77.749 F1000
G1 X68.390 Y78.977 F1000
G1 X66.543 Y80.092 F1000
G1 X64.630 Y81.090 F1000
G1 X62.656 Y81.966 F1000
G1 X60.630 Y82.716 F1000
G1 X58.560 Y83.339 F1000
G1 X56.453 Y83.830 F1000
G1 X54.319 Y84.188 F1000
G1 X52.165 Y84.412 F1000
G1 X50.000 Y84.500 F1000
G1 X47.832 Y84.452 F1000
G1 X45.671 Y84.268 F1000
G1 X43.524 Y83.948 F1000
G1 X41.400 Y83.494 F1000
G1 X39.308 Y82.907 F1000
G1 X37.256 Y82.189 F1000
G1 X35.251 Y81.343 F1000
G1 X33.302 Y80.373 F1000
G1 X31.418 Y79.281 F1000
G1 X29.604 Y78.073 F1000
G1 X27.869 Y76.752 F1000
G1 X26.219 Y75.324 F1000
G1 X24.661 Y73.795 F1000
G1 X23.202 Y72.170 F1000
G1 X21.846 Y70.455 F1000
G1 X20.601 Y68.657 F1000
G1 X19.469 Y66.784 F1000
G1 X18.458 Y64.843 F1000
G1 X17.569 Y62.840 F1000
G1 X16.808 Y60.785 F1000
G1 X16.177 Y58.684 F1000
G1 X15.679 Y56.547 F1000
G1 X15.316 Y54.382 F1000
G1 X15.089 Y52.196 F1000
G1 X15.000 Y50.000 F1000
G1 X15.049 Y47.801 F1000
G1 X15.236 Y45.608 F1000
G1 X15.561 Y43.430 F1000
G1 X16.022 Y41.276 F1000
G1 X16.618 Y39.154 F1000
G1 X17.346 Y37.071 F1000
G1 X18.204 Y35.038 F1000
G1 X19.189 Y33.062 F1000
G1 X20.297 Y31.150 F1000
G1 X21.523 Y29.310 F1000
G1 X22.863 Y27.550 F1000
G1 X24.311 Y25.877 F1000
G1 X25.863 Y24.297 F1000
G1 X27.512 Y22.816 F1000
G1 X29.251 Y21.442 F1000
G1 X31.075 Y20.178 F1000
G1 X32.975 Y19.031 F1000
G1 X34.944 Y18.005 F1000
G1 X36.976 Y17.105 F1000
G1 X39.061 Y16.333 F1000
G1 X41.191 Y15.693 F1000
G1 X43.359 Y15.188 F1000
G1 X45.556 Y14.820 F1000
G1 X47.772 Y14.590 F1000
G1 X50.000 Y14.500 F1000
G1 X52.230 Y14.550 F1000
G1 X54.454 Y14.740 F1000
G1 X56.663 Y15.070 F1000
G1 X58.848 Y15.538 F1000
G1 X61.001 Y16.142 F1000
G1 X63.113 Y16.881 F1000
G1 X65.175 Y17.752 F1000
G1 X67.179 Y18.751 F1000
G1 X69.118 Y19.874 F1000
G1 X70.984 Y21.118 F1000
G1 X72.769 Y22.477 F1000
G1 X74.466 Y23.947 F1000
G1 X76.068 Y25.521 F1000
G1 X77.569 Y27.193 F1000
G1 X78.963 Y28.957 F1000
G1 X80.244 Y30.807 F1000
G1 X81.407 Y32.734 F1000
G1 X82.447 Y34.732 F1000
G1 X83.360 Y36.792 F1000
G1 X84.143 Y38.906 F1000
G1 X84.792 Y41.067 F1000
G1 X85.303 Y43.266 F1000
G1 X85.676 Y45.493 F1000
G1 X85.909 Y47.741 F1000
G1 X86.000 Y50.000 F1000
G1 X85.949 Y52.262 F1000
G1 X85.756 Y54.517 F1000
G1 X85.421 Y56.757 F1000
G1 X84.946 Y58.973 F1000
G1 X84.333 Y61.156 F1000
G1 X83.584 Y63.297 F1000
G1 X82.700 Y65.388 F1000
G1 X81.687 Y67.420 F1000
G1 X80.548 Y69.386 F1000
G1 X79.286 Y71.278 F1000
G1 X77.908 Y73.087 F1000
G1 X76.418 Y74.808 F1000
G1 X74.822 Y76.432 F1000
G1 X73.126 Y77.954 F1000
G1 X71.337 Y79.367 F1000
G1 X69.461 Y80.666 F1000
G1 X67.507 Y81.845 F1000
G1 X65.481 Y82.900 F1000
G1 X63.392 Y83.825 F1000
G1 X61.248 Y84.618 F1000
G1 X59.057 Y85.276 F1000
G1 X56.828 Y85.795 F1000
G1 X54.570 Y86.173 F1000
G1 X52.291 Y86.408 F1000
G1 X50.000 Y86.500 F1000
G1 X47.707 Y86.448 F1000
G1 X45.420 Y86.252 F1000
G1 X43.149 Y85.912 F1000
G1 X40.903 Y85.431 F1000
G1 X38.690 Y84.809 F1000
G1 X36.519 Y84.048 F1000
G1 X34.399 Y83.153 F1000
G1 X32.339 Y82.125 F1000
G1 X30.346 Y80.970 F1000
G1 X28.428 Y79.691 F1000
G1 X26.594 Y78.293 F1000
G1 X24.850 Y76.782 F1000
G1 X23.203 Y75.164 F1000
G1 X21.661 Y73.444 F1000
G1 X20.228 Y71.630 F1000
G1 X18.912 Y69.729 F1000
G1 X17.717 Y67.748 F1000
G1 X16.648 Y65.694 F1000
G1 X15.710 Y63.576 F1000
G1 X14.906 Y61.403 F1000
G1 X14.240 Y59.182 F1000
G1 X13.714 Y56.922 F1000
G1 X13.331 Y54.632 F1000
G1 X13.093 Y52.322 F1000
G1 X13.000 Y50.000 F1000
G1 X13.053 Y47.675 F1000
G1 X13.252 Y45.358 F1000
G1 X13.596 Y43.056 F1000
G1 X14.085 Y40.779 F1000
G1 X14.716 Y38.535 F1000
G1 X15.487 Y36.335 F1000
G1 X16.395 Y34.187 F1000
G1 X17.436 Y32.098 F1000
G1 X18.608 Y30.078 F1000
G1 X19.905 Y28.134 F1000
G1 X21.321 Y26.275 F1000
G1 X22.853 Y24.507 F1000
G1 X24.494 Y22.839 F1000
G1 X26.237 Y21.275 F1000
G1 X28.076 Y19.824 F1000
G1 X30.003 Y18.490 F1000
G1 X32.011 Y17.279 F1000
G1 X34.093 Y16.196 F1000
G1 X36.240 Y15.245 F1000
G1 X38.443 Y14.430 F1000
G1 X40.694 Y13.756 F1000
G1 X42.984 Y13.223 F1000
G1 X45.305 Y12.835 F1000
G1 X47.647 Y12.594 F1000
G1 X50.000 Y12.500 F1000
G1 X52.356 Y12.554 F1000
G1 X54.705 Y12.756 F1000
G1 X57.038 Y13.105 F1000
G1 X59.346 Y13.601 F1000
G1 X61.619 Y14.240 F1000
G1 X63.849 Y15.022 F1000
G1 X66.026 Y15.942 F1000
G1 X68.143 Y16.998 F1000
G1 X70.190 Y18.186 F1000
G1 X72.160 Y19.500 F1000
G1 X74.044 Y20.936 F1000
G1 X75.835 Y22.489 F1000
G1 X77.526 Y24.152 F1000
G1 X79.110 Y25.918 F1000
G1 X80.581 Y27.782 F1000
G1 X81.932 Y29.735 F1000
G1 X83.159 Y31.770 F1000
G1 X84.257 Y33.880 F1000
G1 X85.220 Y36.055 F1000
G1 X86.045 Y38.288 F1000
G1 X86.729 Y40.570 F1000
G1 X87.268 Y42.891 F1000
G1 X87.661 Y45.242 F1000
G1 X87.905 Y47.615 F1000
G1 X88.000 Y50.000 F1000
G1 X87.945 Y52.387 F1000
G1 X87.740 Y54.768 F1000
G1 X87.386 Y57.132 F1000
G1 X86.884 Y59.470 F1000
G1 X86.235 Y61.774 F1000
G1 X85.443 Y64.033 F1000
G1 X84.510 Y66.239 F1000
G1 X83.440 Y68.384 F1000
G1 X82.236 Y70.458 F1000
G1 X80.904 Y72.453 F1000
G1 X79.449 Y74.362 F1000
G1 X77.876 Y76.177 F1000
G1 X76.191 Y77.890 F1000
G1 X74.401 Y79.495 F1000
G1 X72.512 Y80.985 F1000
G1 X70.533 Y82.355 F1000
G1 X68.470 Y83.598 F1000
G1 X66.333 Y84.709 F1000
G1 X64.129 Y85.685 F1000
G1 X61.866 Y86.521 F1000
G1 X59.555 Y87.213 F1000
G1 X57.203 Y87.759 F1000
G1 X54.820 Y88.157 F1000
G1 X52.416 Y88.404 F1000
G1 X50.000 Y88.500 F1000
G1 X47.581 Y88.444 F1000
G1 X45.170 Y88.236 F1000
G1 X42.775 Y87.877 F1000
G1 X40.406 Y87.368 F1000
G1 X38.072 Y86.711 F1000
G1 X35.783 Y85.908 F1000
G1 X33.548 Y84.963 F1000
G1 X31.375 Y83.878 F1000
G1 X29.274 Y82.659 F1000
G1 X27.253 Y81.309 F1000
G1 X25.319 Y79.834 F1000
G1 X23.481 Y78.240 F1000
G1 X21.745 Y76.533 F1000
G1 X20.119 Y74.719 F1000
G1 X18.610 Y72.806 F1000
G1 X17.223 Y70.801 F1000
G1 X15.964 Y68.711 F1000
G1 X14.838 Y66.546 F1000
G1 X13.850 Y64.313 F1000
G1 X13.004 Y62.021 F1000
G1 X12.303 Y59.679 F1000
G1 X11.750 Y57.297 F1000
G1 X11.347 Y54.883 F1000
G1 X11.097 Y52.448 F1000
G1 X11.000 Y50.000 F1000
G1 X11.057 Y47.550 F1000
G1 X11.268 Y45.107 F1000
G1 X11.632 Y42.681 F1000
G1 X12.148 Y40.281 F1000
G1 X12.814 Y37.917 F1000
G1 X13.627 Y35.599 F1000
G1 X14.585 Y33.335 F1000
G1 X15.684 Y31.135 F1000
G1 X16.919 Y29.006 F1000
G1 X18.287 Y26.959 F1000
G1 X19.780 Y25.000 F1000
G1 X21.395 Y23.138 F1000
G1 X23.125 Y21.381 F1000
G1 X24.962 Y19.734 F1000
G1 X26.900 Y18.206 F1000
G1 X28.931 Y16.801 F1000
G1 X31.048 Y15.526 F1000
G1 X33.241 Y14.386 F1000
G1 X35.503 Y13.385 F1000
G1 X37.825 Y12.528 F1000
G1 X40.197 Y11.818 F1000
G1 X42.610 Y11.259 F1000
G1 X45.054 Y10.851 F1000
G1 X47.521 Y10.598 F1000
G1 X50.000 Y10.500 F1000
G1 X52.481 Y10.558 F1000
G1 X54.956 Y10.772 F1000
G1 X57.413 Y11.141 F1000
G1 X59.843 Y11.663 F1000
G1 X62.237 Y12.338 F1000
G1 X64.585 Y13.162 F1000
G1 X66.878 Y14.133 F1000
G1 X69.106 Y15.246 F1000
G1 X71.262 Y16.497 F1000
G1 X73.335 Y17.882 F1000
G1 X75.318 Y19.395 F1000
G1 X77.204 Y21.031 F1000
G1 X78.984 Y22.782 F1000
G1 X80.651 Y24.643 F1000
G1 X82.199 Y26.606 F1000
G1 X83.621 Y28.663 F1000
G1 X84.912 Y30.807 F1000
G1 X86.066 Y33.028 F1000
G1 X87.079 Y35.319 F1000
G1 X87.947 Y37.670 F1000
G1 X88.666 Y40.072 F1000
G1 X89.233 Y42.516 F1000
G1 X89.645 Y44.992 F1000
G1 X89.901 Y47.490 F1000
G0 Z25.000
M5  ; Stop spindle

; ===== TOOL CHANGE TO T2 =====
G0 Z25.000  ; Raise to safe height
G0 X0 Y0  ; Move to tool change position
M5  ; Stop spindle
G4 P3.0  ; Wait for spindle to stop
T2 M6  ; Change to Tool 2 - 3mm Ball End Mill
G4 P5.0  ; Tool change delay

; ===== GRID PATTERN - 3000 operations =====
M3 S18731  ; Start spindle at 18731 RPM
G4 P2.0  ; Wait 2 seconds for spindle to reach speed
G0 X10.000 Y10.000
G1 Z-1.000 F300
G1 X12.000 Y10.000 F800
G1 X12.000 Y12.000
G1 X10.000 Y12.000
G1 X10.000 Y10.000
G1 X12.000 Y14.000 F800
G1 X12.000 Y16.000
G1 X10.000 Y16.000
G1 X10.000 Y14.000
G1 X12.000 Y18.000 F800
G1 X12.000 Y20.000
G1 X10.000 Y20.000
G1 X10.000 Y18.000
G1 X12.000 Y22.000 F800
G1 X12.000 Y24.000
G1 X10.000 Y24.000
G1 X10.000 Y22.000
G1 X12.000 Y26.000 F800
G1 X12.000 Y28.000
G1 X10.000 Y28.000
G1 X10.000 Y26.000
G1 X12.000 Y30.000 F800
G1 X12.000 Y32.000
G1 X10.000 Y32.000
G1 X10.000 Y30.000
G1 X12.000 Y34.000 F800
G1 X12.000 Y36.000
G1 X10.000 Y36.000
G1 X10.000 Y34.000
G1 X12.000 Y38.000 F800
G1 X12.000 Y40.000
G1 X10.000 Y40.000
G1 X10.000 Y38.000
G1 X12.000 Y42.000 F800
G1 X12.000 Y44.000
G1 X10.000 Y44.000
G1 X10.000 Y42.000
G1 X12.000 Y46.000 F800
G1 X12.000 Y48.000
G1 X10.000 Y48.000
G1 X10.000 Y46.000
G1 X12.000 Y50.000 F800
G1 X12.000 Y52.000
G1 X10.000 Y52.000
G1 X10.000 Y50.000
G1 X12.000 Y54.000 F800
G1 X12.000 Y56.000
G1 X10.000 Y56.000
G1 X10.000 Y54.000
G1 X12.000 Y58.000 F800
G1 X12.000 Y60.000
G1 X10.000 Y60.000
G1 X10.000 Y58.000
G1 X12.000 Y62.000 F800
G1 X12.000 Y64.000
G1 X10.000 Y64.000
G1 X10.000 Y62.000
G1 X12.000 Y66.000 F800
G1 X12.000 Y68.000
G1 X10.000 Y68.000
G1 X10.000 Y66.000
G1 X12.000 Y70.000 F800
G1 X12.000 Y72.000
G1 X10.000 Y72.000
G1 X10.000 Y70.000
G1 X12.000 Y74.000 F800
G1 X12.000 Y76.000
G1 X10.000 Y76.000
G1 X10.000 Y74.000
G1 X12.000 Y78.000 F800
G1 X12.000 Y80.000
G1 X10.000 Y80.000
G1 X10.000 Y78.000
G1 X12.000 Y82.000 F800
G1 X12.000 Y84.000
G1 X10.000 Y84.000
G1 X10.000 Y82.000
G1 X12.000 Y86.000 F800
G1 X12.000 Y88.000
G1 X10.000 Y88.000
G1 X10.000 Y86.000
G1 X16.000 Y10.000 F800
G1 X16.000 Y12.000
G1 X14.000 Y12.000
G1 X14.000 Y10.000
G1 X16.000 Y14.000 F800
G1 X16.000 Y16.000
G1 X14.000 Y16.000
G1 X14.000 Y14.000
G1 X16.000 Y18.000 F800
G1 X16.000 Y20.000
G1 X14.000 Y20.000
G1 X14.000 Y18.000
G1 X16.000 Y22.000 F800
G1 X16.000 Y24.000
G1 X14.000 Y24.000
G1 X14.000 Y22.000
G1 X16.000 Y26.000 F800
G1 X16.000 Y28.000
G1 X14.000 Y28.000
G1 X14.000 Y26.000
G1 X16.000 Y30.000 F800
G1 X16.000 Y32.000
G1 X14.000 Y32.000
G1 X14.000 Y30.000
G1 X16.000 Y34.000 F800
G1 X16.000 Y36.000
G1 X14.000 Y36.000
G1 X14.000 Y34.000
G1 X16.000 Y38.000 F800
G1 X16.000 Y40.000
G1 X14.000 Y40.000
G1 X14.000 Y38.000
G1 X16.000 Y42.000 F800
G1 X16.000 Y44.000
G1 X14.000 Y44.000
G1 X14.000 Y42.000
G1 X16.000 Y46.000 F800
G1 X16.000 Y48.000
G1 X14.000 Y48.000
G1 X14.000 Y46.000
G1 X16.000 Y50.000 F800
G1 X16.000 Y52.000
G1 X14.000 Y52.000
G1 X14.000 Y50.000
G1 X16.000 Y54.000 F800
G1 X16.000 Y56.000
G1 X14.000 Y56.000
G1 X14.000 Y54.000
G1 X16.000 Y58.000 F800
G1 X16.000 Y60.000
G1 X14.000 Y60.000
G1 X14.000 Y58.000
G1 X16.000 Y62.000 F800
G1 X16.000 Y64.000
G1 X14.000 Y64.000
G1 X14.000 Y62.000
G1 X16.000 Y66.000 F800
G1 X16.000 Y68.000
G1 X14.000 Y68.000
G1 X14.000 Y66.000
G1 X16.000 Y70.000 F800
G1 X16.000 Y72.000
G1 X14.000 Y72.000
G1 X14.000 Y70.000
G1 X16.000 Y74.000 F800
G1 X16.000 Y76.000
G1 X14.000 Y76.000
G1 X14.000 Y74.000
G1 X16.000 Y78.000 F800
G1 X16.000 Y80.000
G1 X14.000 Y80.000
G1 X14.000 Y78.000
G1 X16.000 Y82.000 F800
G1 X16.000 Y84.000
G1 X14.000 Y84.000
G1 X14.000 Y82.000
G1 X16.000 Y86.000 F800
G1 X16.000 Y88.000
G1 X14.000 Y88.000
G1 X14.000 Y86.000
G1 X20.000 Y10.000 F800
G1 X20.000 Y12.000
G1 X18.000 Y12.000
G1 X18.000 Y10.000
G1 X20.000 Y14.000 F800
G1 X20.000 Y16.000
G1 X18.000 Y16.000
G1 X18.000 Y14.000
G1 X20.000 Y18.000 F800
G1 X20.000 Y20.000
G1 X18.000 Y20.000
G1 X18.000 Y18.000
G1 X20.000 Y22.000 F800
G1 X20.000 Y24.000
G1 X18.000 Y24.000
G1 X18.000 Y22.000
G1 X20.000 Y26.000 F800
G1 X20.000 Y28.000
G1 X18.000 Y28.000
G1 X18.000 Y26.000
G1 X20.000 Y30.000 F800
G1 X20.000 Y32.000
G1 X18.000 Y32.000
G1 X18.000 Y30.000
G1 X20.000 Y34.000 F800
G1 X20.000 Y36.000
G1 X18.000 Y36.000
G1 X18.000 Y34.000
G1 X20.000 Y38.000 F800
G1 X20.000 Y40.000
G1 X18.000 Y40.000
G1 X18.000 Y38.000
G1 X20.000 Y42.000 F800
G1 X20.000 Y44.000
G1 X18.000 Y44.000
G1 X18.000 Y42.000
G1 X20.000 Y46.000 F800
G1 X20.000 Y48.000
G1 X18.000 Y48.000
G1 X18.000 Y46.000
G1 X20.000 Y50.000 F800
G1 X20.000 Y52.000
G1 X18.000 Y52.000
G1 X18.000 Y50.000
G1 X20.000 Y54.000 F800
G1 X20.000 Y56.000
G1 X18.000 Y56.000
G1 X18.000 Y54.000
G1 X20.000 Y58.000 F800
G1 X20.000 Y60.000
G1 X18.000 Y60.000
G1 X18.000 Y58.000
G1 X20.000 Y62.000 F800
G1 X20.000 Y64.000
G1 X18.000 Y64.000
G1 X18.000 Y62.000
G1 X20.000 Y66.000 F800
G1 X20.000 Y68.000
G1 X18.000 Y68.000
G1 X18.000 Y66.000
G1 X20.000 Y70.000 F800
G1 X20.000 Y72.000
G1 X18.000 Y72.000
G1 X18.000 Y70.000
G1 X20.000 Y74.000 F800
G1 X20.000 Y76.000
G1 X18.000 Y76.000
G1 X18.000 Y74.000
G1 X20.000 Y78.000 F800
G1 X20.000 Y80.000
G1 X18.000 Y80.000
G1 X18.000 Y78.000
G1 X20.000 Y82.000 F800
G1 X20.000 Y84.000
G1 X18.000 Y84.000
G1 X18.000 Y82.000
G1 X20.000 Y86.000 F800
G1 X20.000 Y88.000
G1 X18.000 Y88.000
G1 X18.000 Y86.000
G1 X24.000 Y10.000 F800
G1 X24.000 Y12.000
G1 X22.000 Y12.000
G1 X22.000 Y10.000
G1 X24.000 Y14.000 F800
G1 X24.000 Y16.000
G1 X22.000 Y16.000
G1 X22.000 Y14.000
G1 X24.000 Y18.000 F800
G1 X24.000 Y20.000
G1 X22.000 Y20.000
G1 X22.000 Y18.000
G1 X24.000 Y22.000 F800
G1 X24.000 Y24.000
G1 X22.000 Y24.000
G1 X22.000 Y22.000
G1 X24.000 Y26.000 F800
G1 X24.000 Y28.000
G1 X22.000 Y28.000
G1 X22.000 Y26.000
G1 X24.000 Y30.000 F800
G1 X24.000 Y32.000
G1 X22.000 Y32.000
G1 X22.000 Y30.000
G1 X24.000 Y34.000 F800
G1 X24.000 Y36.000
G1 X22.000 Y36.000
G1 X22.000 Y34.000
G1 X24.000 Y38.000 F800
G1 X24.000 Y40.000
G1 X22.000 Y40.000
G1 X22.000 Y38.000
G1 X24.000 Y42.000 F800
G1 X24.000 Y44.000
G1 X22.000 Y44.000
G1 X22.000 Y42.000
G1 X24.000 Y46.000 F800
G1 X24.000 Y48.000
G1 X22.000 Y48.000
G1 X22.000 Y46.000
G1 X24.000 Y50.000 F800
G1 X24.000 Y52.000
G1 X22.000 Y52.000
G1 X22.000 Y50.000
G1 X24.000 Y54.000 F800
G1 X24.000 Y56.000
G1 X22.000 Y56.000
G1 X22.000 Y54.000
G1 X24.000 Y58.000 F800
G1 X24.000 Y60.000
G1 X22.000 Y60.000
G1 X22.000 Y58.000
G1 X24.000 Y62.000 F800
G1 X24.000 Y64.000
G1 X22.000 Y64.000
G1 X22.000 Y62.000
G1 X24.000 Y66.000 F800
G1 X24.000 Y68.000
G1 X22.000 Y68.000
G1 X22.000 Y66.000
G1 X24.000 Y70.000 F800
G1 X24.000 Y72.000
G1 X22.000 Y72.000
G1 X22.000 Y70.000
G1 X24.000 Y74.000 F800
G1 X24.000 Y76.000
G1 X22.000 Y76.000
G1 X22.000 Y74.000
G1 X24.000 Y78.000 F800
G1 X24.000 Y80.000
G1 X22.000 Y80.000
G1 X22.000 Y78.000
G1 X24.000 Y82.000 F800
G1 X24.000 Y84.000
G1 X22.000 Y84.000
G1 X22.000 Y82.000
G1 X24.000 Y86.000 F800
G1 X24.000 Y88.000
G1 X22.000 Y88.000
G1 X22.000 Y86.000
G1 X28.000 Y10.000 F800
G1 X28.000 Y12.000
G1 X26.000 Y12.000
G1 X26.000 Y10.000
G1 X28.000 Y14.000 F800
G1 X28.000 Y16.000
G1 X26.000 Y16.000
G1 X26.000 Y14.000
G1 X28.000 Y18.000 F800
G1 X28.000 Y20.000
G1 X26.000 Y20.000
G1 X26.000 Y18.000
G1 X28.000 Y22.000 F800
G1 X28.000 Y24.000
G1 X26.000 Y24.000
G1 X26.000 Y22.000
G1 X28.000 Y26.000 F800
G1 X28.000 Y28.000
G1 X26.000 Y28.000
G1 X26.000 Y26.000
G1 X28.000 Y30.000 F800
G1 X28.000 Y32.000
G1 X26.000 Y32.000
G1 X26.000 Y30.000
G1 X28.000 Y34.000 F800
G1 X28.000 Y36.000
G1 X26.000 Y36.000
G1 X26.000 Y34.000
G1 X28.000 Y38.000 F800
G1 X28.000 Y40.000
G1 X26.000 Y40.000
G1 X26.000 Y38.000
G1 X28.000 Y42.000 F800
G1 X28.000 Y44.000
G1 X26.000 Y44.000
G1 X26.000 Y42.000
G1 X28.000 Y46.000 F800
G1 X28.000 Y48.000
G1 X26.000 Y48.000
G1 X26.000 Y46.000
G1 X28.000 Y50.000 F800
G1 X28.000 Y52.000
G1 X26.000 Y52.000
G1 X26.000 Y50.000
G1 X28.000 Y54.000 F800
G1 X28.000 Y56.000
G1 X26.000 Y56.000
G1 X26.000 Y54.000
G1 X28.000 Y58.000 F800
G1 X28.000 Y60.000
G1 X26.000 Y60.000
G1 X26.000 Y58.000
G1 X28.000 Y62.000 F800
G1 X28.000 Y64.000
G1 X26.000 Y64.000
G1 X26.000 Y62.000
G1 X28.000 Y66.000 F800
G1 X28.000 Y68.000
G1 X26.000 Y68.000
G1 X26.000 Y66.000
G1 X28.000 Y70.000 F800
G1 X28.000 Y72.000
G1 X26.000 Y72.000
G1 X26.000 Y70.000
G1 X28.000 Y74.000 F800
G1 X28.000 Y76.000
G1 X26.000 Y76.000
G1 X26.000 Y74.000
G1 X28.000 Y78.000 F800
G1 X28.000 Y80.000
G1 X26.000 Y80.000
G1 X26.000 Y78.000
G1 X28.000 Y82.000 F800
G1 X28.000 Y84.000
G1 X26.000 Y84.000
G1 X26.000 Y82.000
G1 X28.000 Y86.000 F800
G1 X28.000 Y88.000
G1 X26.000 Y88.000
G1 X26.000 Y86.000
G1 X32.000 Y10.000 F800
G1 X32.000 Y12.000
G1 X30.000 Y12.000
G1 X30.000 Y10.000
G1 X32.000 Y14.000 F800
G1 X32.000 Y16.000
G1 X30.000 Y16.000
G1 X30.000 Y14.000
G1 X32.000 Y18.000 F800
G1 X32.000 Y20.000
G1 X30.000 Y20.000
G1 X30.000 Y18.000
G1 X32.000 Y22.000 F800
G1 X32.000 Y24.000
G1 X30.000 Y24.000
G1 X30.000 Y22.000
G1 X32.000 Y26.000 F800
G1 X32.000 Y28.000
G1 X30.000 Y28.000
G1 X30.000 Y26.000
G1 X32.000 Y30.000 F800
G1 X32.000 Y32.000
G1 X30.000 Y32.000
G1 X30.000 Y30.000
G1 X32.000 Y34.000 F800
G1 X32.000 Y36.000
G1 X30.000 Y36.000
G1 X30.000 Y34.000
G1 X32.000 Y38.000 F800
G1 X32.000 Y40.000
G1 X30.000 Y40.000
G1 X30.000 Y38.000
G1 X32.000 Y42.000 F800
G1 X32.000 Y44.000
G1 X30.000 Y44.000
G1 X30.000 Y42.000
G1 X32.000 Y46.000 F800
G1 X32.000 Y48.000
G1 X30.000 Y48.000
G1 X30.000 Y46.000
G1 X32.000 Y50.000 F800
G1 X32.000 Y52.000
G1 X30.000 Y52.000
G1 X30.000 Y50.000
G1 X32.000 Y54.000 F800
G1 X32.000 Y56.000
G1 X30.000 Y56.000
G1 X30.000 Y54.000
G1 X32.000 Y58.000 F800
G1 X32.000 Y60.000
G1 X30.000 Y60.000
G1 X30.000 Y58.000
G1 X32.000 Y62.000 F800
G1 X32.000 Y64.000
G1 X30.000 Y64.000
G1 X30.000 Y62.000
G1 X32.000 Y66.000 F800
G1 X32.000 Y68.000
G1 X30.000 Y68.000
G1 X30.000 Y66.000
G1 X32.000 Y70.000 F800
G1 X32.000 Y72.000
G1 X30.000 Y72.000
G1 X30.000 Y70.000
G1 X32.000 Y74.000 F800
G1 X32.000 Y76.000
G1 X30.000 Y76.000
G1 X30.000 Y74.000
G1 X32.000 Y78.000 F800
G1 X32.000 Y80.000
G1 X30.000 Y80.000
G1 X30.000 Y78.000
G1 X32.000 Y82.000 F800
G1 X32.000 Y84.000
G1 X30.000 Y84.000
G1 X30.000 Y82.000
G1 X32.000 Y86.000 F800
G1 X32.000 Y88.000
G1 X30.000 Y88.000
G1 X30.000 Y86.000
G1 X36.000 Y10.000 F800
G1 X36.000 Y12.000
G1 X34.000 Y12.000
G1 X34.000 Y10.000
G1 X36.000 Y14.000 F800
G1 X36.000 Y16.000
G1 X34.000 Y16.000
G1 X34.000 Y14.000
G1 X36.000 Y18.000 F800
G1 X36.000 Y20.000
G1 X34.000 Y20.000
G1 X34.000 Y18.000
G1 X36.000 Y22.000 F800
G1 X36.000 Y24.000
G1 X34.000 Y24.000
G1 X34.000 Y22.000
G1 X36.000 Y26.000 F800
G1 X36.000 Y28.000
G1 X34.000 Y28.000
G1 X34.000 Y26.000
G1 X36.000 Y30.000 F800
G1 X36.000 Y32.000
G1 X34.000 Y32.000
G1 X34.000 Y30.000
G1 X36.000 Y34.000 F800
G1 X36.000 Y36.000
G1 X34.000 Y36.000
G1 X34.000 Y34.000
G1 X36.000 Y38.000 F800
G1 X36.000 Y40.000
G1 X34.000 Y40.000
G1 X34.000 Y38.000
G1 X36.000 Y42.000 F800
G1 X36.000 Y44.000
G1 X34.000 Y44.000
G1 X34.000 Y42.000
G1 X36.000 Y46.000 F800
G1 X36.000 Y48.000
G1 X34.000 Y48.000
G1 X34.000 Y46.000
G1 X36.000 Y50.000 F800
G1 X36.000 Y52.000
G1 X34.000 Y52.000
G1 X34.000 Y50.000
G1 X36.000 Y54.000 F800
G1 X36.000 Y56.000
G1 X34.000 Y56.000
G1 X34.000 Y54.000
G1 X36.000 Y58.000 F800
G1 X36.000 Y60.000
G1 X34.000 Y60.000
G1 X34.000 Y58.000
G1 X36.000 Y62.000 F800
G1 X36.000 Y64.000
G1 X34.000 Y64.000
G1 X34.000 Y62.000
G1 X36.000 Y66.000 F800
G1 X36.000 Y68.000
G1 X34.000 Y68.000
G1 X34.000 Y66.000
G1 X36.000 Y70.000 F800
G1 X36.000 Y72.000
G1 X34.000 Y72.000
G1 X34.000 Y70.000
G1 X36.000 Y74.000 F800
G1 X36.000 Y76.000
G1 X34.000 Y76.000
G1 X34.000 Y74.000
G1 X36.000 Y78.000 F800
G1 X36.000 Y80.000
G1 X34.000 Y80.000
G1 X34.000 Y78.000
G1 X36.000 Y82.000 F800
G1 X36.000 Y84.000
G1 X34.000 Y84.000
G1 X34.000 Y82.000
G1 X36.000 Y86.000 F800
G1 X36.000 Y88.000
G1 X34.000 Y88.000
G1 X34.000 Y86.000
G1 X40.000 Y10.000 F800
G1 X40.000 Y12.000
G1 X38.000 Y12.000
G1 X38.000 Y10.000
G1 X40.000 Y14.000 F800
G1 X40.000 Y16.000
G1 X38.000 Y16.000
G1 X38.000 Y14.000
G1 X40.000 Y18.000 F800
G1 X40.000 Y20.000
G1 X38.000 Y20.000
G1 X38.000 Y18.000
G1 X40.000 Y22.000 F800
G1 X40.000 Y24.000
G1 X38.000 Y24.000
G1 X38.000 Y22.000
G1 X40.000 Y26.000 F800
G1 X40.000 Y28.000
G1 X38.000 Y28.000
G1 X38.000 Y26.000
G1 X40.000 Y30.000 F800
G1 X40.000 Y32.000
G1 X38.000 Y32.000
G1 X38.000 Y30.000
G1 X40.000 Y34.000 F800
G1 X40.000 Y36.000
G1 X38.000 Y36.000
G1 X38.000 Y34.000
G1 X40.000 Y38.000 F800
G1 X40.000 Y40.000
G1 X38.000 Y40.000
G1 X38.000 Y38.000
G1 X40.000 Y42.000 F800
G1 X40.000 Y44.000
G1 X38.000 Y44.000
G1 X38.000 Y42.000
G1 X40.000 Y46.000 F800
G1 X40.000 Y48.000
G1 X38.000 Y48.000
G1 X38.000 Y46.000
G1 X40.000 Y50.000 F800
G1 X40.000 Y52.000
G1 X38.000 Y52.000
G1 X38.000 Y50.000
G1 X40.000 Y54.000 F800
G1 X40.000 Y56.000
G1 X38.000 Y56.000
G1 X38.000 Y54.000
G1 X40.000 Y58.000 F800
G1 X40.000 Y60.000
G1 X38.000 Y60.000
G1 X38.000 Y58.000
G1 X40.000 Y62.000 F800
G1 X40.000 Y64.000
G1 X38.000 Y64.000
G1 X38.000 Y62.000
G1 X40.000 Y66.000 F800
G1 X40.000 Y68.000
G1 X38.000 Y68.000
G1 X38.000 Y66.000
G1 X40.000 Y70.000 F800
G1 X40.000 Y72.000
G1 X38.000 Y72.000
G1 X38.000 Y70.000
G1 X40.000 Y74.000 F800
G1 X40.000 Y76.000
G1 X38.000 Y76.000
G1 X38.000 Y74.000
G1 X40.000 Y78.000 F800
G1 X40.000 Y80.000
G1 X38.000 Y80.000
G1 X38.000 Y78.000
G1 X40.000 Y82.000 F800
G1 X40.000 Y84.000
G1 X38.000 Y84.000
G1 X38.000 Y82.000
G1 X40.000 Y86.000 F800
G1 X40.000 Y88.000
G1 X38.000 Y88.000
G1 X38.000 Y86.000
G1 X44.000 Y10.000 F800
G1 X44.000 Y12.000
G1 X42.000 Y12.000
G1 X42.000 Y10.000
G1 X44.000 Y14.000 F800
G1 X44.000 Y16.000
G1 X42.000 Y16.000
G1 X42.000 Y14.000
G1 X44.000 Y18.000 F800
G1 X44.000 Y20.000
G1 X42.000 Y20.000
G1 X42.000 Y18.000
G1 X44.000 Y22.000 F800
G1 X44.000 Y24.000
G1 X42.000 Y24.000
G1 X42.000 Y22.000
G1 X44.000 Y26.000 F800
G1 X44.000 Y28.000
G1 X42.000 Y28.000
G1 X42.000 Y26.000
G1 X44.000 Y30.000 F800
G1 X44.000 Y32.000
G1 X42.000 Y32.000
G1 X42.000 Y30.000
G1 X44.000 Y34.000 F800
G1 X44.000 Y36.000
G1 X42.000 Y36.000
G1 X42.000 Y34.000
G1 X44.000 Y38.000 F800
G1 X44.000 Y40.000
G1 X42.000 Y40.000
G1 X42.000 Y38.000
G1 X44.000 Y42.000 F800
G1 X44.000 Y44.000
G1 X42.000 Y44.000
G1 X42.000 Y42.000
G1 X44.000 Y46.000 F800
G1 X44.000 Y48.000
G1 X42.000 Y48.000
G1 X42.000 Y46.000
G1 X44.000 Y50.000 F800
G1 X44.000 Y52.000
G1 X42.000 Y52.000
G1 X42.000 Y50.000
G1 X44.000 Y54.000 F800
G1 X44.000 Y56.000
G1 X42.000 Y56.000
G1 X42.000 Y54.000
G1 X44.000 Y58.000 F800
G1 X44.000 Y60.000
G1 X42.000 Y60.000
G1 X42.000 Y58.000
G1 X44.000 Y62.000 F800
G1 X44.000 Y64.000
G1 X42.000 Y64.000
G1 X42.000 Y62.000
G1 X44.000 Y66.000 F800
G1 X44.000 Y68.000
G1 X42.000 Y68.000
G1 X42.000 Y66.000
G1 X44.000 Y70.000 F800
G1 X44.000 Y72.000
G1 X42.000 Y72.000
G1 X42.000 Y70.000
G1 X44.000 Y74.000 F800
G1 X44.000 Y76.000
G1 X42.000 Y76.000
G1 X42.000 Y74.000
G1 X44.000 Y78.000 F800
G1 X44.000 Y80.000
G1 X42.000 Y80.000
G1 X42.000 Y78.000
G1 X44.000 Y82.000 F800
G1 X44.000 Y84.000
G1 X42.000 Y84.000
G1 X42.000 Y82.000
G1 X44.000 Y86.000 F800
G1 X44.000 Y88.000
G1 X42.000 Y88.000
G1 X42.000 Y86.000
G1 X48.000 Y10.000 F800
G1 X48.000 Y12.000
G1 X46.000 Y12.000
G1 X46.000 Y10.000
G1 X48.000 Y14.000 F800
G1 X48.000 Y16.000
G1 X46.000 Y16.000
G1 X46.000 Y14.000
G1 X48.000 Y18.000 F800
G1 X48.000 Y20.000
G1 X46.000 Y20.000
G1 X46.000 Y18.000
G1 X48.000 Y22.000 F800
G1 X48.000 Y24.000
G1 X46.000 Y24.000
G1 X46.000 Y22.000
G1 X48.000 Y26.000 F800
G1 X48.000 Y28.000
G1 X46.000 Y28.000
G1 X46.000 Y26.000
G1 X48.000 Y30.000 F800
G1 X48.000 Y32.000
G1 X46.000 Y32.000
G1 X46.000 Y30.000
G1 X48.000 Y34.000 F800
G1 X48.000 Y36.000
G1 X46.000 Y36.000
G1 X46.000 Y34.000
G1 X48.000 Y38.000 F800
G1 X48.000 Y40.000
G1 X46.000 Y40.000
G1 X46.000 Y38.000
G1 X48.000 Y42.000 F800
G1 X48.000 Y44.000
G1 X46.000 Y44.000
G1 X46.000 Y42.000
G1 X48.000 Y46.000 F800
G1 X48.000 Y48.000
G1 X46.000 Y48.000
G1 X46.000 Y46.000
G1 X48.000 Y50.000 F800
G1 X48.000 Y52.000
G1 X46.000 Y52.000
G1 X46.000 Y50.000
G1 X48.000 Y54.000 F800
G1 X48.000 Y56.000
G1 X46.000 Y56.000
G1 X46.000 Y54.000
G1 X48.000 Y58.000 F800
G1 X48.000 Y60.000
G1 X46.000 Y60.000
G1 X46.000 Y58.000
G1 X48.000 Y62.000 F800
G1 X48.000 Y64.000
G1 X46.000 Y64.000
G1 X46.000 Y62.000
G1 X48.000 Y66.000 F800
G1 X48.000 Y68.000
G1 X46.000 Y68.000
G1 X46.000 Y66.000
G1 X48.000 Y70.000 F800
G1 X48.000 Y72.000
G1 X46.000 Y72.000
G1 X46.000 Y70.000
G1 X48.000 Y74.000 F800
G1 X48.000 Y76.000
G1 X46.000 Y76.000
G1 X46.000 Y74.000
G1 X48.000 Y78.000 F800
G1 X48.000 Y80.000
G1 X46.000 Y80.000
G1 X46.000 Y78.000
G1 X48.000 Y82.000 F800
G1 X48.000 Y84.000
G1 X46.000 Y84.000
G1 X46.000 Y82.000
G1 X48.000 Y86.000 F800
G1 X48.000 Y88.000
G1 X46.000 Y88.000
G1 X46.000 Y86.000
G1 X52.000 Y10.000 F800
G1 X52.000 Y12.000
G1 X50.000 Y12.000
G1 X50.000 Y10.000
G1 X52.000 Y14.000 F800
G1 X52.000 Y16.000
G1 X50.000 Y16.000
G1 X50.000 Y14.000
G1 X52.000 Y18.000 F800
G1 X52.000 Y20.000
G1 X50.000 Y20.000
G1 X50.000 Y18.000
G1 X52.000 Y22.000 F800
G1 X52.000 Y24.000
G1 X50.000 Y24.000
G1 X50.000 Y22.000
G1 X52.000 Y26.000 F800
G1 X52.000 Y28.000
G1 X50.000 Y28.000
G1 X50.000 Y26.000
G1 X52.000 Y30.000 F800
G1 X52.000 Y32.000
G1 X50.000 Y32.000
G1 X50.000 Y30.000
G1 X52.000 Y34.000 F800
G1 X52.000 Y36.000
G1 X50.000 Y36.000
G1 X50.000 Y34.000
G1 X52.000 Y38.000 F800
G1 X52.000 Y40.000
G1 X50.000 Y40.000
G1 X50.000 Y38.000
G1 X52.000 Y42.000 F800
G1 X52.000 Y44.000
G1 X50.000 Y44.000
G1 X50.000 Y42.000
G1 X52.000 Y46.000 F800
G1 X52.000 Y48.000
G1 X50.000 Y48.000
G1 X50.000 Y46.000
G1 X52.000 Y50.000 F800
G1 X52.000 Y52.000
G1 X50.000 Y52.000
G1 X50.000 Y50.000
G1 X52.000 Y54.000 F800
G1 X52.000 Y56.000
G1 X50.000 Y56.000
G1 X50.000 Y54.000
G1 X52.000 Y58.000 F800
G1 X52.000 Y60.000
G1 X50.000 Y60.000
G1 X50.000 Y58.000
G1 X52.000 Y62.000 F800
G1 X52.000 Y64.000
G1 X50.000 Y64.000
G1 X50.000 Y62.000
G1 X52.000 Y66.000 F800
G1 X52.000 Y68.000
G1 X50.000 Y68.000
G1 X50.000 Y66.000
G1 X52.000 Y70.000 F800
G1 X52.000 Y72.000
G1 X50.000 Y72.000
G1 X50.000 Y70.000
G1 X52.000 Y74.000 F800
G1 X52.000 Y76.000
G1 X50.000 Y76.000
G1 X50.000 Y74.000
G1 X52.000 Y78.000 F800
G1 X52.000 Y80.000
G1 X50.000 Y80.000
G1 X50.000 Y78.000
G1 X52.000 Y82.000 F800
G1 X52.000 Y84.000
G1 X50.000 Y84.000
G1 X50.000 Y82.000
G1 X52.000 Y86.000 F800
G1 X52.000 Y88.000
G1 X50.000 Y88.000
G1 X50.000 Y86.000
G1 X56.000 Y10.000 F800
G1 X56.000 Y12.000
G1 X54.000 Y12.000
G1 X54.000 Y10.000
G1 X56.000 Y14.000 F800
G1 X56.000 Y16.000
G1 X54.000 Y16.000
G1 X54.000 Y14.000
G1 X56.000 Y18.000 F800
G1 X56.000 Y20.000
G1 X54.000 Y20.000
G1 X54.000 Y18.000
G1 X56.000 Y22.000 F800
G1 X56.000 Y24.000
G1 X54.000 Y24.000
G1 X54.000 Y22.000
G1 X56.000 Y26.000 F800
G1 X56.000 Y28.000
G1 X54.000 Y28.000
G1 X54.000 Y26.000
G1 X56.000 Y30.000 F800
G1 X56.000 Y32.000
G1 X54.000 Y32.000
G1 X54.000 Y30.000
G1 X56.000 Y34.000 F800
G1 X56.000 Y36.000
G1 X54.000 Y36.000
G1 X54.000 Y34.000
G1 X56.000 Y38.000 F800
G1 X56.000 Y40.000
G1 X54.000 Y40.000
G1 X54.000 Y38.000
G1 X56.000 Y42.000 F800
G1 X56.000 Y44.000
G1 X54.000 Y44.000
G1 X54.000 Y42.000
G1 X56.000 Y46.000 F800
G1 X56.000 Y48.000
G1 X54.000 Y48.000
G1 X54.000 Y46.000
G1 X56.000 Y50.000 F800
G1 X56.000 Y52.000
G1 X54.000 Y52.000
G1 X54.000 Y50.000
G1 X56.000 Y54.000 F800
G1 X56.000 Y56.000
G1 X54.000 Y56.000
G1 X54.000 Y54.000
G1 X56.000 Y58.000 F800
G1 X56.000 Y60.000
G1 X54.000 Y60.000
G1 X54.000 Y58.000
G1 X56.000 Y62.000 F800
G1 X56.000 Y64.000
G1 X54.000 Y64.000
G1 X54.000 Y62.000
G1 X56.000 Y66.000 F800
G1 X56.000 Y68.000
G1 X54.000 Y68.000
G1 X54.000 Y66.000
G1 X56.000 Y70.000 F800
G1 X56.000 Y72.000
G1 X54.000 Y72.000
G1 X54.000 Y70.000
G1 X56.000 Y74.000 F800
G1 X56.000 Y76.000
G1 X54.000 Y76.000
G1 X54.000 Y74.000
G1 X56.000 Y78.000 F800
G1 X56.000 Y80.000
G1 X54.000 Y80.000
G1 X54.000 Y78.000
G1 X56.000 Y82.000 F800
G1 X56.000 Y84.000
G1 X54.000 Y84.000
G1 X54.000 Y82.000
G1 X56.000 Y86.000 F800
G1 X56.000 Y88.000
G1 X54.000 Y88.000
G1 X54.000 Y86.000
G1 X60.000 Y10.000 F800
G1 X60.000 Y12.000
G1 X58.000 Y12.000
G1 X58.000 Y10.000
G1 X60.000 Y14.000 F800
G1 X60.000 Y16.000
G1 X58.000 Y16.000
G1 X58.000 Y14.000
G1 X60.000 Y18.000 F800
G1 X60.000 Y20.000
G1 X58.000 Y20.000
G1 X58.000 Y18.000
G1 X60.000 Y22.000 F800
G1 X60.000 Y24.000
G1 X58.000 Y24.000
G1 X58.000 Y22.000
G1 X60.000 Y26.000 F800
G1 X60.000 Y28.000
G1 X58.000 Y28.000
G1 X58.000 Y26.000
G1 X60.000 Y30.000 F800
G1 X60.000 Y32.000
G1 X58.000 Y32.000
G1 X58.000 Y30.000
G1 X60.000 Y34.000 F800
G1 X60.000 Y36.000
G1 X58.000 Y36.000
G1 X58.000 Y34.000
G1 X60.000 Y38.000 F800
G1 X60.000 Y40.000
G1 X58.000 Y40.000
G1 X58.000 Y38.000
G1 X60.000 Y42.000 F800
G1 X60.000 Y44.000
G1 X58.000 Y44.000
G1 X58.000 Y42.000
G1 X60.000 Y46.000 F800
G1 X60.000 Y48.000
G1 X58.000 Y48.000
G1 X58.000 Y46.000
G1 X60.000 Y50.000 F800
G1 X60.000 Y52.000
G1 X58.000 Y52.000
G1 X58.000 Y50.000
G1 X60.000 Y54.000 F800
G1 X60.000 Y56.000
G1 X58.000 Y56.000
G1 X58.000 Y54.000
G1 X60.000 Y58.000 F800
G1 X60.000 Y60.000
G1 X58.000 Y60.000
G1 X58.000 Y58.000
G1 X60.000 Y62.000 F800
G1 X60.000 Y64.000
G1 X58.000 Y64.000
G1 X58.000 Y62.000
G1 X60.000 Y66.000 F800
G1 X60.000 Y68.000
G1 X58.000 Y68.000
G1 X58.000 Y66.000
G1 X60.000 Y70.000 F800
G1 X60.000 Y72.000
G1 X58.000 Y72.000
G1 X58.000 Y70.000
G1 X60.000 Y74.000 F800
G1 X60.000 Y76.000
G1 X58.000 Y76.000
G1 X58.000 Y74.000
G1 X60.000 Y78.000 F800
G1 X60.000 Y80.000
G1 X58.000 Y80.000
G1 X58.000 Y78.000
G1 X60.000 Y82.000 F800
G1 X60.000 Y84.000
G1 X58.000 Y84.000
G1 X58.000 Y82.000
G1 X60.000 Y86.000 F800
G1 X60.000 Y88.000
G1 X58.000 Y88.000
G1 X58.000 Y86.000
G1 X64.000 Y10.000 F800
G1 X64.000 Y12.000
G1 X62.000 Y12.000
G1 X62.000 Y10.000
G1 X64.000 Y14.000 F800
G1 X64.000 Y16.000
G1 X62.000 Y16.000
G1 X62.000 Y14.000
G1 X64.000 Y18.000 F800
G1 X64.000 Y20.000
G1 X62.000 Y20.000
G1 X62.000 Y18.000
G1 X64.000 Y22.000 F800
G1 X64.000 Y24.000
G1 X62.000 Y24.000
G1 X62.000 Y22.000
G1 X64.000 Y26.000 F800
G1 X64.000 Y28.000
G1 X62.000 Y28.000
G1 X62.000 Y26.000
G1 X64.000 Y30.000 F800
G1 X64.000 Y32.000
G1 X62.000 Y32.000
G1 X62.000 Y30.000
G1 X64.000 Y34.000 F800
G1 X64.000 Y36.000
G1 X62.000 Y36.000
G1 X62.000 Y34.000
G1 X64.000 Y38.000 F800
G1 X64.000 Y40.000
G1 X62.000 Y40.000
G1 X62.000 Y38.000
G1 X64.000 Y42.000 F800
G1 X64.000 Y44.000
G1 X62.000 Y44.000
G1 X62.000 Y42.000
G1 X64.000 Y46.000 F800
G1 X64.000 Y48.000
G1 X62.000 Y48.000
G1 X62.000 Y46.000
G1 X64.000 Y50.000 F800
G1 X64.000 Y52.000
G1 X62.000 Y52.000
G1 X62.000 Y50.000
G1 X64.000 Y54.000 F800
G1 X64.000 Y56.000
G1 X62.000 Y56.000
G1 X62.000 Y54.000
G1 X64.000 Y58.000 F800
G1 X64.000 Y60.000
G1 X62.000 Y60.000
G1 X62.000 Y58.000
G1 X64.000 Y62.000 F800
G1 X64.000 Y64.000
G1 X62.000 Y64.000
G1 X62.000 Y62.000
G1 X64.000 Y66.000 F800
G1 X64.000 Y68.000
G1 X62.000 Y68.000
G1 X62.000 Y66.000
G1 X64.000 Y70.000 F800
G1 X64.000 Y72.000
G1 X62.000 Y72.000
G1 X62.000 Y70.000
G1 X64.000 Y74.000 F800
G1 X64.000 Y76.000
G1 X62.000 Y76.000
G1 X62.000 Y74.000
G1 X64.000 Y78.000 F800
G1 X64.000 Y80.000
G1 X62.000 Y80.000
G1 X62.000 Y78.000
G1 X64.000 Y82.000 F800
G1 X64.000 Y84.000
G1 X62.000 Y84.000
G1 X62.000 Y82.000
G1 X64.000 Y86.000 F800
G1 X64.000 Y88.000
G1 X62.000 Y88.000
G1 X62.000 Y86.000
G1 X68.000 Y10.000 F800
G1 X68.000 Y12.000
G1 X66.000 Y12.000
G1 X66.000 Y10.000
G1 X68.000 Y14.000 F800
G1 X68.000 Y16.000
G1 X66.000 Y16.000
G1 X66.000 Y14.000
G1 X68.000 Y18.000 F800
G1 X68.000 Y20.000
G1 X66.000 Y20.000
G1 X66.000 Y18.000
G1 X68.000 Y22.000 F800
G1 X68.000 Y24.000
G1 X66.000 Y24.000
G1 X66.000 Y22.000
G1 X68.000 Y26.000 F800
G1 X68.000 Y28.000
G1 X66.000 Y28.000
G1 X66.000 Y26.000
G1 X68.000 Y30.000 F800
G1 X68.000 Y32.000
G1 X66.000 Y32.000
G1 X66.000 Y30.000
G1 X68.000 Y34.000 F800
G1 X68.000 Y36.000
G1 X66.000 Y36.000
G1 X66.000 Y34.000
G1 X68.000 Y38.000 F800
G1 X68.000 Y40.000
G1 X66.000 Y40.000
G1 X66.000 Y38.000
G1 X68.000 Y42.000 F800
G1 X68.000 Y44.000
G1 X66.000 Y44.000
G1 X66.000 Y42.000
G1 X68.000 Y46.000 F800
G1 X68.000 Y48.000
G1 X66.000 Y48.000
G1 X66.000 Y46.000
G1 X68.000 Y50.000 F800
G1 X68.000 Y52.000
G1 X66.000 Y52.000
G1 X66.000 Y50.000
G1 X68.000 Y54.000 F800
G1 X68.000 Y56.000
G1 X66.000 Y56.000
G1 X66.000 Y54.000
G1 X68.000 Y58.000 F800
G1 X68.000 Y60.000
G1 X66.000 Y60.000
G1 X66.000 Y58.000
G1 X68.000 Y62.000 F800
G1 X68.000 Y64.000
G1 X66.000 Y64.000
G1 X66.000 Y62.000
G1 X68.000 Y66.000 F800
G1 X68.000 Y68.000
G1 X66.000 Y68.000
G1 X66.000 Y66.000
G1 X68.000 Y70.000 F800
G1 X68.000 Y72.000
G1 X66.000 Y72.000
G1 X66.000 Y70.000
G1 X68.000 Y74.000 F800
G1 X68.000 Y76.000
G1 X66.000 Y76.000
G1 X66.000 Y74.000
G1 X68.000 Y78.000 F800
G1 X68.000 Y80.000
G1 X66.000 Y80.000
G1 X66.000 Y78.000
G1 X68.000 Y82.000 F800
G1 X68.000 Y84.000
G1 X66.000 Y84.000
G1 X66.000 Y82.000
G1 X68.000 Y86.000 F800
G1 X68.000 Y88.000
G1 X66.000 Y88.000
G1 X66.000 Y86.000
G1 X72.000 Y10.000 F800
G1 X72.000 Y12.000
G1 X70.000 Y12.000
G1 X70.000 Y10.000
G1 X72.000 Y14.000 F800
G1 X72.000 Y16.000
G1 X70.000 Y16.000
G1 X70.000 Y14.000
G1 X72.000 Y18.000 F800
G1 X72.000 Y20.000
G1 X70.000 Y20.000
G1 X70.000 Y18.000
G1 X72.000 Y22.000 F800
G1 X72.000 Y24.000
G1 X70.000 Y24.000
G1 X70.000 Y22.000
G1 X72.000 Y26.000 F800
G1 X72.000 Y28.000
G1 X70.000 Y28.000
G1 X70.000 Y26.000
G1 X72.000 Y30.000 F800
G1 X72.000 Y32.000
G1 X70.000 Y32.000
G1 X70.000 Y30.000
G1 X72.000 Y34.000 F800
G1 X72.000 Y36.000
G1 X70.000 Y36.000
G1 X70.000 Y34.000
G1 X72.000 Y38.000 F800
G1 X72.000 Y40.000
G1 X70.000 Y40.000
G1 X70.000 Y38.000
G1 X72.000 Y42.000 F800
G1 X72.000 Y44.000
G1 X70.000 Y44.000
G1 X70.000 Y42.000
G1 X72.000 Y46.000 F800
G1 X72.000 Y48.000
G1 X70.000 Y48.000
G1 X70.000 Y46.000
G1 X72.000 Y50.000 F800
G1 X72.000 Y52.000
G1 X70.000 Y52.000
G1 X70.000 Y50.000
G1 X72.000 Y54.000 F800
G1 X72.000 Y56.000
G1 X70.000 Y56.000
G1 X70.000 Y54.000
G1 X72.000 Y58.000 F800
G1 X72.000 Y60.000
G1 X70.000 Y60.000
G1 X70.000 Y58.000
G1 X72.000 Y62.000 F800
G1 X72.000 Y64.000
G1 X70.000 Y64.000
G1 X70.000 Y62.000
G1 X72.000 Y66.000 F800
G1 X72.000 Y68.000
G1 X70.000 Y68.000
G1 X70.000 Y66.000
G1 X72.000 Y70.000 F800
G1 X72.000 Y72.000
G1 X70.000 Y72.000
G1 X70.000 Y70.000
G1 X72.000 Y74.000 F800
G1 X72.000 Y76.000
G1 X70.000 Y76.000
G1 X70.000 Y74.000
G1 X72.000 Y78.000 F800
G1 X72.000 Y80.000
G1 X70.000 Y80.000
G1 X70.000 Y78.000
G1 X72.000 Y82.000 F800
G1 X72.000 Y84.000
G1 X70.000 Y84.000
G1 X70.000 Y82.000
G1 X72.000 Y86.000 F800
G1 X72.000 Y88.000
G1 X70.000 Y88.000
G1 X70.000 Y86.000
G1 X76.000 Y10.000 F800
G1 X76.000 Y12.000
G1 X74.000 Y12.000
G1 X74.000 Y10.000
G1 X76.000 Y14.000 F800
G1 X76.000 Y16.000
G1 X74.000 Y16.000
G1 X74.000 Y14.000
G1 X76.000 Y18.000 F800
G1 X76.000 Y20.000
G1 X74.000 Y20.000
G1 X74.000 Y18.000
G1 X76.000 Y22.000 F800
G1 X76.000 Y24.000
G1 X74.000 Y24.000
G1 X74.000 Y22.000
G1 X76.000 Y26.000 F800
G1 X76.000 Y28.000
G1 X74.000 Y28.000
G1 X74.000 Y26.000
G1 X76.000 Y30.000 F800
G1 X76.000 Y32.000
G1 X74.000 Y32.000
G1 X74.000 Y30.000
G1 X76.000 Y34.000 F800
G1 X76.000 Y36.000
G1 X74.000 Y36.000
G1 X74.000 Y34.000
G1 X76.000 Y38.000 F800
G1 X76.000 Y40.000
G1 X74.000 Y40.000
G1 X74.000 Y38.000
G1 X76.000 Y42.000 F800
G1 X76.000 Y44.000
G1 X74.000 Y44.000
G1 X74.000 Y42.000
G1 X76.000 Y46.000 F800
G1 X76.000 Y48.000
G1 X74.000 Y48.000
G1 X74.000 Y46.000
G1 X76.000 Y50.000 F800
G1 X76.000 Y52.000
G1 X74.000 Y52.000
G1 X74.000 Y50.000
G1 X76.000 Y54.000 F800
G1 X76.000 Y56.000
G1 X74.000 Y56.000
G1 X74.000 Y54.000
G1 X76.000 Y58.000 F800
G1 X76.000 Y60.000
G1 X74.000 Y60.000
G1 X74.000 Y58.000
G1 X76.000 Y62.000 F800
G1 X76.000 Y64.000
G1 X74.000 Y64.000
G1 X74.000 Y62.000
G1 X76.000 Y66.000 F800
G1 X76.000 Y68.000
G1 X74.000 Y68.000
G1 X74.000 Y66.000
G1 X76.000 Y70.000 F800
G1 X76.000 Y72.000
G1 X74.000 Y72.000
G1 X74.000 Y70.000
G1 X76.000 Y74.000 F800
G1 X76.000 Y76.000
G1 X74.000 Y76.000
G1 X74.000 Y74.000
G1 X76.000 Y78.000 F800
G1 X76.000 Y80.000
G1 X74.000 Y80.000
G1 X74.000 Y78.000
G1 X76.000 Y82.000 F800
G1 X76.000 Y84.000
G1 X74.000 Y84.000
G1 X74.000 Y82.000
G1 X76.000 Y86.000 F800
G1 X76.000 Y88.000
G1 X74.000 Y88.000
G1 X74.000 Y86.000
G1 X80.000 Y10.000 F800
G1 X80.000 Y12.000
G1 X78.000 Y12.000
G1 X78.000 Y10.000
G1 X80.000 Y14.000 F800
G1 X80.000 Y16.000
G1 X78.000 Y16.000
G1 X78.000 Y14.000
G1 X80.000 Y18.000 F800
G1 X80.000 Y20.000
G1 X78.000 Y20.000
G1 X78.000 Y18.000
G1 X80.000 Y22.000 F800
G1 X80.000 Y24.000
G1 X78.000 Y24.000
G1 X78.000 Y22.000
G1 X80.000 Y26.000 F800
G1 X80.000 Y28.000
G1 X78.000 Y28.000
G1 X78.000 Y26.000
G1 X80.000 Y30.000 F800
G1 X80.000 Y32.000
G1 X78.000 Y32.000
G1 X78.000 Y30.000
G1 X80.000 Y34.000 F800
G1 X80.000 Y36.000
G1 X78.000 Y36.000
G1 X78.000 Y34.000
G1 X80.000 Y38.000 F800
G1 X80.000 Y40.000
G1 X78.000 Y40.000
G1 X78.000 Y38.000
G1 X80.000 Y42.000 F800
G1 X80.000 Y44.000
G1 X78.000 Y44.000
G1 X78.000 Y42.000
G1 X80.000 Y46.000 F800
G1 X80.000 Y48.000
G1 X78.000 Y48.000
G1 X78.000 Y46.000
G1 X80.000 Y50.000 F800
G1 X80.000 Y52.000
G1 X78.000 Y52.000
G1 X78.000 Y50.000
G1 X80.000 Y54.000 F800
G1 X80.000 Y56.000
G1 X78.000 Y56.000
G1 X78.000 Y54.000
G1 X80.000 Y58.000 F800
G1 X80.000 Y60.000
G1 X78.000 Y60.000
G1 X78.000 Y58.000
G1 X80.000 Y62.000 F800
G1 X80.000 Y64.000
G1 X78.000 Y64.000
G1 X78.000 Y62.000
G1 X80.000 Y66.000 F800
G1 X80.000 Y68.000
G1 X78.000 Y68.000
G1 X78.000 Y66.000
G1 X80.000 Y70.000 F800
G1 X80.000 Y72.000
G1 X78.000 Y72.000
G1 X78.000 Y70.000
G1 X80.000 Y74.000 F800
G1 X80.000 Y76.000
G1 X78.000 Y76.000
G1 X78.000 Y74.000
G1 X80.000 Y78.000 F800
G1 X80.000 Y80.000
G1 X78.000 Y80.000
G1 X78.000 Y78.000
G1 X80.000 Y82.000 F800
G1 X80.000 Y84.000
G1 X78.000 Y84.000
G1 X78.000 Y82.000
G1 X80.000 Y86.000 F800
G1 X80.000 Y88.000
G1 X78.000 Y88.000
G1 X78.000 Y86.000
G1 X84.000 Y10.000 F800
G1 X84.000 Y12.000
G1 X82.000 Y12.000
G1 X82.000 Y10.000
G1 X84.000 Y14.000 F800
G1 X84.000 Y16.000
G1 X82.000 Y16.000
G1 X82.000 Y14.000
G1 X84.000 Y18.000 F800
G1 X84.000 Y20.000
G1 X82.000 Y20.000
G1 X82.000 Y18.000
G1 X84.000 Y22.000 F800
G1 X84.000 Y24.000
G1 X82.000 Y24.000
G1 X82.000 Y22.000
G1 X84.000 Y26.000 F800
G1 X84.000 Y28.000
G1 X82.000 Y28.000
G1 X82.000 Y26.000
G1 X84.000 Y30.000 F800
G1 X84.000 Y32.000
G1 X82.000 Y32.000
G1 X82.000 Y30.000
G1 X84.000 Y34.000 F800
G1 X84.000 Y36.000
G1 X82.000 Y36.000
G1 X82.000 Y34.000
G1 X84.000 Y38.000 F800
G1 X84.000 Y40.000
G1 X82.000 Y40.000
G1 X82.000 Y38.000
G1 X84.000 Y42.000 F800
G1 X84.000 Y44.000
G1 X82.000 Y44.000
G1 X82.000 Y42.000
G1 X84.000 Y46.000 F800
G1 X84.000 Y48.000
G1 X82.000 Y48.000
G1 X82.000 Y46.000
G1 X84.000 Y50.000 F800
G1 X84.000 Y52.000
G1 X82.000 Y52.000
G1 X82.000 Y50.000
G1 X84.000 Y54.000 F800
G1 X84.000 Y56.000
G1 X82.000 Y56.000
G1 X82.000 Y54.000
G1 X84.000 Y58.000 F800
G1 X84.000 Y60.000
G1 X82.000 Y60.000
G1 X82.000 Y58.000
G1 X84.000 Y62.000 F800
G1 X84.000 Y64.000
G1 X82.000 Y64.000
G1 X82.000 Y62.000
G1 X84.000 Y66.000 F800
G1 X84.000 Y68.000
G1 X82.000 Y68.000
G1 X82.000 Y66.000
G1 X84.000 Y70.000 F800
G1 X84.000 Y72.000
G1 X82.000 Y72.000
G1 X82.000 Y70.000
G1 X84.000 Y74.000 F800
G1 X84.000 Y76.000
G1 X82.000 Y76.000
G1 X82.000 Y74.000
G1 X84.000 Y78.000 F800
G1 X84.000 Y80.000
G1 X82.000 Y80.000
G1 X82.000 Y78.000
G1 X84.000 Y82.000 F800
G1 X84.000 Y84.000
G1 X82.000 Y84.000
G1 X82.000 Y82.000
G1 X84.000 Y86.000 F800
G1 X84.000 Y88.000
G1 X82.000 Y88.000
G1 X82.000 Y86.000
G1 X88.000 Y10.000 F800
G1 X88.000 Y12.000
G1 X86.000 Y12.000
G1 X86.000 Y10.000
G1 X88.000 Y14.000 F800
G1 X88.000 Y16.000
G1 X86.000 Y16.000
G1 X86.000 Y14.000
G1 X88.000 Y18.000 F800
G1 X88.000 Y20.000
G1 X86.000 Y20.000
G1 X86.000 Y18.000
G1 X88.000 Y22.000 F800
G1 X88.000 Y24.000
G1 X86.000 Y24.000
G1 X86.000 Y22.000
G1 X88.000 Y26.000 F800
G1 X88.000 Y28.000
G1 X86.000 Y28.000
G1 X86.000 Y26.000
G1 X88.000 Y30.000 F800
G1 X88.000 Y32.000
G1 X86.000 Y32.000
G1 X86.000 Y30.000
G1 X88.000 Y34.000 F800
G1 X88.000 Y36.000
G1 X86.000 Y36.000
G1 X86.000 Y34.000
G1 X88.000 Y38.000 F800
G1 X88.000 Y40.000
G1 X86.000 Y40.000
G1 X86.000 Y38.000
G1 X88.000 Y42.000 F800
G1 X88.000 Y44.000
G1 X86.000 Y44.000
G1 X86.000 Y42.000
G1 X88.000 Y46.000 F800
G1 X88.000 Y48.000
G1 X86.000 Y48.000
G1 X86.000 Y46.000
G1 X88.000 Y50.000 F800
G1 X88.000 Y52.000
G1 X86.000 Y52.000
G1 X86.000 Y50.000
G1 X88.000 Y54.000 F800
G1 X88.000 Y56.000
G1 X86.000 Y56.000
G1 X86.000 Y54.000
G1 X88.000 Y58.000 F800
G1 X88.000 Y60.000
G1 X86.000 Y60.000
G1 X86.000 Y58.000
G1 X88.000 Y62.000 F800
G1 X88.000 Y64.000
G1 X86.000 Y64.000
G1 X86.000 Y62.000
G1 X88.000 Y66.000 F800
G1 X88.000 Y68.000
G1 X86.000 Y68.000
G1 X86.000 Y66.000
G1 X88.000 Y70.000 F800
G1 X88.000 Y72.000
G1 X86.000 Y72.000
G1 X86.000 Y70.000
G1 X88.000 Y74.000 F800
G1 X88.000 Y76.000
G1 X86.000 Y76.000
G1 X86.000 Y74.000
G1 X88.000 Y78.000 F800
G1 X88.000 Y80.000
G1 X86.000 Y80.000
G1 X86.000 Y78.000
G1 X88.000 Y82.000 F800
G1 X88.000 Y84.000
G1 X86.000 Y84.000
G1 X86.000 Y82.000
G1 X88.000 Y86.000 F800
G1 X88.000 Y88.000
G1 X86.000 Y88.000
G1 X86.000 Y86.000
G0 Z25.000
M5  ; Stop spindle

; ===== TOOL CHANGE TO T3 =====
G0 Z25.000  ; Raise to safe height
G0 X0 Y0  ; Move to tool change position
M5  ; Stop spindle
G4 P3.0  ; Wait for spindle to stop
T3 M6  ; Change to Tool 3 - 1/8 V-Bit
G4 P5.0  ; Tool change delay

; ===== SPIRAL PATTERN - 1500 operations =====
M3 S20591  ; Start spindle at 20591 RPM
G4 P2.0  ; Wait 2 seconds for spindle to reach speed
G0 X150.000 Y50.000
G1 Z-0.500 F300
G1 X150.020 Y50.001 F1000
G1 X150.040 Y50.005 F1000
G1 X150.059 Y50.011 F1000
G1 X150.077 Y50.020 F1000
G1 X150.095 Y50.031 F1000
G1 X150.112 Y50.044 F1000
G1 X150.127 Y50.060 F1000
G1 X150.140 Y50.077 F1000
G1 X150.152 Y50.096 F1000
G1 X150.162 Y50.118 F1000
G1 X150.170 Y50.140 F1000
G1 X150.175 Y50.164 F1000
G1 X150.178 Y50.190 F1000
G1 X150.178 Y50.216 F1000
G1 X150.176 Y50.243 F1000
G1 X150.171 Y50.270 F1000
G1 X150.164 Y50.298 F1000
G1 X150.153 Y50.326 F1000
G1 X150.140 Y50.353 F1000
G1 X150.124 Y50.380 F1000
G1 X150.104 Y50.407 F1000
G1 X150.082 Y50.432 F1000
G1 X150.058 Y50.456 F1000
G1 X150.030 Y50.479 F1000
G1 X150.000 Y50.500 F1000
G1 X149.967 Y50.519 F1000
G1 X149.932 Y50.536 F1000
G1 X149.895 Y50.550 F1000
G1 X149.856 Y50.562 F1000
G1 X149.815 Y50.571 F1000
G1 X149.772 Y50.576 F1000
G1 X149.728 Y50.579 F1000
G1 X149.682 Y50.578 F1000
G1 X149.636 Y50.574 F1000
G1 X149.589 Y50.566 F1000
G1 X149.541 Y50.555 F1000
G1 X149.493 Y50.539 F1000
G1 X149.446 Y50.520 F1000
G1 X149.399 Y50.497 F1000
G1 X149.353 Y50.470 F1000
G1 X149.308 Y50.439 F1000
G1 X149.264 Y50.405 F1000
G1 X149.222 Y50.366 F1000
G1 X149.182 Y50.324 F1000
G1 X149.144 Y50.278 F1000
G1 X149.109 Y50.229 F1000
G1 X149.077 Y50.176 F1000
G1 X149.048 Y50.120 F1000
G1 X149.022 Y50.062 F1000
G1 X149.000 Y50.000 F1000
G1 X148.982 Y49.936 F1000
G1 X148.968 Y49.870 F1000
G1 X148.959 Y49.801 F1000
G1 X148.954 Y49.731 F1000
G1 X148.954 Y49.660 F1000
G1 X148.959 Y49.588 F1000
G1 X148.968 Y49.515 F1000
G1 X148.983 Y49.441 F1000
G1 X149.004 Y49.368 F1000
G1 X149.029 Y49.295 F1000
G1 X149.060 Y49.222 F1000
G1 X149.096 Y49.151 F1000
G1 X149.137 Y49.081 F1000
G1 X149.184 Y49.014 F1000
G1 X149.236 Y48.948 F1000
G1 X149.293 Y48.885 F1000
G1 X149.354 Y48.826 F1000
G1 X149.421 Y48.769 F1000
G1 X149.492 Y48.717 F1000
G1 X149.567 Y48.669 F1000
G1 X149.647 Y48.625 F1000
G1 X149.730 Y48.586 F1000
G1 X149.817 Y48.552 F1000
G1 X149.907 Y48.523 F1000
G1 X150.000 Y48.500 F1000
G1 X150.095 Y48.483 F1000
G1 X150.193 Y48.472 F1000
G1 X150.292 Y48.468 F1000
G1 X150.393 Y48.470 F1000
G1 X150.494 Y48.478 F1000
G1 X150.596 Y48.494 F1000
G1 X150.698 Y48.516 F1000
G1 X150.800 Y48.545 F1000
G1 X150.900 Y48.582 F1000
G1 X150.999 Y48.625 F1000
G1 X151.096 Y48.675 F1000
G1 X151.191 Y48.732 F1000
G1 X151.283 Y48.795 F1000
G1 X151.372 Y48.865 F1000
G1 X151.456 Y48.942 F1000
G1 X151.537 Y49.025 F1000
G1 X151.612 Y49.114 F1000
G1 X151.683 Y49.208 F1000
G1 X151.748 Y49.308 F1000
G1 X151.807 Y49.413 F1000
G1 X151.860 Y49.523 F1000
G1 X151.906 Y49.636 F1000
G1 X151.945 Y49.754 F1000
G1 X151.976 Y49.876 F1000
G1 X152.000 Y50.000 F1000
G1 X152.016 Y50.127 F1000
G1 X152.024 Y50.256 F1000
G1 X152.024 Y50.386 F1000
G1 X152.015 Y50.517 F1000
G1 X151.997 Y50.649 F1000
G1 X151.971 Y50.780 F1000
G1 X151.936 Y50.911 F1000
G1 X151.893 Y51.041 F1000
G1 X151.841 Y51.168 F1000
G1 X151.780 Y51.293 F1000
G1 X151.711 Y51.415 F1000
G1 X151.633 Y51.533 F1000
G1 X151.547 Y51.647 F1000
G1 X151.453 Y51.757 F1000
G1 X151.352 Y51.861 F1000
G1 X151.243 Y51.959 F1000
G1 X151.127 Y52.051 F1000
G1 X151.005 Y52.135 F1000
G1 X150.876 Y52.213 F1000
G1 X150.742 Y52.283 F1000
G1 X150.602 Y52.344 F1000
G1 X150.457 Y52.397 F1000
G1 X150.308 Y52.441 F1000
G1 X150.156 Y52.475 F1000
G1 X150.000 Y52.500 F1000
G1 X149.842 Y52.515 F1000
G1 X149.682 Y52.520 F1000
G1 X149.520 Y52.515 F1000
G1 X149.358 Y52.499 F1000
G1 X149.197 Y52.473 F1000
G1 X149.036 Y52.436 F1000
G1 X148.876 Y52.389 F1000
G1 X148.719 Y52.331 F1000
G1 X148.564 Y52.263 F1000
G1 X148.413 Y52.184 F1000
G1 X148.266 Y52.096 F1000
G1 X148.124 Y51.997 F1000
G1 X147.988 Y51.889 F1000
G1 X147.858 Y51.772 F1000
G1 X147.735 Y51.646 F1000
G1 X147.619 Y51.511 F1000
G1 X147.511 Y51.368 F1000
G1 X147.412 Y51.218 F1000
G1 X147.322 Y51.060 F1000
G1 X147.242 Y50.896 F1000
G1 X147.172 Y50.726 F1000
G1 X147.112 Y50.551 F1000
G1 X147.063 Y50.371 F1000
G1 X147.026 Y50.187 F1000
G1 X147.000 Y50.000 F1000
G1 X146.986 Y49.810 F1000
G1 X146.984 Y49.619 F1000
G1 X146.994 Y49.427 F1000
G1 X147.017 Y49.234 F1000
G1 X147.052 Y49.042 F1000
G1 X147.099 Y48.851 F1000
G1 X147.159 Y48.663 F1000
G1 X147.231 Y48.478 F1000
G1 X147.315 Y48.296 F1000
G1 X147.411 Y48.119 F1000
G1 X147.519 Y47.947 F1000
G1 X147.638 Y47.782 F1000
G1 X147.768 Y47.624 F1000
G1 X147.909 Y47.473 F1000
G1 X148.060 Y47.330 F1000
G1 X148.221 Y47.197 F1000
G1 X148.391 Y47.073 F1000
G1 X148.569 Y46.960 F1000
G1 X148.756 Y46.857 F1000
G1 X148.949 Y46.766 F1000
G1 X149.149 Y46.687 F1000
G1 X149.355 Y46.621 F1000
G1 X149.566 Y46.567 F1000
G1 X149.781 Y46.527 F1000
G1 X150.000 Y46.500 F1000
G1 X150.221 Y46.487 F1000
G1 X150.444 Y46.488 F1000
G1 X150.667 Y46.503 F1000
G1 X150.890 Y46.532 F1000
G1 X151.112 Y46.576 F1000
G1 X151.333 Y46.634 F1000
G1 X151.550 Y46.706 F1000
G1 X151.763 Y46.793 F1000
G1 X151.972 Y46.893 F1000
G1 X152.175 Y47.007 F1000
G1 X152.371 Y47.134 F1000
G1 X152.560 Y47.274 F1000
G1 X152.741 Y47.426 F1000
G1 X152.913 Y47.591 F1000
G1 X153.074 Y47.766 F1000
G1 X153.225 Y47.953 F1000
G1 X153.365 Y48.150 F1000
G1 X153.493 Y48.356 F1000
G1 X153.608 Y48.572 F1000
G1 X153.709 Y48.795 F1000
G1 X153.797 Y49.025 F1000
G1 X153.870 Y49.262 F1000
G1 X153.929 Y49.504 F1000
G1 X153.972 Y49.750 F1000
G1 X154.000 Y50.000 F1000
G1 X154.012 Y50.252 F1000
G1 X154.008 Y50.506 F1000
G1 X153.988 Y50.761 F1000
G1 X153.952 Y51.015 F1000
G1 X153.899 Y51.267 F1000
G1 X153.831 Y51.517 F1000
G1 X153.746 Y51.763 F1000
G1 X153.645 Y52.004 F1000
G1 X153.529 Y52.240 F1000
G1 X153.398 Y52.469 F1000
G1 X153.252 Y52.690 F1000
G1 X153.091 Y52.902 F1000
G1 X152.916 Y53.105 F1000
G1 X152.728 Y53.298 F1000
G1 X152.527 Y53.479 F1000
G1 X152.315 Y53.647 F1000
G1 X152.091 Y53.803 F1000
G1 X151.856 Y53.945 F1000
G1 X151.612 Y54.072 F1000
G1 X151.360 Y54.185 F1000
G1 X151.099 Y54.281 F1000
G1 X150.832 Y54.361 F1000
G1 X150.559 Y54.425 F1000
G1 X150.281 Y54.471 F1000
G1 X150.000 Y54.500 F1000
G1 X149.716 Y54.511 F1000
G1 X149.431 Y54.504 F1000
G1 X149.146 Y54.479 F1000
G1 X148.861 Y54.436 F1000
G1 X148.579 Y54.375 F1000
G1 X148.299 Y54.296 F1000
G1 X148.024 Y54.198 F1000
G1 X147.755 Y54.084 F1000
G1 X147.492 Y53.951 F1000
G1 X147.237 Y53.802 F1000
G1 X146.991 Y53.637 F1000
G1 X146.755 Y53.455 F1000
G1 X146.530 Y53.258 F1000
G1 X146.317 Y53.047 F1000
G1 X146.117 Y52.821 F1000
G1 X145.930 Y52.583 F1000
G1 X145.759 Y52.332 F1000
G1 X145.603 Y52.069 F1000
G1 X145.463 Y51.796 F1000
G1 X145.340 Y51.514 F1000
G1 X145.235 Y51.224 F1000
G1 X145.148 Y50.926 F1000
G1 X145.079 Y50.622 F1000
G1 X145.030 Y50.313 F1000
G1 X145.000 Y50.000 F1000
G1 X144.990 Y49.685 F1000
G1 X145.000 Y49.368 F1000
G1 X145.030 Y49.052 F1000
G1 X145.080 Y48.737 F1000
G1 X145.150 Y48.424 F1000
G1 X145.240 Y48.115 F1000
G1 X145.349 Y47.811 F1000
G1 X145.478 Y47.514 F1000
G1 X145.626 Y47.224 F1000
G1 X145.793 Y46.944 F1000
G1 X145.978 Y46.673 F1000
G1 X146.180 Y46.413 F1000
G1 X146.399 Y46.166 F1000
G1 X146.634 Y45.932 F1000
G1 X146.885 Y45.712 F1000
G1 X147.149 Y45.508 F1000
G1 X147.427 Y45.321 F1000
G1 X147.718 Y45.150 F1000
G1 X148.019 Y44.998 F1000
G1 X148.331 Y44.864 F1000
G1 X148.652 Y44.750 F1000
G1 X148.981 Y44.656 F1000
G1 X149.316 Y44.583 F1000
G1 X149.656 Y44.531 F1000
G1 X150.000 Y44.500 F1000
G1 X150.347 Y44.491 F1000
G1 X150.694 Y44.504 F1000
G1 X151.042 Y44.538 F1000
G1 X151.388 Y44.595 F1000
G1 X151.730 Y44.674 F1000
G1 X152.069 Y44.775 F1000
G1 X152.401 Y44.897 F1000
G1 X152.727 Y45.040 F1000
G1 X153.043 Y45.204 F1000
G1 X153.350 Y45.389 F1000
G1 X153.646 Y45.593 F1000
G1 X153.929 Y45.816 F1000
G1 X154.199 Y46.057 F1000
G1 X154.454 Y46.316 F1000
G1 X154.692 Y46.591 F1000
G1 X154.914 Y46.881 F1000
G1 X155.118 Y47.187 F1000
G1 X155.302 Y47.505 F1000
G1 X155.467 Y47.835 F1000
G1 X155.611 Y48.177 F1000
G1 X155.734 Y48.528 F1000
G1 X155.835 Y48.887 F1000
G1 X155.913 Y49.253 F1000
G1 X155.968 Y49.625 F1000
G1 X156.000 Y50.000 F1000
G1 X156.008 Y50.378 F1000
G1 X155.992 Y50.757 F1000
G1 X155.953 Y51.136 F1000
G1 X155.889 Y51.512 F1000
G1 X155.801 Y51.885 F1000
G1 X155.690 Y52.253 F1000
G1 X155.556 Y52.614 F1000
G1 X155.398 Y52.968 F1000
G1 X155.218 Y53.311 F1000
G1 X155.016 Y53.644 F1000
G1 X154.793 Y53.965 F1000
G1 X154.549 Y54.272 F1000
G1 X154.285 Y54.563 F1000
G1 X154.003 Y54.839 F1000
G1 X153.703 Y55.097 F1000
G1 X153.386 Y55.336 F1000
G1 X153.054 Y55.556 F1000
G1 X152.708 Y55.755 F1000
G1 X152.349 Y55.932 F1000
G1 X151.978 Y56.087 F1000
G1 X151.597 Y56.218 F1000
G1 X151.207 Y56.326 F1000
G1 X150.810 Y56.409 F1000
G1 X150.407 Y56.467 F1000
G1 X150.000 Y56.500 F1000
G1 X149.591 Y56.507 F1000
G1 X149.180 Y56.488 F1000
G1 X148.771 Y56.444 F1000
G1 X148.364 Y56.373 F1000
G1 X147.960 Y56.277 F1000
G1 X147.563 Y56.155 F1000
G1 X147.173 Y56.008 F1000
G1 X146.792 Y55.836 F1000
G1 X146.421 Y55.640 F1000
G1 X146.062 Y55.420 F1000
G1 X145.717 Y55.178 F1000
G1 X145.386 Y54.913 F1000
G1 X145.072 Y54.628 F1000
G1 X144.776 Y54.322 F1000
G1 X144.499 Y53.997 F1000
G1 X144.242 Y53.654 F1000
G1 X144.006 Y53.295 F1000
G1 X143.793 Y52.921 F1000
G1 X143.603 Y52.533 F1000
G1 X143.438 Y52.132 F1000
G1 X143.297 Y51.721 F1000
G1 X143.183 Y51.300 F1000
G1 X143.095 Y50.872 F1000
G1 X143.034 Y50.438 F1000
G1 X143.000 Y50.000 F1000
G1 X142.994 Y49.559 F1000
G1 X143.016 Y49.118 F1000
G1 X143.065 Y48.677 F1000
G1 X143.142 Y48.239 F1000
G1 X143.247 Y47.806 F1000
G1 X143.380 Y47.379 F1000
G1 X143.540 Y46.960 F1000
G1 X143.726 Y46.551 F1000
G1 X143.938 Y46.153 F1000
G1 X144.175 Y45.768 F1000
G1 X144.437 Y45.398 F1000
G1 X144.722 Y45.044 F1000
G1 X145.030 Y44.708 F1000
G1 X145.360 Y44.391 F1000
G1 X145.709 Y44.094 F1000
G1 X146.078 Y43.820 F1000
G1 X146.464 Y43.568 F1000
G1 X146.866 Y43.340 F1000
G1 X147.283 Y43.138 F1000
G1 X147.713 Y42.962 F1000
G1 X148.155 Y42.813 F1000
G1 X148.606 Y42.692 F1000
G1 X149.065 Y42.599 F1000
G1 X149.530 Y42.535 F1000
G1 X150.000 Y42.500 F1000
G1 X150.472 Y42.495 F1000
G1 X150.945 Y42.519 F1000
G1 X151.417 Y42.574 F1000
G1 X151.885 Y42.658 F1000
G1 X152.349 Y42.772 F1000
G1 X152.805 Y42.915 F1000
G1 X153.253 Y43.087 F1000
G1 X153.690 Y43.287 F1000
G1 X154.115 Y43.516 F1000
G1 X154.526 Y43.771 F1000
G1 X154.921 Y44.052 F1000
G1 X155.298 Y44.358 F1000
G1 X155.657 Y44.688 F1000
G1 X155.995 Y45.041 F1000
G1 X156.310 Y45.415 F1000
G1 X156.603 Y45.810 F1000
G1 X156.870 Y46.223 F1000
G1 X157.112 Y46.653 F1000
G1 X157.327 Y47.099 F1000
G1 X157.513 Y47.559 F1000
G1 X157.671 Y48.030 F1000
G1 X157.799 Y48.512 F1000
G1 X157.897 Y49.002 F1000
G1 X157.964 Y49.499 F1000
G1 X158.000 Y50.000 F1000
G1 X158.004 Y50.504 F1000
G1 X157.977 Y51.008 F1000
G1 X157.917 Y51.510 F1000
G1 X157.826 Y52.009 F1000
G1 X157.704 Y52.503 F1000
G1 X157.550 Y52.989 F1000
G1 X157.365 Y53.466 F1000
G1 X157.151 Y53.931 F1000
G1 X156.907 Y54.383 F1000
G1 X156.634 Y54.820 F1000
G1 X156.334 Y55.240 F1000
G1 X156.007 Y55.641 F1000
G1 X155.654 Y56.021 F1000
G1 X155.278 Y56.380 F1000
G1 X154.879 Y56.715 F1000
G1 X154.458 Y57.025 F1000
G1 X154.018 Y57.308 F1000
G1 X153.560 Y57.564 F1000
G1 X153.085 Y57.792 F1000
G1 X152.596 Y57.989 F1000
G1 X152.094 Y58.155 F1000
G1 X151.581 Y58.291 F1000
G1 X151.060 Y58.393 F1000
G1 X150.532 Y58.463 F1000
G1 X150.000 Y58.500 F1000
G1 X149.465 Y58.503 F1000
G1 X148.930 Y58.473 F1000
G1 X148.396 Y58.408 F1000
G1 X147.866 Y58.310 F1000
G1 X147.342 Y58.179 F1000
G1 X146.827 Y58.015 F1000
G1 X146.321 Y57.818 F1000
G1 X145.828 Y57.589 F1000
G1 X145.349 Y57.329 F1000
G1 X144.886 Y57.038 F1000
G1 X144.442 Y56.719 F1000
G1 X144.017 Y56.371 F1000
G1 X143.614 Y55.997 F1000
G1 X143.235 Y55.597 F1000
G1 X142.881 Y55.173 F1000
G1 X142.553 Y54.726 F1000
G1 X142.253 Y54.259 F1000
G1 X141.983 Y53.772 F1000
G1 X141.744 Y53.269 F1000
G1 X141.536 Y52.750 F1000
G1 X141.360 Y52.218 F1000
G1 X141.218 Y51.675 F1000
G1 X141.111 Y51.123 F1000
G1 X141.038 Y50.564 F1000
G1 X141.000 Y50.000 F1000
G1 X140.998 Y49.434 F1000
G1 X141.031 Y48.867 F1000
G1 X141.100 Y48.302 F1000
G1 X141.205 Y47.742 F1000
G1 X141.345 Y47.188 F1000
G1 X141.520 Y46.643 F1000
G1 X141.730 Y46.108 F1000
G1 X141.973 Y45.587 F1000
G1 X142.249 Y45.081 F1000
G1 X142.557 Y44.592 F1000
G1 X142.896 Y44.123 F1000
G1 X143.264 Y43.675 F1000
G1 X143.661 Y43.250 F1000
G1 X144.085 Y42.850 F1000
G1 X144.534 Y42.476 F1000
G1 X145.006 Y42.131 F1000
G1 X145.500 Y41.815 F1000
G1 X146.015 Y41.531 F1000
G1 X146.547 Y41.279 F1000
G1 X147.095 Y41.060 F1000
G1 X147.657 Y40.876 F1000
G1 X148.231 Y40.727 F1000
G1 X148.814 Y40.615 F1000
G1 X149.405 Y40.539 F1000
G1 X150.000 Y40.500 F1000
G1 X150.598 Y40.499 F1000
G1 X151.196 Y40.535 F1000
G1 X151.791 Y40.609 F1000
G1 X152.382 Y40.721 F1000
G1 X152.967 Y40.870 F1000
G1 X153.541 Y41.056 F1000
G1 X154.105 Y41.277 F1000
G1 X154.654 Y41.535 F1000
G1 X155.187 Y41.827 F1000
G1 X155.702 Y42.153 F1000
G1 X156.196 Y42.511 F1000
G1 X156.667 Y42.900 F1000
G1 X157.115 Y43.319 F1000
G1 X157.536 Y43.766 F1000
G1 X157.928 Y44.240 F1000
G1 X158.291 Y44.738 F1000
G1 X158.623 Y45.260 F1000
G1 X158.922 Y45.802 F1000
G1 X159.186 Y46.363 F1000
G1 X159.415 Y46.941 F1000
G1 X159.608 Y47.533 F1000
G1 X159.764 Y48.137 F1000
G1 X159.881 Y48.752 F1000
G1 X159.960 Y49.373 F1000
G1 X160.000 Y50.000 F1000
G1 X160.000 Y50.629 F1000
G1 X159.961 Y51.258 F1000
G1 X159.882 Y51.885 F1000
G1 X159.763 Y52.507 F1000
G1 X159.606 Y53.121 F1000
G1 X159.409 Y53.725 F1000
G1 X159.175 Y54.317 F1000
G1 X158.903 Y54.895 F1000
G1 X158.595 Y55.455 F1000
G1 X158.252 Y55.995 F1000
G1 X157.875 Y56.514 F1000
G1 X157.465 Y57.010 F1000
G1 X157.023 Y57.479 F1000
G1 X156.553 Y57.921 F1000
G1 X156.054 Y58.333 F1000
G1 X155.530 Y58.713 F1000
G1 X154.981 Y59.061 F1000
G1 X154.411 Y59.374 F1000
G1 X153.821 Y59.651 F1000
G1 X153.214 Y59.891 F1000
G1 X152.591 Y60.093 F1000
G1 X151.956 Y60.255 F1000
G1 X151.311 Y60.378 F1000
G1 X150.658 Y60.459 F1000
G1 X150.000 Y60.500 F1000
G1 X149.339 Y60.499 F1000
G1 X148.679 Y60.457 F1000
G1 X148.021 Y60.373 F1000
G1 X147.369 Y60.248 F1000
G1 X146.724 Y60.081 F1000
G1 X146.091 Y59.874 F1000
G1 X145.470 Y59.627 F1000
G1 X144.865 Y59.341 F1000
G1 X144.277 Y59.017 F1000
G1 X143.711 Y58.656 F1000
G1 X143.167 Y58.260 F1000
G1 X142.648 Y57.829 F1000
G1 X142.156 Y57.366 F1000
G1 X141.694 Y56.871 F1000
G1 X141.263 Y56.348 F1000
G1 X140.864 Y55.798 F1000
G1 X140.501 Y55.222 F1000
G1 X140.174 Y54.624 F1000
G1 X139.884 Y54.005 F1000
G1 X139.633 Y53.368 F1000
G1 X139.423 Y52.716 F1000
G1 X139.254 Y52.050 F1000
G1 X139.126 Y51.374 F1000
G1 X139.042 Y50.689 F1000
G1 X139.000 Y50.000 F1000
G1 X139.002 Y49.308 F1000
G1 X139.047 Y48.616 F1000
G1 X139.136 Y47.928 F1000
G1 X139.268 Y47.245 F1000
G1 X139.443 Y46.570 F1000
G1 X139.661 Y45.906 F1000
G1 X139.920 Y45.257 F1000
G1 X140.220 Y44.624 F1000
G1 X140.560 Y44.009 F1000
G1 X140.939 Y43.417 F1000
G1 X141.355 Y42.848 F1000
G1 X141.806 Y42.306 F1000
G1 X142.292 Y41.792 F1000
G1 X142.810 Y41.309 F1000
G1 X143.358 Y40.858 F1000
G1 X143.934 Y40.442 F1000
G1 X144.537 Y40.063 F1000
G1 X145.163 Y39.721 F1000
G1 X145.811 Y39.419 F1000
G1 X146.477 Y39.158 F1000
G1 X147.160 Y38.939 F1000
G1 X147.856 Y38.763 F1000
G1 X148.564 Y38.630 F1000
G1 X149.279 Y38.543 F1000
G1 X150.000 Y38.500 F1000
G1 X150.723 Y38.503 F1000
G1 X151.446 Y38.551 F1000
G1 X152.166 Y38.645 F1000
G1 X152.880 Y38.784 F1000
G1 X153.585 Y38.968 F1000
G1 X154.278 Y39.196 F1000
G1 X154.956 Y39.468 F1000
G1 X155.617 Y39.782 F1000
G1 X156.258 Y40.138 F1000
G1 X156.877 Y40.535 F1000
G1 X157.471 Y40.970 F1000
G1 X158.037 Y41.442 F1000
G1 X158.573 Y41.950 F1000
G1 X159.077 Y42.491 F1000
G1 X159.546 Y43.064 F1000
G1 X159.980 Y43.667 F1000
G1 X160.375 Y44.296 F1000
G1 X160.731 Y44.950 F1000
G1 X161.046 Y45.627 F1000
G1 X161.318 Y46.323 F1000
G1 X161.546 Y47.036 F1000
G1 X161.729 Y47.763 F1000
G1 X161.866 Y48.501 F1000
G1 X161.956 Y49.248 F1000
G1 X162.000 Y50.000 F1000
G1 X161.996 Y50.755 F1000
G1 X161.945 Y51.509 F1000
G1 X161.846 Y52.260 F1000
G1 X161.700 Y53.004 F1000
G1 X161.508 Y53.739 F1000
G1 X161.269 Y54.462 F1000
G1 X160.985 Y55.169 F1000
G1 X160.656 Y55.858 F1000
G1 X160.284 Y56.526 F1000
G1 X159.870 Y57.171 F1000
G1 X159.416 Y57.789 F1000
G1 X158.923 Y58.379 F1000
G1 X158.393 Y58.937 F1000
G1 X157.828 Y59.462 F1000
G1 X157.230 Y59.951 F1000
G1 X156.601 Y60.402 F1000
G1 X155.945 Y60.814 F1000
G1 X155.263 Y61.184 F1000
G1 X154.557 Y61.511 F1000
G1 X153.832 Y61.793 F1000
G1 X153.089 Y62.030 F1000
G1 X152.331 Y62.220 F1000
G1 X151.562 Y62.362 F1000
G1 X150.784 Y62.455 F1000
G1 X150.000 Y62.500 F1000
G1 X149.214 Y62.495 F1000
