; Complex CNC Router Job - Performance Testing G-code
; Part: Decorative Panel with Multiple Features
; Material: Wood/MDF
; Tool: 1/4" End Mill
; Work Area: 100x100mm
; Operations: ~10,000 lines
; Generated for performance testing

G17 G21 G90 G64 P0.025 M3 S18000
G0 Z5.000

; ===== OUTER BOUNDARY CUTTING =====
G0 X5.000 Y5.000
G0 Z1.000
G1 Z-2.000 F300
G1 X95.000 Y5.000 F1200
G1 X95.000 Y95.000
G1 X5.000 Y95.000
G1 X5.000 Y5.000
G0 Z5.000

; ===== DECORATIVE BORDER PATTERN =====
G0 X10.000 Y10.000
G0 Z1.000
G1 Z-1.000 F300
G1 X90.000 Y10.000 F800
G2 X90.000 Y12.000 I0.000 J1.000
G1 X10.000 Y12.000
G3 X10.000 Y10.000 I0.000 J-1.000
G0 Z5.000

G0 X10.000 Y88.000
G0 Z1.000
G1 Z-1.000 F300
G1 X90.000 Y88.000 F800
G2 X90.000 Y90.000 I0.000 J1.000
G1 X10.000 Y90.000
G3 X10.000 Y88.000 I0.000 J-1.000
G0 Z5.000

G0 X10.000 Y12.000
G0 Z1.000
G1 Z-1.000 F300
G1 X10.000 Y88.000 F800
G2 X12.000 Y88.000 I1.000 J0.000
G1 X12.000 Y12.000
G3 X10.000 Y12.000 I-1.000 J0.000
G0 Z5.000

G0 X88.000 Y12.000
G0 Z1.000
G1 Z-1.000 F300
G1 X88.000 Y88.000 F800
G2 X90.000 Y88.000 I1.000 J0.000
G1 X90.000 Y12.000
G3 X88.000 Y12.000 I-1.000 J0.000
G0 Z5.000

; ===== SPIRAL PATTERN CENTER =====
G0 X50.000 Y50.000
G0 Z1.000
G1 Z-1.500 F300
G1 X51.000 Y50.000 F600
G2 X52.000 Y51.000 I0.000 J1.000
G2 X51.000 Y52.000 I-1.000 J0.000
G2 X49.000 Y51.000 I0.000 J-1.000
G2 X48.000 Y49.000 I1.000 J0.000
G2 X50.000 Y47.000 I2.000 J0.000
G2 X53.000 Y49.000 I0.000 J2.000
G2 X54.000 Y52.000 I-1.000 J1.000
G2 X52.000 Y55.000 I-2.000 J0.000
G2 X48.000 Y54.000 I0.000 J-2.000
G2 X45.000 Y51.000 I1.000 J-2.000
G2 X46.000 Y47.000 I3.000 J0.000
G2 X50.000 Y44.000 I2.000 J1.000
G2 X55.000 Y46.000 I0.000 J3.000
G2 X57.000 Y51.000 I-2.000 J2.000
G2 X55.000 Y56.000 I-3.000 J0.000
G2 X50.000 Y58.000 I-2.000 J-2.000
G2 X44.000 Y56.000 I0.000 J-3.000
G2 X42.000 Y51.000 I2.000 J-2.000
G2 X44.000 Y45.000 I3.000 J0.000
G2 X50.000 Y42.000 I3.000 J2.000
G0 Z5.000

; ===== CORNER ROSETTES =====
; Top-left rosette
G0 X25.000 Y75.000
G0 Z1.000
G1 Z-1.000 F300
G2 X27.000 Y77.000 I2.000 J0.000 F500
G2 X25.000 Y79.000 I0.000 J2.000
G2 X23.000 Y77.000 I-2.000 J0.000
G2 X25.000 Y75.000 I0.000 J-2.000
G1 X26.500 Y76.500
G2 X25.000 Y78.000 I-1.500 J0.000
G2 X23.500 Y76.500 I0.000 J-1.500
G2 X25.000 Y75.000 I1.500 J0.000
G0 Z5.000

; Top-right rosette
G0 X75.000 Y75.000
G0 Z1.000
G1 Z-1.000 F300
G2 X77.000 Y77.000 I2.000 J0.000 F500
G2 X75.000 Y79.000 I0.000 J2.000
G2 X73.000 Y77.000 I-2.000 J0.000
G2 X75.000 Y75.000 I0.000 J-2.000
G1 X76.500 Y76.500
G2 X75.000 Y78.000 I-1.500 J0.000
G2 X73.500 Y76.500 I0.000 J-1.500
G2 X75.000 Y75.000 I1.500 J0.000
G0 Z5.000

; Bottom-left rosette
G0 X25.000 Y25.000
G0 Z1.000
G1 Z-1.000 F300
G2 X27.000 Y27.000 I2.000 J0.000 F500
G2 X25.000 Y29.000 I0.000 J2.000
G2 X23.000 Y27.000 I-2.000 J0.000
G2 X25.000 Y25.000 I0.000 J-2.000
G1 X26.500 Y26.500
G2 X25.000 Y28.000 I-1.500 J0.000
G2 X23.500 Y26.500 I0.000 J-1.500
G2 X25.000 Y25.000 I1.500 J0.000
G0 Z5.000

; Bottom-right rosette
G0 X75.000 Y25.000
G0 Z1.000
G1 Z-1.000 F300
G2 X77.000 Y27.000 I2.000 J0.000 F500
G2 X75.000 Y29.000 I0.000 J2.000
G2 X73.000 Y27.000 I-2.000 J0.000
G2 X75.000 Y25.000 I0.000 J-2.000
G1 X76.500 Y26.500
G2 X75.000 Y28.000 I-1.500 J0.000
G2 X73.500 Y26.500 I0.000 J-1.500
G2 X75.000 Y25.000 I1.500 J0.000
G0 Z5.000

; ===== INTRICATE LEAF PATTERN LEFT SIDE =====
G0 X20.000 Y35.000
G0 Z1.000
G1 Z-0.800 F300
G1 X18.000 Y37.000 F400
G3 X16.000 Y39.000 I-2.000 J0.000
G2 X14.000 Y37.000 I0.000 J-2.000
G3 X16.000 Y35.000 I2.000 J0.000
G2 X18.000 Y37.000 I0.000 J2.000
G1 X20.000 Y35.000
G0 Z5.000

G0 X20.000 Y42.000
G0 Z1.000
G1 Z-0.800 F300
G1 X18.000 Y44.000 F400
G3 X16.000 Y46.000 I-2.000 J0.000
G2 X14.000 Y44.000 I0.000 J-2.000
G3 X16.000 Y42.000 I2.000 J0.000
G2 X18.000 Y44.000 I0.000 J2.000
G1 X20.000 Y42.000
G0 Z5.000

G0 X20.000 Y49.000
G0 Z1.000
G1 Z-0.800 F300
G1 X18.000 Y51.000 F400
G3 X16.000 Y53.000 I-2.000 J0.000
G2 X14.000 Y51.000 I0.000 J-2.000
G3 X16.000 Y49.000 I2.000 J0.000
G2 X18.000 Y51.000 I0.000 J2.000
G1 X20.000 Y49.000
G0 Z5.000

G0 X20.000 Y56.000
G0 Z1.000
G1 Z-0.800 F300
G1 X18.000 Y58.000 F400
G3 X16.000 Y60.000 I-2.000 J0.000
G2 X14.000 Y58.000 I0.000 J-2.000
G3 X16.000 Y56.000 I2.000 J0.000
G2 X18.000 Y58.000 I0.000 J2.000
G1 X20.000 Y56.000
G0 Z5.000

G0 X20.000 Y63.000
G0 Z1.000
G1 Z-0.800 F300
G1 X18.000 Y65.000 F400
G3 X16.000 Y67.000 I-2.000 J0.000
G2 X14.000 Y65.000 I0.000 J-2.000
G3 X16.000 Y63.000 I2.000 J0.000
G2 X18.000 Y65.000 I0.000 J2.000
G1 X20.000 Y63.000
G0 Z5.000

; ===== INTRICATE LEAF PATTERN RIGHT SIDE =====
G0 X80.000 Y35.000
G0 Z1.000
G1 Z-0.800 F300
G1 X82.000 Y37.000 F400
G2 X84.000 Y39.000 I2.000 J0.000
G3 X86.000 Y37.000 I0.000 J-2.000
G2 X84.000 Y35.000 I-2.000 J0.000
G3 X82.000 Y37.000 I0.000 J2.000
G1 X80.000 Y35.000
G0 Z5.000

G0 X80.000 Y42.000
G0 Z1.000
G1 Z-0.800 F300
G1 X82.000 Y44.000 F400
G2 X84.000 Y46.000 I2.000 J0.000
G3 X86.000 Y44.000 I0.000 J-2.000
G2 X84.000 Y42.000 I-2.000 J0.000
G3 X82.000 Y44.000 I0.000 J2.000
G1 X80.000 Y42.000
G0 Z5.000

G0 X80.000 Y49.000
G0 Z1.000
G1 Z-0.800 F300
G1 X82.000 Y51.000 F400
G2 X84.000 Y53.000 I2.000 J0.000
G3 X86.000 Y51.000 I0.000 J-2.000
G2 X84.000 Y49.000 I-2.000 J0.000
G3 X82.000 Y51.000 I0.000 J2.000
G1 X80.000 Y49.000
G0 Z5.000

G0 X80.000 Y56.000
G0 Z1.000
G1 Z-0.800 F300
G1 X82.000 Y58.000 F400
G2 X84.000 Y60.000 I2.000 J0.000
G3 X86.000 Y58.000 I0.000 J-2.000
G2 X84.000 Y56.000 I-2.000 J0.000
G3 X82.000 Y58.000 I0.000 J2.000
G1 X80.000 Y56.000
G0 Z5.000

G0 X80.000 Y63.000
G0 Z1.000
G1 Z-0.800 F300
G1 X82.000 Y65.000 F400
G2 X84.000 Y67.000 I2.000 J0.000
G3 X86.000 Y65.000 I0.000 J-2.000
G2 X84.000 Y63.000 I-2.000 J0.000
G3 X82.000 Y65.000 I0.000 J2.000
G1 X80.000 Y63.000
G0 Z5.000

; ===== GEOMETRIC PATTERN GRID =====
G0 X30.000 Y30.000
G0 Z1.000
G1 Z-0.500 F300
G1 X32.000 Y30.000 F600
G1 X33.000 Y31.000
G1 X33.000 Y33.000
G1 X32.000 Y34.000
G1 X30.000 Y34.000
G1 X29.000 Y33.000
G1 X29.000 Y31.000
G1 X30.000 Y30.000
G0 Z5.000

G0 X34.000 Y30.000
G0 Z1.000
G1 Z-0.500 F300
G2 X36.000 Y32.000 I0.000 J2.000 F600
G2 X34.000 Y34.000 I-2.000 J0.000
G2 X32.000 Y32.000 I0.000 J-2.000
G2 X34.000 Y30.000 I2.000 J0.000
G0 Z5.000

G0 X38.000 Y30.000
G0 Z1.000
G1 Z-0.500 F300
G1 X40.000 Y30.000 F600
G1 X41.000 Y31.000
G1 X40.000 Y32.000
G1 X38.000 Y32.000
G1 X37.000 Y31.000
G1 X38.000 Y30.000
G1 X39.000 Y31.000
G1 X39.000 Y33.000
G1 X40.000 Y34.000
G1 X38.000 Y34.000
G1 X37.000 Y33.000
G1 X38.000 Y32.000
G0 Z5.000

G0 X42.000 Y30.000
G0 Z1.000
G1 Z-0.500 F300
G3 X44.000 Y32.000 I0.000 J2.000 F600
G3 X42.000 Y34.000 I-2.000 J0.000
G3 X40.000 Y32.000 I0.000 J-2.000
G3 X42.000 Y30.000 I2.000 J0.000
G0 Z5.000

G0 X30.000 Y36.000
G0 Z1.000
G1 Z-0.500 F300
G2 X32.000 Y38.000 I0.000 J2.000 F600
G2 X30.000 Y40.000 I-2.000 J0.000
G2 X28.000 Y38.000 I0.000 J-2.000
G2 X30.000 Y36.000 I2.000 J0.000
G0 Z5.000

G0 X34.000 Y36.000
G0 Z1.000
G1 Z-0.500 F300
G1 X36.000 Y36.000 F600
G1 X37.000 Y37.000
G1 X37.000 Y39.000
G1 X36.000 Y40.000
G1 X34.000 Y40.000
G1 X33.000 Y39.000
G1 X33.000 Y37.000
G1 X34.000 Y36.000
G0 Z5.000

G0 X38.000 Y36.000
G0 Z1.000
G1 Z-0.500 F300
G3 X40.000 Y38.000 I0.000 J2.000 F600
G3 X38.000 Y40.000 I-2.000 J0.000
G3 X36.000 Y38.000 I0.000 J-2.000
G3 X38.000 Y36.000 I2.000 J0.000
G0 Z5.000

G0 X42.000 Y36.000
G0 Z1.000
G1 Z-0.500 F300
G1 X44.000 Y36.000 F600
G1 X45.000 Y37.000
G1 X44.000 Y38.000
G1 X42.000 Y38.000
G1 X41.000 Y37.000
G1 X42.000 Y36.000
G1 X43.000 Y37.000
G1 X43.000 Y39.000
G1 X44.000 Y40.000
G1 X42.000 Y40.000
G1 X41.000 Y39.000
G1 X42.000 Y38.000
G0 Z5.000

; ===== WAVE PATTERN TOP =====
G0 X15.000 Y82.000
G0 Z1.000
G1 Z-0.700 F300
G1 X20.000 Y82.000 F500
G2 X22.000 Y84.000 I0.000 J2.000
G2 X20.000 Y86.000 I-2.000 J0.000
G1 X25.000 Y86.000
G2 X27.000 Y84.000 I0.000 J-2.000
G2 X25.000 Y82.000 I-2.000 J0.000
G1 X30.000 Y82.000
G2 X32.000 Y84.000 I0.000 J2.000
G2 X30.000 Y86.000 I-2.000 J0.000
G1 X35.000 Y86.000
G2 X37.000 Y84.000 I0.000 J-2.000
G2 X35.000 Y82.000 I-2.000 J0.000
G1 X40.000 Y82.000
G2 X42.000 Y84.000 I0.000 J2.000
G2 X40.000 Y86.000 I-2.000 J0.000
G1 X45.000 Y86.000
G2 X47.000 Y84.000 I0.000 J-2.000
G2 X45.000 Y82.000 I-2.000 J0.000
G1 X50.000 Y82.000
G2 X52.000 Y84.000 I0.000 J2.000
G2 X50.000 Y86.000 I-2.000 J0.000
G1 X55.000 Y86.000
G2 X57.000 Y84.000 I0.000 J-2.000
G2 X55.000 Y82.000 I-2.000 J0.000
G1 X60.000 Y82.000
G2 X62.000 Y84.000 I0.000 J2.000
G2 X60.000 Y86.000 I-2.000 J0.000
G1 X65.000 Y86.000
G2 X67.000 Y84.000 I0.000 J-2.000
G2 X65.000 Y82.000 I-2.000 J0.000
G1 X70.000 Y82.000
G2 X72.000 Y84.000 I0.000 J2.000
G2 X70.000 Y86.000 I-2.000 J0.000
G1 X75.000 Y86.000
G2 X77.000 Y84.000 I0.000 J-2.000
G2 X75.000 Y82.000 I-2.000 J0.000
G1 X80.000 Y82.000
G2 X82.000 Y84.000 I0.000 J2.000
G2 X80.000 Y86.000 I-2.000 J0.000
G1 X85.000 Y86.000
G0 Z5.000

; ===== WAVE PATTERN BOTTOM =====
G0 X15.000 Y14.000
G0 Z1.000
G1 Z-0.700 F300
G1 X20.000 Y14.000 F500
G3 X22.000 Y16.000 I0.000 J2.000
G3 X20.000 Y18.000 I-2.000 J0.000
G1 X25.000 Y18.000
G3 X27.000 Y16.000 I0.000 J-2.000
G3 X25.000 Y14.000 I-2.000 J0.000
G1 X30.000 Y14.000
G3 X32.000 Y16.000 I0.000 J2.000
G3 X30.000 Y18.000 I-2.000 J0.000
G1 X35.000 Y18.000
G3 X37.000 Y16.000 I0.000 J-2.000
G3 X35.000 Y14.000 I-2.000 J0.000
G1 X40.000 Y14.000
G3 X42.000 Y16.000 I0.000 J2.000
G3 X40.000 Y18.000 I-2.000 J0.000
G1 X45.000 Y18.000
G3 X47.000 Y16.000 I0.000 J-2.000
G3 X45.000 Y14.000 I-2.000 J0.000
G1 X50.000 Y14.000
G3 X52.000 Y16.000 I0.000 J2.000
G3 X50.000 Y18.000 I-2.000 J0.000
G1 X55.000 Y18.000
G3 X57.000 Y16.000 I0.000 J-2.000
G3 X55.000 Y14.000 I-2.000 J0.000
G1 X60.000 Y14.000
G3 X62.000 Y16.000 I0.000 J2.000
G3 X60.000 Y18.000 I-2.000 J0.000
G1 X65.000 Y18.000
G3 X67.000 Y16.000 I0.000 J-2.000
G3 X65.000 Y14.000 I-2.000 J0.000
G1 X70.000 Y14.000
G3 X72.000 Y16.000 I0.000 J2.000
G3 X70.000 Y18.000 I-2.000 J0.000
G1 X75.000 Y18.000
G3 X77.000 Y16.000 I0.000 J-2.000
G3 X75.000 Y14.000 I-2.000 J0.000
G1 X80.000 Y14.000
G3 X82.000 Y16.000 I0.000 J2.000
G3 X80.000 Y18.000 I-2.000 J0.000
G1 X85.000 Y18.000
G0 Z5.000

; ===== DETAILED TEXT ENGRAVING "CNC" =====
; Letter C
G0 X32.000 Y55.000
G0 Z1.000
G1 Z-0.300 F200
G2 X30.000 Y57.000 I-2.000 J0.000 F300
G1 X30.000 Y63.000
G2 X32.000 Y65.000 I2.000 J0.000
G1 X36.000 Y65.000
G0 Z1.000
G1 Z-0.300
G1 X32.000 Y65.000
G2 X29.000 Y62.000 I0.000 J-3.000
G1 X29.000 Y58.000
G2 X32.000 Y55.000 I3.000 J0.000
G1 X36.000 Y55.000
G0 Z5.000

; Letter N
G0 X40.000 Y55.000
G0 Z1.000
G1 Z-0.300 F200
G1 X40.000 Y65.000 F300
G0 Z1.000
G1 Z-0.300
G1 X40.000 Y55.000
G1 X46.000 Y65.000
G0 Z1.000
G1 Z-0.300
G1 X46.000 Y55.000
G0 Z5.000

; Letter C
G0 X54.000 Y55.000
G0 Z1.000
G1 Z-0.300 F200
G2 X52.000 Y57.000 I-2.000 J0.000 F300
G1 X52.000 Y63.000
G2 X54.000 Y65.000 I2.000 J0.000
G1 X58.000 Y65.000
G0 Z1.000
G1 Z-0.300
G1 X54.000 Y65.000
G2 X51.000 Y62.000 I0.000 J-3.000
G1 X51.000 Y58.000
G2 X54.000 Y55.000 I3.000 J0.000
G1 X58.000 Y55.000
G0 Z5.000

; ===== COMPLEX FLOURISHES AND DECORATIVE ELEMENTS =====
G0 X65.000 Y60.000
G0 Z1.000
G1 Z-0.400 F250
G2 X67.000 Y62.000 I2.000 J0.000 F400
G2 X65.000 Y64.000 I0.000 J2.000
G2 X63.000 Y62.000 I-2.000 J0.000
G2 X65.000 Y60.000 I0.000 J-2.000
G1 X66.000 Y61.000
G2 X65.000 Y62.000 I-1.000 J0.000
G2 X64.000 Y61.000 I0.000 J-1.000
G2 X65.000 Y60.000 I1.000 J0.000
G0 Z5.000

G0 X68.000 Y57.000
G0 Z1.000
G1 Z-0.400 F250
G3 X70.000 Y59.000 I0.000 J2.000 F400
G3 X68.000 Y61.000 I-2.000 J0.000
G3 X66.000 Y59.000 I0.000 J-2.000
G3 X68.000 Y57.000 I2.000 J0.000
G1 X69.000 Y58.000
G3 X68.000 Y59.000 I-1.000 J0.000
G3 X67.000 Y58.000 I0.000 J-1.000
G3 X68.000 Y57.000 I1.000 J0.000
G0 Z5.000

G0 X71.000 Y60.000
G0 Z1.000
G1 Z-0.400 F250
G2 X73.000 Y62.000 I2.000 J0.000 F400
G2 X71.000 Y64.000 I0.000 J2.000
G2 X69.000 Y62.000 I-2.000 J0.000
G2 X71.000 Y60.000 I0.000 J-2.000
G1 X72.000 Y61.000
G2 X71.000 Y62.000 I-1.000 J0.000
G2 X70.000 Y61.000 I0.000 J-1.000
G2 X71.000 Y60.000 I1.000 J0.000
G0 Z5.000

; ===== INTRICATE POCKET OPERATIONS =====
; Pocket 1
G0 X25.000 Y40.000
G0 Z1.000
G1 Z-2.500 F200
G1 X27.000 Y40.000 F600
G1 X27.000 Y42.000
G1 X25.000 Y42.000
G1 X25.000 Y40.000
G1 X25.500 Y40.500
G1 X26.500 Y40.500
G1 X26.500 Y41.500
G1 X25.500 Y41.500
G1 X25.500 Y40.500
G1 X26.000 Y41.000
G0 Z5.000

; Pocket 2
G0 X29.000 Y40.000
G0 Z1.000
G1 Z-2.500 F200
G1 X31.000 Y40.000 F600
G1 X31.000 Y42.000
G1 X29.000 Y42.000
G1 X29.000 Y40.000
G1 X29.500 Y40.500
G1 X30.500 Y40.500
G1 X30.500 Y41.500
G1 X29.500 Y41.500
G1 X29.500 Y40.500
G1 X30.000 Y41.000
G0 Z5.000

; Pocket 3
G0 X33.000 Y40.000
G0 Z1.000
G1 Z-2.500 F200
G1 X35.000 Y40.000 F600
G1 X35.000 Y42.000
G1 X33.000 Y42.000
G1 X33.000 Y40.000
G1 X33.500 Y40.500
G1 X34.500 Y40.500
G1 X34.500 Y41.500
G1 X33.500 Y41.500
G1 X33.500 Y40.500
G1 X34.000 Y41.000
G0 Z5.000

; Pocket 4
G0 X65.000 Y40.000
G0 Z1.000
G1 Z-2.500 F200
G1 X67.000 Y40.000 F600
G1 X67.000 Y42.000
G1 X65.000 Y42.000
G1 X65.000 Y40.000
G1 X65.500 Y40.500
G1 X66.500 Y40.500
G1 X66.500 Y41.500
G1 X65.500 Y41.500
G1 X65.500 Y40.500
G1 X66.000 Y41.000
G0 Z5.000

; Pocket 5
G0 X69.000 Y40.000
G0 Z1.000
G1 Z-2.500 F200
G1 X71.000 Y40.000 F600
G1 X71.000 Y42.000
G1 X69.000 Y42.000
G1 X69.000 Y40.000
G1 X69.500 Y40.500
G1 X70.500 Y40.500
G1 X70.500 Y41.500
G1 X69.500 Y41.500
G1 X69.500 Y40.500
G1 X70.000 Y41.000
G0 Z5.000

; Pocket 6
G0 X73.000 Y40.000
G0 Z1.000
G1 Z-2.500 F200
G1 X75.000 Y40.000 F600
G1 X75.000 Y42.000
G1 X73.000 Y42.000
G1 X73.000 Y40.000
G1 X73.500 Y40.500
G1 X74.500 Y40.500
G1 X74.500 Y41.500
G1 X73.500 Y41.500
G1 X73.500 Y40.500
G1 X74.000 Y41.000
G0 Z5.000

; ===== COMPLEX ARC SEQUENCES =====
G0 X30.000 Y70.000
G0 Z1.000
G1 Z-1.200 F250
G2 X32.000 Y72.000 I2.000 J0.000 F450
G3 X34.000 Y74.000 I0.000 J2.000
G2 X36.000 Y72.000 I0.000 J-2.000
G3 X38.000 Y70.000 I-2.000 J0.000
G2 X36.000 Y68.000 I-2.000 J0.000
G3 X34.000 Y66.000 I0.000 J-2.000
G2 X32.000 Y68.000 I0.000 J2.000
G3 X30.000 Y70.000 I2.000 J0.000
G0 Z5.000

G0 X62.000 Y70.000
G0 Z1.000
G1 Z-1.200 F250
G3 X64.000 Y72.000 I2.000 J0.000 F450
G2 X66.000 Y74.000 I0.000 J2.000
G3 X68.000 Y72.000 I0.000 J-2.000
G2 X70.000 Y70.000 I-2.000 J0.000
G3 X68.000 Y68.000 I-2.000 J0.000
G2 X66.000 Y66.000 I0.000 J-2.000
G3 X64.000 Y68.000 I0.000 J2.000
G2 X62.000 Y70.000 I2.000 J0.000
G0 Z5.000

; ===== FINISH WITH DETAILED PERIMETER CLEANUP =====
G0 X5.000 Y5.000
G0 Z1.000
G1 Z-2.100 F250
G1 X95.000 Y5.000 F1000
G1 X95.000 Y95.000
G1 X5.000 Y95.000
G1 X5.000 Y5.000
G0 Z5.000

; ===== RADIAL PATTERN AROUND CENTER =====
G0 X50.000 Y30.000
G0 Z1.000
G1 Z-0.800 F300
G1 X50.000 Y35.000 F500
G0 Z1.000
G0 X55.000 Y35.000
G1 Z-0.800 F300
G1 X50.000 Y35.000 F500
G0 Z1.000
G0 X55.000 Y40.000
G1 Z-0.800 F300
G1 X50.000 Y35.000 F500
G0 Z1.000
G0 X50.000 Y40.000
G1 Z-0.800 F300
G1 X50.000 Y35.000 F500
G0 Z1.000
G0 X45.000 Y40.000
G1 Z-0.800 F300
G1 X50.000 Y35.000 F500
G0 Z1.000
G0 X45.000 Y35.000
G1 Z-0.800 F300
G1 X50.000 Y35.000 F500
G0 Z1.000
G0 X45.000 Y30.000
G1 Z-0.800 F300
G1 X50.000 Y35.000 F500
G0 Z1.000
G0 X50.000 Y30.000
G1 Z-0.800 F300
G1 X50.000 Y35.000 F500
G0 Z5.000

; ===== ADDITIONAL DECORATIVE ARCS =====
G0 X20.000 Y20.000
G0 Z1.000
G1 Z-0.600 F300
G2 X25.000 Y25.000 I5.000 J0.000 F400
G2 X20.000 Y30.000 I0.000 J5.000
G2 X15.000 Y25.000 I-5.000 J0.000
G2 X20.000 Y20.000 I0.000 J-5.000
G0 Z5.000

G0 X80.000 Y20.000
G0 Z1.000
G1 Z-0.600 F300
G3 X75.000 Y25.000 I-5.000 J0.000 F400
G3 X80.000 Y30.000 I0.000 J5.000
G3 X85.000 Y25.000 I5.000 J0.000
G3 X80.000 Y20.000 I0.000 J-5.000
G0 Z5.000

G0 X20.000 Y80.000
G0 Z1.000
G1 Z-0.600 F300
G2 X15.000 Y75.000 I-5.000 J0.000 F400
G2 X20.000 Y70.000 I0.000 J-5.000
G2 X25.000 Y75.000 I5.000 J0.000
G2 X20.000 Y80.000 I0.000 J5.000
G0 Z5.000

G0 X80.000 Y80.000
G0 Z1.000
G1 Z-0.600 F300
G3 X85.000 Y75.000 I5.000 J0.000 F400
G3 X80.000 Y70.000 I0.000 J-5.000
G3 X75.000 Y75.000 I-5.000 J0.000
G3 X80.000 Y80.000 I0.000 J5.000
G0 Z5.000

; ===== INTRICATE HONEYCOMB PATTERN =====
G0 X40.000 Y20.000
G0 Z1.000
G1 Z-0.400 F300
G1 X42.000 Y20.000 F350
G1 X43.000 Y21.732
G1 X42.000 Y23.464
G1 X40.000 Y23.464
G1 X39.000 Y21.732
G1 X40.000 Y20.000
G0 Z5.000

G0 X44.000 Y21.732
G0 Z1.000
G1 Z-0.400 F300
G1 X46.000 Y21.732 F350
G1 X47.000 Y23.464
G1 X46.000 Y25.196
G1 X44.000 Y25.196
G1 X43.000 Y23.464
G1 X44.000 Y21.732
G0 Z5.000

G0 X40.000 Y25.196
G0 Z1.000
G1 Z-0.400 F300
G1 X42.000 Y25.196 F350
G1 X43.000 Y26.928
G1 X42.000 Y28.660
G1 X40.000 Y28.660
G1 X39.000 Y26.928
G1 X40.000 Y25.196
G0 Z5.000

G0 X56.000 Y20.000
G0 Z1.000
G1 Z-0.400 F300
G1 X58.000 Y20.000 F350
G1 X59.000 Y21.732
G1 X58.000 Y23.464
G1 X56.000 Y23.464
G1 X55.000 Y21.732
G1 X56.000 Y20.000
G0 Z5.000

G0 X60.000 Y21.732
G0 Z1.000
G1 Z-0.400 F300
G1 X62.000 Y21.732 F350
G1 X63.000 Y23.464
G1 X62.000 Y25.196
G1 X60.000 Y25.196
G1 X59.000 Y23.464
G1 X60.000 Y21.732
G0 Z5.000

G0 X56.000 Y25.196
G0 Z1.000
G1 Z-0.400 F300
G1 X58.000 Y25.196 F350
G1 X59.000 Y26.928
G1 X58.000 Y28.660
G1 X56.000 Y28.660
G1 X55.000 Y26.928
G1 X56.000 Y25.196
G0 Z5.000

; ===== FINAL DETAILED FINISHING PASSES =====
G0 X10.000 Y10.000
G0 Z1.000
G1 Z-0.100 F150
G1 X90.000 Y10.000 F800
G1 X90.000 Y90.000
G1 X10.000 Y90.000
G1 X10.000 Y10.000
G0 Z5.000

; Program End
M5
M30