; CNC Router G-code Sample - Complex Part Outline
; Generated for graphics performance testing
G90 G94 G17 G21
G28 G91 Z0
G90
S1000 M3
G0 Z5.000

; Part outline - main profile with arcs and lines
G0 X0.000 Y0.000
G0 Z1.000
G1 Z-0.500 F300
G1 X10.000 Y0.000 F1000
G2 X15.000 Y5.000 I0.000 J5.000
G1 X25.000 Y5.000
G3 X30.000 Y10.000 I0.000 J5.000
G1 X30.000 Y20.000
G2 X25.000 Y25.000 I-5.000 J0.000
G1 X15.000 Y25.000
G3 X10.000 Y20.000 I0.000 J-5.000
G1 X10.000 Y15.000
G1 X5.000 Y15.000
G1 X5.000 Y10.000
G1 X0.000 Y10.000
G1 X0.000 Y0.000

; Inner pocket
G0 X12.000 Y8.000
G1 Z-0.500 F300
G1 X18.000 Y8.000 F800
G1 X18.000 Y17.000
G1 X12.000 Y17.000
G1 X12.000 Y8.000

; Drill holes pattern
G0 Z5.000
G0 X5.000 Y2.500
G1 Z-1.000 F200
G0 Z5.000
G0 X10.000 Y2.500
G1 Z-1.000 F200
G0 Z5.000
G0 X15.000 Y2.500
G1 Z-1.000 F200
G0 Z5.000

; Complex curved profile section
G0 X40.000 Y0.000
G1 Z-0.500 F300
G1 X50.000 Y0.000 F800
G2 X55.000 Y5.000 I0.000 J5.000
G2 X60.000 Y10.000 I5.000 J0.000
G1 X70.000 Y10.000
G3 X75.000 Y15.000 I0.000 J5.000
G1 X75.000 Y25.000
G3 X70.000 Y30.000 I-5.000 J0.000
G1 X60.000 Y30.000
G2 X55.000 Y25.000 I0.000 J-5.000
G2 X50.000 Y20.000 I-5.000 J0.000
G1 X40.000 Y20.000
G1 X40.000 Y0.000

; Finish
G0 Z10.000
M5
M30