; Complex CNC Router Job - 10K Operations Performance Test
; Generated for graphics rendering performance testing
; Scaled to Work Area: 285.0x172.0x38.0mm
; Includes multiple toolchanges and spindle speed variations
G17 G21 G90 G64 P0.025
G0 Z26.053
M6 T1  ; Load Tool 1 - 6mm End Mill
G0 Z11.022

; ===== SPIRAL PATTERN - 2000 operations =====
M3 S19078
G4 P2.0
G0 X50.102 Y50.102
G1 Z0.501 F300
G1 X50.122 Y50.103 F1000
G1 X50.142 Y50.107
G1 X50.161 Y50.113
G1 X50.179 Y50.122
G1 X50.197 Y50.133
G1 X50.214 Y50.146
G1 X50.229 Y50.161
G1 X50.242 Y50.179
G1 X50.254 Y50.198
G1 X50.264 Y50.220
G1 X50.272 Y50.242
G1 X50.277 Y50.266
G1 X50.280 Y50.292
G1 X50.281 Y50.318
G1 X50.278 Y50.345
G1 X50.274 Y50.373
G1 X50.266 Y50.400
G1 X50.255 Y50.428
G1 X50.242 Y50.456
G1 X50.226 Y50.483
G1 X50.206 Y50.509
G1 X50.184 Y50.535
G1 X50.160 Y50.559
G1 X50.132 Y50.582
G1 X50.102 Y50.603
G1 X50.069 Y50.622
G1 X50.034 Y50.639
G1 X49.997 Y50.653
G1 X49.957 Y50.665
G1 X49.916 Y50.674
G1 X49.873 Y50.679
G1 X49.829 Y50.682
G1 X49.783 Y50.681
G1 X49.737 Y50.677
G1 X49.689 Y50.669
G1 X49.642 Y50.658
G1 X49.594 Y50.642
G1 X49.547 Y50.623
G1 X49.500 Y50.600
G1 X49.453 Y50.573
G1 X49.408 Y50.542
G1 X49.364 Y50.507
G1 X49.322 Y50.469
G1 X49.282 Y50.426
G1 X49.244 Y50.380
G1 X49.209 Y50.331
G1 X49.177 Y50.278
G1 X49.147 Y50.222
G1 X49.122 Y50.163
G1 X49.100 Y50.102
G1 X49.082 Y50.038
G1 X49.068 Y49.971
G1 X49.058 Y49.903
G1 X49.054 Y49.833
G1 X49.053 Y49.761
G1 X49.058 Y49.689
G1 X49.068 Y49.615
G1 X49.083 Y49.542
G1 X49.103 Y49.468
G1 X49.129 Y49.395
G1 X49.160 Y49.323
G1 X49.196 Y49.251
G1 X49.237 Y49.181
G1 X49.284 Y49.114
G1 X49.336 Y49.048
G1 X49.393 Y48.985
G1 X49.455 Y48.925
G1 X49.522 Y48.869
G1 X49.593 Y48.816
G1 X49.668 Y48.768
G1 X49.748 Y48.724
G1 X49.831 Y48.684
G1 X49.918 Y48.650
G1 X50.009 Y48.622
G1 X50.102 Y48.599
G1 X50.197 Y48.582
G1 X50.295 Y48.571
G1 X50.395 Y48.566
G1 X50.495 Y48.568
G1 X50.597 Y48.577
G1 X50.699 Y48.592
G1 X50.801 Y48.615
G1 X50.903 Y48.644
G1 X51.004 Y48.680
G1 X51.103 Y48.724
G1 X51.200 Y48.774
G1 X51.295 Y48.831
G1 X51.387 Y48.895
G1 X51.476 Y48.965
G1 X51.561 Y49.042
G1 X51.642 Y49.125
G1 X51.717 Y49.214
G1 X51.788 Y49.308
G1 X51.853 Y49.408
G1 X51.912 Y49.513
G1 X51.965 Y49.623
G1 X52.011 Y49.738
G1 X52.050 Y49.856
G1 X52.082 Y49.977
G1 X52.106 Y50.102
G1 X52.122 Y50.229
G1 X52.130 Y50.358
G1 X52.129 Y50.489
G1 X52.121 Y50.620
G1 X52.103 Y50.752
G1 X52.077 Y50.884
G1 X52.042 Y51.015
G1 X51.998 Y51.144
G1 X51.946 Y51.272
G1 X51.885 Y51.398
G1 X51.816 Y51.520
G1 X51.738 Y51.638
G1 X51.652 Y51.753
G1 X51.558 Y51.862
G1 X51.456 Y51.966
G1 X51.347 Y52.065
G1 X51.231 Y52.156
G1 X51.109 Y52.242
G1 X50.980 Y52.319
G1 X50.845 Y52.389
G1 X50.705 Y52.451
G1 X50.560 Y52.503
G1 X50.411 Y52.547
G1 X50.258 Y52.582
G1 X50.102 Y52.607
G1 X49.943 Y52.622
G1 X49.783 Y52.627
G1 X49.621 Y52.622
G1 X49.459 Y52.606
G1 X49.297 Y52.580
G1 X49.135 Y52.543
G1 X48.975 Y52.495
G1 X48.818 Y52.437
G1 X48.663 Y52.369
G1 X48.512 Y52.291
G1 X48.364 Y52.202
G1 X48.222 Y52.103
G1 X48.086 Y51.995
G1 X47.955 Y51.877
G1 X47.832 Y51.751
G1 X47.716 Y51.616
G1 X47.608 Y51.473
G1 X47.509 Y51.322
G1 X47.419 Y51.164
G1 X47.338 Y51.000
G1 X47.268 Y50.829
G1 X47.208 Y50.654
G1 X47.159 Y50.474
G1 X47.122 Y50.289
G1 X47.096 Y50.102
G1 X47.082 Y49.912
G1 X47.080 Y49.720
G1 X47.090 Y49.527
G1 X47.112 Y49.334
G1 X47.147 Y49.142
G1 X47.195 Y48.951
G1 X47.255 Y48.762
G1 X47.327 Y48.576
G1 X47.411 Y48.394
G1 X47.508 Y48.217
G1 X47.616 Y48.045
G1 X47.735 Y47.879
G1 X47.866 Y47.720
G1 X48.007 Y47.569
G1 X48.158 Y47.427
G1 X48.319 Y47.293
G1 X48.489 Y47.169
G1 X48.668 Y47.055
G1 X48.855 Y46.953
G1 X49.049 Y46.862
G1 X49.250 Y46.782
G1 X49.456 Y46.716
G1 X49.667 Y46.662
G1 X49.883 Y46.622
G1 X50.102 Y46.595
G1 X50.323 Y46.582
G1 X50.546 Y46.583
G1 X50.770 Y46.598
G1 X50.994 Y46.627
G1 X51.216 Y46.671
G1 X51.437 Y46.729
G1 X51.655 Y46.801
G1 X51.869 Y46.888
G1 X52.078 Y46.988
G1 X52.281 Y47.102
G1 X52.478 Y47.230
G1 X52.667 Y47.370
G1 X52.848 Y47.523
G1 X53.020 Y47.687
G1 X53.182 Y47.864
G1 X53.334 Y48.051
G1 X53.474 Y48.248
G1 X53.602 Y48.455
G1 X53.717 Y48.671
G1 X53.818 Y48.894
G1 X53.906 Y49.125
G1 X53.980 Y49.362
G1 X54.039 Y49.604
G1 X54.082 Y49.851
G1 X54.110 Y50.102
G1 X54.122 Y50.355
G1 X54.118 Y50.609
G1 X54.098 Y50.864
G1 X54.062 Y51.118
G1 X54.009 Y51.371
G1 X53.940 Y51.622
G1 X53.855 Y51.868
G1 X53.755 Y52.110
G1 X53.638 Y52.346
G1 X53.507 Y52.575
G1 X53.360 Y52.797
G1 X53.199 Y53.010
G1 X53.024 Y53.213
G1 X52.835 Y53.406
G1 X52.634 Y53.588
G1 X52.421 Y53.757
G1 X52.197 Y53.913
G1 X51.962 Y54.055
G1 X51.717 Y54.182
G1 X51.464 Y54.295
G1 X51.203 Y54.392
G1 X50.935 Y54.472
G1 X50.662 Y54.536
G1 X50.384 Y54.582
G1 X50.102 Y54.611
G1 X49.817 Y54.622
G1 X49.532 Y54.615
G1 X49.246 Y54.590
G1 X48.960 Y54.547
G1 X48.677 Y54.486
G1 X48.398 Y54.406
G1 X48.122 Y54.309
G1 X47.852 Y54.194
G1 X47.589 Y54.061
G1 X47.334 Y53.912
G1 X47.087 Y53.746
G1 X46.850 Y53.564
G1 X46.625 Y53.367
G1 X46.411 Y53.155
G1 X46.211 Y52.929
G1 X46.024 Y52.690
G1 X45.852 Y52.438
G1 X45.695 Y52.175
G1 X45.555 Y51.902
G1 X45.432 Y51.619
G1 X45.327 Y51.328
G1 X45.239 Y51.029
G1 X45.171 Y50.725
G1 X45.121 Y50.415
G1 X45.092 Y50.102
G1 X45.081 Y49.786
G1 X45.091 Y49.469
G1 X45.121 Y49.152
G1 X45.171 Y48.836
G1 X45.242 Y48.523
G1 X45.332 Y48.213
G1 X45.441 Y47.909
G1 X45.571 Y47.611
G1 X45.719 Y47.321
G1 X45.886 Y47.039
G1 X46.072 Y46.768
G1 X46.274 Y46.507
G1 X46.494 Y46.260
G1 X46.729 Y46.025
G1 X46.980 Y45.805
G1 X47.245 Y45.601
G1 X47.524 Y45.413
G1 X47.815 Y45.242
G1 X48.117 Y45.089
G1 X48.430 Y44.956
G1 X48.751 Y44.841
G1 X49.080 Y44.747
G1 X49.416 Y44.674
G1 X49.757 Y44.621
G1 X50.102 Y44.591
G1 X50.449 Y44.581
G1 X50.798 Y44.594
G1 X51.146 Y44.629
G1 X51.492 Y44.686
G1 X51.836 Y44.765
G1 X52.175 Y44.866
G1 X52.508 Y44.988
G1 X52.834 Y45.132
G1 X53.151 Y45.296
G1 X53.459 Y45.481
G1 X53.755 Y45.685
G1 X54.039 Y45.909
G1 X54.309 Y46.151
G1 X54.564 Y46.410
G1 X54.804 Y46.686
G1 X55.026 Y46.977
G1 X55.230 Y47.283
G1 X55.415 Y47.602
G1 X55.580 Y47.933
G1 X55.724 Y48.275
G1 X55.847 Y48.627
G1 X55.948 Y48.986
G1 X56.027 Y49.353
G1 X56.082 Y49.726
G1 X56.114 Y50.102
G1 X56.122 Y50.481
G1 X56.106 Y50.860
G1 X56.067 Y51.240
G1 X56.003 Y51.617
G1 X55.915 Y51.991
G1 X55.804 Y52.359
G1 X55.669 Y52.721
G1 X55.511 Y53.075
G1 X55.330 Y53.420
G1 X55.128 Y53.753
G1 X54.904 Y54.075
G1 X54.660 Y54.382
G1 X54.396 Y54.674
G1 X54.113 Y54.950
G1 X53.812 Y55.209
G1 X53.495 Y55.449
G1 X53.162 Y55.669
G1 X52.815 Y55.868
G1 X52.455 Y56.046
G1 X52.084 Y56.201
G1 X51.702 Y56.333
G1 X51.311 Y56.441
G1 X50.913 Y56.524
G1 X50.509 Y56.582
G1 X50.102 Y56.615
G1 X49.692 Y56.622
G1 X49.280 Y56.603
G1 X48.870 Y56.559
G1 X48.462 Y56.488
G1 X48.058 Y56.392
G1 X47.660 Y56.269
G1 X47.269 Y56.122
G1 X46.887 Y55.950
G1 X46.515 Y55.753
G1 X46.156 Y55.533
G1 X45.810 Y55.290
G1 X45.479 Y55.025
G1 X45.164 Y54.739
G1 X44.867 Y54.432
G1 X44.589 Y54.107
G1 X44.332 Y53.764
G1 X44.096 Y53.404
G1 X43.882 Y53.029
G1 X43.692 Y52.640
G1 X43.526 Y52.238
G1 X43.386 Y51.826
G1 X43.271 Y51.405
G1 X43.183 Y50.976
G1 X43.121 Y50.541
G1 X43.088 Y50.102
G1 X43.081 Y49.660
G1 X43.103 Y49.218
G1 X43.153 Y48.776
G1 X43.230 Y48.337
G1 X43.336 Y47.903
G1 X43.468 Y47.475
G1 X43.628 Y47.056
G1 X43.815 Y46.645
G1 X44.027 Y46.247
G1 X44.265 Y45.861
G1 X44.527 Y45.490
G1 X44.813 Y45.136
G1 X45.122 Y44.799
G1 X45.452 Y44.481
G1 X45.802 Y44.184
G1 X46.172 Y43.909
G1 X46.558 Y43.657
G1 X46.962 Y43.429
G1 X47.379 Y43.226
G1 X47.810 Y43.050
G1 X48.253 Y42.900
G1 X48.705 Y42.779
G1 X49.165 Y42.686
G1 X49.631 Y42.621
G1 X50.102 Y42.587
G1 X50.575 Y42.581
G1 X51.049 Y42.606
G1 X51.521 Y42.661
G1 X51.991 Y42.745
G1 X52.455 Y42.859
G1 X52.913 Y43.002
G1 X53.361 Y43.175
G1 X53.800 Y43.376
G1 X54.225 Y43.604
G1 X54.637 Y43.860
G1 X55.033 Y44.141
G1 X55.411 Y44.448
G1 X55.770 Y44.779
G1 X56.109 Y45.133
G1 X56.425 Y45.508
G1 X56.718 Y45.903
G1 X56.986 Y46.317
G1 X57.228 Y46.748
G1 X57.443 Y47.195
G1 X57.630 Y47.656
G1 X57.789 Y48.128
G1 X57.917 Y48.611
G1 X58.015 Y49.102
G1 X58.082 Y49.600
G1 X58.118 Y50.102
G1 X58.122 Y50.606
G1 X58.095 Y51.111
G1 X58.035 Y51.615
G1 X57.944 Y52.115
G1 X57.821 Y52.610
G1 X57.667 Y53.097
G1 X57.482 Y53.575
G1 X57.267 Y54.041
G1 X57.022 Y54.494
G1 X56.749 Y54.931
G1 X56.448 Y55.352
G1 X56.121 Y55.754
G1 X55.768 Y56.135
G1 X55.390 Y56.495
G1 X54.990 Y56.830
G1 X54.569 Y57.141
G1 X54.128 Y57.425
G1 X53.669 Y57.682
G1 X53.193 Y57.909
G1 X52.703 Y58.107
G1 X52.200 Y58.274
G1 X51.686 Y58.409
G1 X51.164 Y58.512
G1 X50.635 Y58.582
G1 X50.102 Y58.619
G1 X49.566 Y58.622
G1 X49.029 Y58.592
G1 X48.495 Y58.527
G1 X47.964 Y58.429
G1 X47.439 Y58.297
G1 X46.922 Y58.133
G1 X46.416 Y57.935
G1 X45.921 Y57.706
G1 X45.441 Y57.445
G1 X44.978 Y57.155
G1 X44.532 Y56.834
G1 X44.107 Y56.486
G1 X43.703 Y56.111
G1 X43.323 Y55.710
G1 X42.968 Y55.285
G1 X42.640 Y54.837
G1 X42.339 Y54.369
G1 X42.069 Y53.882
G1 X41.829 Y53.377
G1 X41.620 Y52.858
G1 X41.444 Y52.325
G1 X41.302 Y51.780
G1 X41.194 Y51.227
G1 X41.121 Y50.667
G1 X41.083 Y50.102
G1 X41.081 Y49.534
G1 X41.115 Y48.966
G1 X41.184 Y48.401
G1 X41.289 Y47.839
G1 X41.430 Y47.284
G1 X41.605 Y46.738
G1 X41.815 Y46.202
G1 X42.058 Y45.680
G1 X42.335 Y45.173
G1 X42.644 Y44.683
G1 X42.983 Y44.213
G1 X43.352 Y43.764
G1 X43.750 Y43.338
G1 X44.174 Y42.937
G1 X44.624 Y42.563
G1 X45.098 Y42.217
G1 X45.593 Y41.900
G1 X46.108 Y41.615
G1 X46.642 Y41.363
G1 X47.191 Y41.144
G1 X47.754 Y40.959
G1 X48.329 Y40.810
G1 X48.914 Y40.697
G1 X49.505 Y40.621
G1 X50.102 Y40.582
G1 X50.701 Y40.581
G1 X51.300 Y40.618
G1 X51.897 Y40.692
G1 X52.489 Y40.804
G1 X53.074 Y40.953
G1 X53.650 Y41.139
G1 X54.215 Y41.361
G1 X54.765 Y41.619
G1 X55.299 Y41.912
G1 X55.815 Y42.238
G1 X56.310 Y42.597
G1 X56.783 Y42.987
G1 X57.231 Y43.407
G1 X57.653 Y43.855
G1 X58.046 Y44.330
G1 X58.410 Y44.829
G1 X58.742 Y45.352
G1 X59.042 Y45.895
G1 X59.307 Y46.457
G1 X59.536 Y47.036
G1 X59.730 Y47.630
G1 X59.886 Y48.235
G1 X60.003 Y48.851
G1 X60.082 Y49.474
G1 X60.122 Y50.102
G1 X60.122 Y50.732
G1 X60.083 Y51.363
G1 X60.004 Y51.991
G1 X59.885 Y52.614
G1 X59.727 Y53.229
G1 X59.530 Y53.835
G1 X59.295 Y54.428
G1 X59.023 Y55.006
G1 X58.715 Y55.568
G1 X58.371 Y56.109
G1 X57.992 Y56.629
G1 X57.582 Y57.126
G1 X57.140 Y57.596
G1 X56.668 Y58.039
G1 X56.168 Y58.452
G1 X55.643 Y58.833
G1 X55.093 Y59.181
G1 X54.522 Y59.495
G1 X53.931 Y59.772
G1 X53.322 Y60.013
G1 X52.698 Y60.215
G1 X52.062 Y60.378
G1 X51.415 Y60.500
G1 X50.761 Y60.582
G1 X50.102 Y60.623
G1 X49.440 Y60.622
G1 X48.778 Y60.580
G1 X48.119 Y60.496
G1 X47.465 Y60.370
G1 X46.820 Y60.203
G1 X46.184 Y59.996
G1 X45.562 Y59.749
G1 X44.956 Y59.462
G1 X44.367 Y59.138
G1 X43.800 Y58.776
G1 X43.255 Y58.378
G1 X42.735 Y57.947
G1 X42.242 Y57.482
G1 X41.779 Y56.987
G1 X41.347 Y56.463
G1 X40.948 Y55.911
G1 X40.583 Y55.335
G1 X40.255 Y54.735
G1 X39.965 Y54.115
G1 X39.714 Y53.477
G1 X39.503 Y52.823
G1 X39.334 Y52.156
G1 X39.206 Y51.478
G1 X39.121 Y50.793
G1 X39.079 Y50.102
G1 X39.081 Y49.408
G1 X39.127 Y48.715
G1 X39.216 Y48.025
G1 X39.348 Y47.341
G1 X39.524 Y46.665
G1 X39.742 Y46.000
G1 X40.001 Y45.349
G1 X40.302 Y44.714
G1 X40.643 Y44.099
G1 X41.022 Y43.505
G1 X41.439 Y42.935
G1 X41.891 Y42.392
G1 X42.378 Y41.877
G1 X42.897 Y41.393
G1 X43.446 Y40.941
G1 X44.024 Y40.525
G1 X44.628 Y40.144
G1 X45.255 Y39.802
G1 X45.904 Y39.499
G1 X46.572 Y39.238
G1 X47.256 Y39.018
G1 X47.954 Y38.842
G1 X48.663 Y38.709
G1 X49.379 Y38.621
G1 X50.102 Y38.578
G1 X50.827 Y38.581
G1 X51.551 Y38.629
G1 X52.272 Y38.723
G1 X52.987 Y38.863
G1 X53.694 Y39.047
G1 X54.388 Y39.276
G1 X55.068 Y39.548
G1 X55.730 Y39.863
G1 X56.373 Y40.220
G1 X56.993 Y40.617
G1 X57.588 Y41.053
G1 X58.155 Y41.526
G1 X58.692 Y42.035
G1 X59.197 Y42.578
G1 X59.668 Y43.152
G1 X60.102 Y43.755
G1 X60.498 Y44.386
G1 X60.855 Y45.042
G1 X61.170 Y45.720
G1 X61.442 Y46.417
G1 X61.671 Y47.131
G1 X61.854 Y47.860
G1 X61.992 Y48.600
G1 X62.082 Y49.348
G1 X62.126 Y50.102
G1 X62.122 Y50.858
G1 X62.071 Y51.614
G1 X61.972 Y52.366
G1 X61.826 Y53.112
G1 X61.633 Y53.848
G1 X61.394 Y54.573
G1 X61.109 Y55.281
G1 X60.779 Y55.972
G1 X60.407 Y56.641
G1 X59.992 Y57.287
G1 X59.537 Y57.907
G1 X59.043 Y58.498
G1 X58.511 Y59.057
G1 X57.945 Y59.583
G1 X57.346 Y60.073
G1 X56.717 Y60.525
G1 X56.059 Y60.937
G1 X55.375 Y61.308
G1 X54.668 Y61.636
G1 X53.941 Y61.919
G1 X53.197 Y62.156
G1 X52.438 Y62.346
G1 X51.667 Y62.489
G1 X50.887 Y62.582
G1 X50.102 Y62.627
G1 X49.314 Y62.622
G1 X48.527 Y62.568
G1 X47.743 Y62.464
G1 X46.967 Y62.311
G1 X46.200 Y62.109
G1 X45.447 Y61.859
G1 X44.709 Y61.562
G1 X43.990 Y61.218
G1 X43.294 Y60.830
G1 X42.622 Y60.397
G1 X41.977 Y59.923
G1 X41.363 Y59.408
G1 X40.781 Y58.854
G1 X40.235 Y58.265
G1 X39.725 Y57.641
G1 X39.255 Y56.985
G1 X38.827 Y56.300
G1 X38.442 Y55.588
G1 X38.102 Y54.853
G1 X37.808 Y54.096
G1 X37.562 Y53.321
G1 X37.365 Y52.531
G1 X37.218 Y51.729
G1 X37.121 Y50.918
G1 X37.075 Y50.102
G1 X37.081 Y49.283
G1 X37.138 Y48.464
G1 X37.247 Y47.650
G1 X37.407 Y46.842
G1 X37.618 Y46.045
G1 X37.878 Y45.262
G1 X38.188 Y44.496
G1 X38.546 Y43.749
G1 X38.951 Y43.025
G1 X39.401 Y42.327
G1 X39.895 Y41.658
G1 X40.431 Y41.020
G1 X41.006 Y40.416
G1 X41.620 Y39.849
G1 X42.268 Y39.320
G1 X42.950 Y38.832
G1 X43.662 Y38.388
G1 X44.402 Y37.989
G1 X45.166 Y37.636
G1 X45.953 Y37.332
G1 X46.758 Y37.077
G1 X47.578 Y36.873
G1 X48.411 Y36.721
G1 X49.254 Y36.621
G1 X50.102 Y36.574
G1 X50.952 Y36.581
G1 X51.802 Y36.641
G1 X52.648 Y36.755
G1 X53.486 Y36.922
G1 X54.313 Y37.141
G1 X55.126 Y37.412
G1 X55.921 Y37.735
G1 X56.696 Y38.107
G1 X57.447 Y38.528
G1 X58.171 Y38.996
G1 X58.865 Y39.509
G1 X59.527 Y40.065
G1 X60.153 Y40.663
G1 X60.741 Y41.300
G1 X61.289 Y41.974
G1 X61.794 Y42.682
G1 X62.255 Y43.421
G1 X62.668 Y44.188
G1 X63.033 Y44.982
G1 X63.348 Y45.798
G1 X63.612 Y46.633
G1 X63.823 Y47.484
G1 X63.980 Y48.349
G1 X64.083 Y49.222
G1 X64.130 Y50.102
G1 X64.123 Y50.984
G1 X64.059 Y51.865
G1 X63.941 Y52.742
G1 X63.767 Y53.610
G1 X63.539 Y54.468
G1 X63.257 Y55.310
G1 X62.922 Y56.135
G1 X62.536 Y56.937
G1 X62.099 Y57.715
G1 X61.613 Y58.465
G1 X61.081 Y59.184
G1 X60.503 Y59.870
G1 X59.883 Y60.518
G1 X59.223 Y61.127
G1 X58.524 Y61.694
G1 X57.790 Y62.217
G1 X57.024 Y62.694
G1 X56.228 Y63.122
G1 X55.406 Y63.499
G1 X54.561 Y63.825
G1 X53.695 Y64.097
G1 X52.813 Y64.315
G1 X51.918 Y64.477
G1 X51.013 Y64.583
G1 X50.102 Y64.631
G1 X49.188 Y64.623
G1 X48.276 Y64.556
G1 X47.368 Y64.433
G1 X46.468 Y64.252
G1 X45.581 Y64.015
G1 X44.709 Y63.723
G1 X43.856 Y63.375
G1 X43.025 Y62.975
G1 X42.220 Y62.522
G1 X41.444 Y62.019
G1 X40.700 Y61.467
G1 X39.991 Y60.869
G1 X39.320 Y60.226
G1 X38.690 Y59.542
G1 X38.104 Y58.819
G1 X37.563 Y58.059
G1 X37.071 Y57.266
G1 X36.629 Y56.442
G1 X36.239 Y55.591
G1 X35.902 Y54.715
G1 X35.621 Y53.820
G1 X35.397 Y52.907
G1 X35.230 Y51.981
G1 X35.121 Y51.044
G1 X35.071 Y50.102
G1 X35.081 Y49.157
G1 X35.150 Y48.213
G1 X35.278 Y47.274
G1 X35.466 Y46.344
G1 X35.712 Y45.426
G1 X36.015 Y44.524
G1 X36.375 Y43.642
G1 X36.790 Y42.784
G1 X37.259 Y41.951
G1 X37.780 Y41.149
G1 X38.351 Y40.380
G1 X38.970 Y39.648
G1 X39.634 Y38.955
G1 X40.342 Y38.304
G1 X41.090 Y37.699
G1 X41.876 Y37.140
G1 X42.697 Y36.632
G1 X43.548 Y36.175
G1 X44.428 Y35.773
G1 X45.333 Y35.426
G1 X46.259 Y35.136
G1 X47.203 Y34.904
G1 X48.160 Y34.732
G1 X49.128 Y34.621
G1 X50.102 Y34.570
G1 X51.078 Y34.581
G1 X52.053 Y34.653
G1 X53.023 Y34.786
G1 X53.984 Y34.981
G1 X54.932 Y35.235
G1 X55.864 Y35.549
G1 X56.775 Y35.921
G1 X57.661 Y36.351
G1 X58.521 Y36.836
G1 X59.349 Y37.374
G1 X60.142 Y37.965
G1 X60.898 Y38.604
G1 X61.614 Y39.291
G1 X62.285 Y40.023
G1 X62.910 Y40.796
G1 X63.486 Y41.608
G1 X64.011 Y42.455
G1 X64.482 Y43.335
G1 X64.897 Y44.244
G1 X65.254 Y45.178
G1 X65.553 Y46.135
G1 X65.791 Y47.109
G1 X65.968 Y48.097
G1 X66.083 Y49.096
G1 X66.134 Y50.102
G1 X66.123 Y51.110
G1 X66.048 Y52.116
G1 X65.909 Y53.117
G1 X65.708 Y54.109
G1 X65.445 Y55.087
G1 X65.120 Y56.048
G1 X64.735 Y56.988
G1 X64.292 Y57.903
G1 X63.791 Y58.789
G1 X63.235 Y59.643
G1 X62.625 Y60.462
G1 X61.964 Y61.241
G1 X61.255 Y61.979
G1 X60.500 Y62.671
G1 X59.702 Y63.316
G1 X58.864 Y63.909
G1 X57.990 Y64.450
G1 X57.082 Y64.935
G1 X56.144 Y65.363
G1 X55.180 Y65.731
G1 X54.194 Y66.038
G1 X53.189 Y66.283
G1 X52.169 Y66.465
G1 X51.139 Y66.583
G1 X50.102 Y66.635
G1 X49.062 Y66.623
G1 X48.025 Y66.545
G1 X46.992 Y66.402
G1 X45.970 Y66.194
G1 X44.962 Y65.921
G1 X43.971 Y65.586
G1 X43.002 Y65.189
G1 X42.059 Y64.731
G1 X41.146 Y64.214
G1 X40.266 Y63.640
G1 X39.422 Y63.011
G1 X38.619 Y62.330
G1 X37.859 Y61.598
G1 X37.146 Y60.820
G1 X36.483 Y59.997
G1 X35.871 Y59.133
G1 X35.315 Y58.231
G1 X34.815 Y57.295
G1 X34.375 Y56.328
G1 X33.996 Y55.335
G1 X33.680 Y54.318
G1 X33.428 Y53.282
G1 X33.241 Y52.232
G1 X33.121 Y51.170
G1 X33.067 Y50.102
G1 X33.081 Y49.031
G1 X33.162 Y47.962
G1 X33.310 Y46.899
G1 X33.525 Y45.845
G1 X33.806 Y44.807
G1 X34.152 Y43.787
G1 X34.561 Y42.789
G1 X35.034 Y41.818
G1 X35.567 Y40.878
G1 X36.158 Y39.971
G1 X36.807 Y39.103
G1 X37.509 Y38.276
G1 X38.262 Y37.494
G1 X39.065 Y36.760
G1 X39.912 Y36.077
G1 X40.802 Y35.448
G1 X41.731 Y34.876
G1 X42.695 Y34.362
G1 X43.691 Y33.909
G1 X44.714 Y33.520
G1 X45.761 Y33.195
G1 X46.827 Y32.936
G1 X47.909 Y32.744
G1 X49.002 Y32.621
G1 X50.102 Y32.566
G1 X51.204 Y32.581
G1 X52.305 Y32.665
G1 X53.399 Y32.818
G1 X54.483 Y33.039
G1 X55.552 Y33.329
G1 X56.601 Y33.686
G1 X57.628 Y34.108
G1 X58.627 Y34.595
G1 X59.594 Y35.144
G1 X60.527 Y35.753
G1 X61.420 Y36.420
G1 X62.270 Y37.144
G1 X63.075 Y37.919
G1 X63.829 Y38.745
G1 X64.532 Y39.618
G1 X65.178 Y40.534
G1 X65.767 Y41.490
G1 X66.295 Y42.482
G1 X66.760 Y43.506
G1 X67.160 Y44.559
G1 X67.494 Y45.636
G1 X67.760 Y46.733
G1 X67.956 Y47.846
G1 X68.083 Y48.970
G1 X68.138 Y50.102
G1 X68.123 Y51.236
G1 X68.036 Y52.367
G1 X67.878 Y53.493
G1 X67.649 Y54.607
G1 X67.351 Y55.706
G1 X66.984 Y56.786
G1 X66.549 Y57.841
G1 X66.048 Y58.868
G1 X65.483 Y59.863
G1 X64.856 Y60.821
G1 X64.169 Y61.739
G1 X63.425 Y62.613
G1 X62.627 Y63.440
G1 X61.778 Y64.215
G1 X60.880 Y64.937
G1 X59.938 Y65.601
G1 X58.955 Y66.206
G1 X57.935 Y66.748
G1 X56.882 Y67.226
G1 X55.799 Y67.637
G1 X54.692 Y67.979
G1 X53.564 Y68.252
G1 X52.420 Y68.453
G1 X51.264 Y68.583
G1 X50.102 Y68.639
G1 X48.937 Y68.623
G1 X47.773 Y68.533
G1 X46.617 Y68.370
G1 X45.472 Y68.135
G1 X44.342 Y67.827
G1 X43.233 Y67.449
G1 X42.149 Y67.002
G1 X41.094 Y66.487
G1 X40.072 Y65.906
G1 X39.088 Y65.261
G1 X38.145 Y64.555
G1 X37.247 Y63.790
G1 X36.398 Y62.970
G1 X35.602 Y62.097
G1 X34.861 Y61.175
G1 X34.179 Y60.207
G1 X33.559 Y59.196
G1 X33.002 Y58.148
G1 X32.512 Y57.066
G1 X32.090 Y55.954
G1 X31.739 Y54.817
G1 X31.459 Y53.658
G1 X31.253 Y52.483
G1 X31.121 Y51.296
G1 X31.063 Y50.102
G1 X31.081 Y48.905
G1 X31.173 Y47.711
G1 X31.341 Y46.523
G1 X31.584 Y45.347
G1 X31.900 Y44.188
G1 X32.288 Y43.049
G1 X32.748 Y41.936
G1 X33.278 Y40.853
G1 X33.875 Y39.804
G1 X34.537 Y38.793
G1 X35.262 Y37.826
G1 X36.048 Y36.904
G1 X36.891 Y36.033
G1 X37.787 Y35.216
G1 X38.734 Y34.456
G1 X39.729 Y33.756
G1 X40.766 Y33.120
G1 X41.842 Y32.549
G1 X42.953 Y32.046
G1 X44.095 Y31.614
G1 X45.262 Y31.254
G1 X46.452 Y30.967
G1 X47.658 Y30.756
G1 X48.876 Y30.621
G1 X50.102 Y30.562
G1 X51.330 Y30.581
G1 X52.556 Y30.676
G1 X53.774 Y30.849
G1 X54.981 Y31.098
G1 X56.171 Y31.423
G1 X57.339 Y31.822
G1 X58.481 Y32.295
G1 X59.592 Y32.839
G1 X60.668 Y33.452
G1 X61.705 Y34.132
G1 X62.697 Y34.876
G1 X63.642 Y35.683
G1 X64.536 Y36.548
G1 X65.374 Y37.468
G1 X66.153 Y38.440
G1 X66.870 Y39.460
G1 X67.523 Y40.524
G1 X68.108 Y41.629
G1 X68.623 Y42.769
G1 X69.066 Y43.940
G1 X69.435 Y45.138
G1 X69.728 Y46.358
G1 X69.945 Y47.595
G1 X70.083 Y48.845
G1 X70.142 Y50.102
G1 X70.123 Y51.361
G1 X70.024 Y52.619
G1 X69.847 Y53.868
G1 X69.591 Y55.106
G1 X69.257 Y56.326
G1 X68.847 Y57.524
G1 X68.362 Y58.694
G1 X67.804 Y59.834
G1 X67.175 Y60.937
G1 X66.477 Y61.999
G1 X65.713 Y63.017
G1 X64.886 Y63.985
G1 X63.999 Y64.901
G1 X63.055 Y65.760
G1 X62.058 Y66.558
G1 X61.012 Y67.293
G1 X59.921 Y67.962
G1 X58.788 Y68.562
G1 X57.619 Y69.089
G1 X56.419 Y69.543
G1 X55.190 Y69.920
G1 X53.940 Y70.221
G1 X52.671 Y70.442
G1 X51.390 Y70.583
G1 X50.102 Y70.643
G1 X48.811 Y70.623
G1 X47.522 Y70.521
G1 X46.241 Y70.339
G1 X44.973 Y70.076
G1 X43.723 Y69.733
G1 X42.496 Y69.313
G1 X41.296 Y68.815
G1 X40.128 Y68.243
G1 X38.998 Y67.598
G1 X37.910 Y66.883
G1 X36.867 Y66.099
G1 X35.875 Y65.251
G1 X34.938 Y64.342
G1 X34.058 Y63.374
G1 X33.240 Y62.353
G1 X32.487 Y61.280
G1 X31.802 Y60.162
G1 X31.189 Y59.002
G1 X30.649 Y57.804
G1 X30.184 Y56.573
G1 X29.798 Y55.315
G1 X29.491 Y54.034
G1 X29.265 Y52.734
G1 X29.121 Y51.422
G1 X29.059 Y50.102
G1 X29.081 Y48.779
G1 X29.185 Y47.459
G1 X29.373 Y46.147
G1 X29.642 Y44.849
G1 X29.994 Y43.568
G1 X30.425 Y42.311
G1 X30.935 Y41.082
G1 X31.521 Y39.887
G1 X32.183 Y38.730
G1 X32.916 Y37.615
G1 X33.718 Y36.548
G1 X34.587 Y35.532
G1 X35.519 Y34.572
G1 X36.510 Y33.672
G1 X37.556 Y32.835
G1 X38.655 Y32.064
G1 X39.800 Y31.363
G1 X40.989 Y30.735
G1 X42.215 Y30.183
G1 X43.475 Y29.708
G1 X44.764 Y29.312
G1 X46.076 Y28.999
G1 X47.407 Y28.768
G1 X48.750 Y28.621
G1 X50.102 Y28.558
G1 X51.456 Y28.581
G1 X52.807 Y28.688
G1 X54.150 Y28.881
G1 X55.479 Y29.157
G1 X56.790 Y29.517
G1 X58.077 Y29.959
G1 X59.334 Y30.481
G1 X60.558 Y31.082
G1 X61.742 Y31.759
G1 X62.883 Y32.510
G1 X63.975 Y33.332
G1 X65.014 Y34.222
G1 X65.996 Y35.176
G1 X66.918 Y36.190
G1 X67.774 Y37.262
G1 X68.562 Y38.386
G1 X69.279 Y39.559
G1 X69.922 Y40.775
G1 X70.487 Y42.031
G1 X70.972 Y43.321
G1 X71.376 Y44.639
G1 X71.697 Y45.982
G1 X71.933 Y47.344
G1 X72.083 Y48.719
G1 X72.147 Y50.102
G1 X72.123 Y51.487
G1 X72.012 Y52.870
G1 X71.815 Y54.244
G1 X71.532 Y55.604
G1 X71.163 Y56.945
G1 X70.710 Y58.261
G1 X70.175 Y59.548
G1 X69.560 Y60.799
G1 X68.867 Y62.011
G1 X68.098 Y63.177
G1 X67.257 Y64.294
G1 X66.347 Y65.357
G1 X65.371 Y66.362
G1 X64.332 Y67.304
G1 X63.236 Y68.180
G1 X62.086 Y68.986
G1 X60.886 Y69.718
G1 X59.642 Y70.375
G1 X58.357 Y70.953
G1 X57.038 Y71.449
G1 X55.689 Y71.862
G1 X54.315 Y72.189
G1 X52.922 Y72.430
G1 X51.516 Y72.583
G1 X50.102 Y72.648
G1 X48.685 Y72.623
G1 X47.271 Y72.510
G1 X45.866 Y72.307
G1 X44.475 Y72.017
G1 X43.104 Y71.639
G1 X41.758 Y71.176
G1 X40.443 Y70.629
G1 X39.163 Y69.999
G1 X37.924 Y69.290
G1 X36.732 Y68.504
G1 X35.590 Y67.643
G1 X34.503 Y66.712
G1 X33.477 Y65.714
G1 X32.514 Y64.652
G1 X31.619 Y63.531
G1 X30.795 Y62.354
G1 X30.046 Y61.127
G1 X29.375 Y59.855
G1 X28.785 Y58.542
G1 X28.278 Y57.193
G1 X27.857 Y55.813
G1 X27.522 Y54.409
G1 X27.276 Y52.985
G1 X27.120 Y51.548
G1 X27.055 Y50.102
G1 X27.080 Y48.653
G1 X27.197 Y47.208
G1 X27.404 Y45.772
G1 X27.701 Y44.350
G1 X28.088 Y42.949
G1 X28.562 Y41.573
G1 X29.121 Y40.229
G1 X29.765 Y38.922
G1 X30.490 Y37.656
G1 X31.294 Y36.437
G1 X32.174 Y35.271
G1 X33.126 Y34.161
G1 X34.147 Y33.111
G1 X35.232 Y32.128
G1 X36.378 Y31.213
G1 X37.581 Y30.372
G1 X38.835 Y29.607
G1 X40.135 Y28.922
G1 X41.477 Y28.319
G1 X42.856 Y27.802
G1 X44.266 Y27.371
G1 X45.701 Y27.030
G1 X47.155 Y26.779
G1 X48.624 Y26.620
G1 X50.102 Y26.554
G1 X51.582 Y26.580
G1 X53.058 Y26.700
G1 X54.525 Y26.912
G1 X55.978 Y27.216
G1 X57.409 Y27.611
G1 X58.815 Y28.096
G1 X60.188 Y28.668
G1 X61.523 Y29.326
G1 X62.816 Y30.067
G1 X64.061 Y30.889
G1 X65.252 Y31.788
G1 X66.386 Y32.761
G1 X67.457 Y33.804
G1 X68.462 Y34.913
G1 X69.396 Y36.084
G1 X70.255 Y37.312
G1 X71.035 Y38.593
G1 X71.735 Y39.922
G1 X72.350 Y41.293
G1 X72.878 Y42.701
G1 X73.317 Y44.141
G1 X73.666 Y45.607
G1 X73.921 Y47.093
G1 X74.083 Y48.593
G1 X74.151 Y50.102
G1 X74.123 Y51.613
G1 X74.001 Y53.121
G1 X73.784 Y54.619
G1 X73.473 Y56.102
G1 X73.069 Y57.564
G1 X72.574 Y58.999
G1 X71.989 Y60.401
G1 X71.316 Y61.765
G1 X70.559 Y63.084
G1 X69.720 Y64.355
G1 X68.802 Y65.572
G1 X67.808 Y66.729
G1 X66.743 Y67.823
G1 X65.610 Y68.848
G1 X64.414 Y69.801
G1 X63.160 Y70.678
G1 X61.852 Y71.474
G1 X60.495 Y72.188
G1 X59.095 Y72.816
G1 X57.657 Y73.355
G1 X56.187 Y73.803
G1 X54.691 Y74.158
G1 X53.174 Y74.418
G1 X51.642 Y74.583
G1 X50.102 Y74.652
G1 X48.559 Y74.623
G1 X47.020 Y74.498
G1 X45.490 Y74.276
G1 X43.977 Y73.958
G1 X42.484 Y73.545
G1 X41.020 Y73.039
G1 X39.589 Y72.442
G1 X38.198 Y71.755
G1 X36.851 Y70.982
G1 X35.554 Y70.125
G1 X34.313 Y69.188
G1 X33.132 Y68.173
G1 X32.016 Y67.086
G1 X30.970 Y65.929
G1 X29.997 Y64.709
G1 X29.103 Y63.428
G1 X28.290 Y62.093
G1 X27.562 Y60.708
G1 X26.922 Y59.279
G1 X26.372 Y57.812
G1 X25.916 Y56.312
G1 X25.554 Y54.785
G1 X25.288 Y53.236
G1 X25.120 Y51.673
G1 X25.051 Y50.102
G1 X25.080 Y48.528
G1 X25.209 Y46.957
G1 X25.436 Y45.396
G1 X25.760 Y43.852
G1 X26.182 Y42.330
G1 X26.698 Y40.836
G1 X27.308 Y39.376
G1 X28.009 Y37.956
G1 X28.798 Y36.582
G1 X29.673 Y35.259
G1 X30.630 Y33.993
G1 X31.665 Y32.789
G1 X32.775 Y31.651
G1 X33.955 Y30.584
G1 X35.201 Y29.592
G1 X36.507 Y28.680
G1 X37.869 Y27.851
G1 X39.282 Y27.109
G1 X40.740 Y26.456
G1 X42.237 Y25.896
G1 X43.767 Y25.430
G1 X45.325 Y25.062
G1 X46.904 Y24.791
G1 X48.499 Y24.620
G1 X50.102 Y24.550
G1 X51.707 Y24.580
G1 X53.309 Y24.712
G1 X54.901 Y24.943
G1 X56.476 Y25.275
G1 X58.029 Y25.705
G1 X59.552 Y26.232
G1 X61.041 Y26.855
G1 X62.489 Y27.570
G1 X63.890 Y28.375
G1 X65.239 Y29.268
G1 X66.530 Y30.244
G1 X67.758 Y31.300
G1 X68.918 Y32.432
G1 X70.006 Y33.636
G1 X71.017 Y34.906
G1 X71.947 Y36.239
G1 X72.792 Y37.628
G1 X73.548 Y39.069
G1 X74.213 Y40.555
G1 X74.784 Y42.082
G1 X75.259 Y43.643
G1 X75.634 Y45.231
G1 X75.909 Y46.841
G1 X76.083 Y48.467
G1 X76.155 Y50.102
G1 X76.123 Y51.739
G1 X75.989 Y53.372
G1 X75.752 Y54.995
G1 X75.414 Y56.601
G1 X74.975 Y58.184
G1 X74.437 Y59.737
G1 X73.802 Y61.254
G1 X73.073 Y62.730
G1 X72.251 Y64.158
G1 X71.341 Y65.533
G1 X70.346 Y66.849
G1 X69.269 Y68.101
G1 X68.115 Y69.283
G1 X66.887 Y70.392
G1 X65.592 Y71.422
G1 X64.233 Y72.370
G1 X62.817 Y73.231
G1 X61.348 Y74.002
G1 X59.833 Y74.679
G1 X58.276 Y75.261
G1 X56.686 Y75.744
G1 X55.066 Y76.126
G1 X53.425 Y76.407
G1 X51.768 Y76.583
G1 X50.102 Y76.656
G1 X48.433 Y76.623
G1 X46.769 Y76.486
G1 X45.115 Y76.244
G1 X43.478 Y75.899
G1 X41.865 Y75.451
G1 X40.282 Y74.903
G1 X38.736 Y74.255
G1 X37.232 Y73.512
G1 X35.777 Y72.674
G1 X34.376 Y71.746
G1 X33.035 Y70.732
G1 X31.760 Y69.634
G1 X30.555 Y68.458
G1 X29.425 Y67.207
G1 X28.376 Y65.886
G1 X27.411 Y64.502
G1 X26.534 Y63.058
G1 X25.749 Y61.561
G1 X25.059 Y60.017
G1 X24.466 Y58.431
G1 X23.974 Y56.810
G1 X23.585 Y55.160
G1 X23.300 Y53.488
G1 X23.120 Y51.799
G1 X23.047 Y50.102
G1 X23.080 Y48.402
G1 X23.220 Y46.706
G1 X23.467 Y45.021
G1 X23.819 Y43.354
G1 X24.276 Y41.710
G1 X24.835 Y40.098
G1 X25.495 Y38.523
G1 X26.253 Y36.991
G1 X27.106 Y35.508
G1 X28.052 Y34.081
G1 X29.086 Y32.716
G1 X30.204 Y31.417
G1 X31.403 Y30.190
G1 X32.677 Y29.039
G1 X34.023 Y27.971
G1 X35.433 Y26.988
G1 X36.904 Y26.095
G1 X38.429 Y25.295
G1 X40.002 Y24.593
G1 X41.617 Y23.990
G1 X43.269 Y23.489
G1 X44.950 Y23.093
G1 X46.653 Y22.803
G1 X48.373 Y22.620
G1 X50.102 Y22.546
G1 X51.833 Y22.580
G1 X53.560 Y22.723
G1 X55.277 Y22.975
G1 X56.975 Y23.334
G1 X58.648 Y23.799
G1 X60.290 Y24.369
G1 X61.894 Y25.041
G1 X63.454 Y25.814
G1 X64.964 Y26.683
G1 X66.417 Y27.646
G1 X67.807 Y28.700
G1 X69.130 Y29.839
G1 X70.379 Y31.060
G1 X71.550 Y32.358
G1 X72.638 Y33.728
G1 X73.639 Y35.165
G1 X74.548 Y36.662
G1 X75.362 Y38.215
G1 X76.077 Y39.818
G1 X76.690 Y41.463
G1 X77.200 Y43.144
G1 X77.603 Y44.856
G1 X77.898 Y46.590
G1 X78.083 Y48.341
G1 X78.159 Y50.102
G1 X78.123 Y51.865
G1 X77.977 Y53.623
G1 X77.721 Y55.370
G1 X77.355 Y57.099
G1 X76.881 Y58.803
G1 X76.300 Y60.474
G1 X75.615 Y62.108
G1 X74.829 Y63.696
G1 X73.943 Y65.232
G1 X72.962 Y66.711
G1 X71.890 Y68.126
G1 X70.730 Y69.473
G1 X69.486 Y70.744
G1 X68.165 Y71.936
G1 X66.770 Y73.044
G1 X65.307 Y74.062
G1 X63.782 Y74.987
G1 X62.201 Y75.815
G1 X60.570 Y76.543
G1 X58.896 Y77.167
G1 X57.184 Y77.685
G1 X55.442 Y78.095
G1 X53.676 Y78.395
G1 X51.894 Y78.583
G1 X50.102 Y78.660
G1 X48.307 Y78.623
G1 X46.517 Y78.474
G1 X44.739 Y78.213
G1 X42.980 Y77.840
G1 X41.246 Y77.357
G1 X39.545 Y76.766
G1 X37.883 Y76.069
G1 X36.267 Y75.268
G1 X34.703 Y74.366
G1 X33.198 Y73.368
G1 X31.758 Y72.276
G1 X30.388 Y71.095
G1 X29.094 Y69.829
G1 X27.881 Y68.484
G1 X26.755 Y67.064
G1 X25.719 Y65.576
G1 X24.778 Y64.024
G1 X23.935 Y62.415
G1 X23.195 Y60.755
G1 X22.560 Y59.051
G1 X22.033 Y57.309
G1 X21.617 Y55.536
G1 X21.312 Y53.739
G1 X21.120 Y51.925
G1 X21.043 Y50.102
G1 X21.080 Y48.276
G1 X21.232 Y46.455
G1 X21.498 Y44.645
G1 X21.878 Y42.855
G1 X22.370 Y41.091
G1 X22.972 Y39.360
G1 X23.681 Y37.669
G1 X24.497 Y36.025
G1 X25.414 Y34.435
G1 X26.430 Y32.904
G1 X27.542 Y31.438
G1 X28.743 Y30.045
G1 X30.031 Y28.729
G1 X31.400 Y27.495
G1 X32.845 Y26.349
G1 X34.359 Y25.296
G1 X35.938 Y24.339
G1 X37.575 Y23.482
G1 X39.264 Y22.729
G1 X40.998 Y22.084
G1 X42.770 Y21.548
G1 X44.574 Y21.124
G1 X46.402 Y20.815
G1 X48.247 Y20.620
G1 X50.102 Y20.542
G1 X51.959 Y20.580
G1 X53.812 Y20.735
G1 X55.652 Y21.006
G1 X57.473 Y21.393
G1 X59.267 Y21.893
G1 X61.028 Y22.506
G1 X62.748 Y23.228
G1 X64.420 Y24.058
G1 X66.037 Y24.991
G1 X67.595 Y26.025
G1 X69.085 Y27.156
G1 X70.502 Y28.378
G1 X71.840 Y29.688
G1 X73.094 Y31.081
G1 X74.260 Y32.550
G1 X75.331 Y34.091
G1 X76.304 Y35.697
G1 X77.175 Y37.362
G1 X77.940 Y39.080
G1 X78.596 Y40.843
G1 X79.141 Y42.646
G1 X79.571 Y44.480
G1 X79.886 Y46.339
G1 X80.084 Y48.215
G1 X80.163 Y50.102
G1 X80.124 Y51.991
G1 X79.966 Y53.874
G1 X79.689 Y55.746
G1 X79.296 Y57.598
G1 X78.787 Y59.422
G1 X78.164 Y61.212
G1 X77.429 Y62.961
G1 X76.585 Y64.661
G1 X75.635 Y66.306
G1 X74.584 Y67.889
G1 X73.434 Y69.404
G1 X72.191 Y70.845
G1 X70.858 Y72.205
G1 X69.442 Y73.480
G1 X67.948 Y74.665
G1 X66.381 Y75.754
G1 X64.748 Y76.743
G1 X63.055 Y77.628
G1 X61.308 Y78.406
G1 X59.515 Y79.073
G1 X57.682 Y79.626
G1 X55.817 Y80.063
G1 X53.927 Y80.383
G1 X52.020 Y80.584
G1 X50.102 Y80.664
G1 X48.181 Y80.624
G1 X46.266 Y80.463
G1 X44.364 Y80.182
G1 X42.481 Y79.781
G1 X40.627 Y79.263
G1 X38.807 Y78.629
G1 X37.029 Y77.882
G1 X35.301 Y77.024
G1 X33.629 Y76.058
G1 X32.020 Y74.989
G1 X30.480 Y73.820
G1 X29.016 Y72.556
G1 X27.633 Y71.201
G1 X26.337 Y69.762
G1 X25.133 Y68.242
G1 X24.027 Y66.650
G1 X23.021 Y64.989
G1 X22.122 Y63.268
G1 X21.332 Y61.493
G1 X20.654 Y59.670
G1 X20.092 Y57.807
G1 X19.648 Y55.911
G1 X19.323 Y53.990
G1 X19.120 Y52.051
G1 X19.039 Y50.102
G1 X19.080 Y48.150
G1 X19.244 Y46.204
G1 X19.530 Y44.270
G1 X19.937 Y42.357
G1 X20.464 Y40.472
G1 X21.108 Y38.622
G1 X21.868 Y36.816
G1 X22.740 Y35.060
G1 X23.722 Y33.361
G1 X24.809 Y31.726
G1 X25.997 Y30.161
G1 X27.282 Y28.673
G1 X28.659 Y27.268
G1 X30.123 Y25.951
G1 X31.667 Y24.728
G1 X33.286 Y23.604
G1 X34.973 Y22.582
G1 X36.722 Y21.669
G1 X38.527 Y20.866
G1 X40.379 Y20.178
G1 X42.272 Y19.607
G1 X44.199 Y19.156
G1 X46.151 Y18.826
G1 X48.121 Y18.620
G1 X50.102 Y18.538
G1 X52.085 Y18.580
G1 X54.063 Y18.747
G1 X56.028 Y19.038
G1 X57.971 Y19.452
G1 X59.887 Y19.987
G1 X61.766 Y20.642
G1 X63.601 Y21.415
G1 X65.385 Y22.301
G1 X67.111 Y23.299
G1 X68.772 Y24.404
G1 X70.362 Y25.611
G1 X71.874 Y26.917
G1 X73.301 Y28.316
G1 X74.639 Y29.803
G1 X75.881 Y31.372
G1 X77.023 Y33.017
G1 X78.060 Y34.732
G1 X78.988 Y36.509
G1 X79.803 Y38.342
G1 X80.502 Y40.224
G1 X81.082 Y42.147
G1 X81.540 Y44.105
G1 X81.874 Y46.088
G1 X82.084 Y48.090
G1 X82.167 Y50.102
G1 X82.124 Y52.116
G1 X81.954 Y54.126
G1 X81.658 Y56.121
G1 X81.237 Y58.096
G1 X80.693 Y60.041
G1 X80.027 Y61.950
G1 X79.242 Y63.814
G1 X78.341 Y65.626
G1 X77.328 Y67.380
G1 X76.205 Y69.067
G1 X74.978 Y70.681
G1 X73.652 Y72.216
G1 X72.230 Y73.666
G1 X70.720 Y75.025
G1 X69.126 Y76.286
G1 X67.455 Y77.446
G1 X65.713 Y78.499
G1 X63.908 Y79.442
G1 X62.046 Y80.269
G1 X60.134 Y80.979
G1 X58.181 Y81.567
G1 X56.193 Y82.032
G1 X54.178 Y82.371
G1 X52.145 Y82.584
G1 X50.102 Y82.668
G1 X48.056 Y82.624
G1 X46.015 Y82.451
G1 X43.988 Y82.150
G1 X41.983 Y81.722
G1 X40.007 Y81.169
G1 X38.069 Y80.493
G1 X36.176 Y79.695
G1 X34.336 Y78.780
G1 X32.555 Y77.751
G1 X30.842 Y76.610
G1 X29.203 Y75.364
G1 X27.644 Y74.017
G1 X26.172 Y72.573
G1 X24.793 Y71.039
G1 X23.512 Y69.420
G1 X22.335 Y67.723
G1 X21.265 Y65.955
G1 X20.309 Y64.121
G1 X19.468 Y62.230
G1 X18.748 Y60.289
G1 X18.151 Y58.305
G1 X17.679 Y56.287
G1 X17.335 Y54.241
G1 X17.120 Y52.177
G1 X17.035 Y50.102
G1 X17.080 Y48.024
G1 X17.256 Y45.952
G1 X17.561 Y43.894
G1 X17.996 Y41.858
G1 X18.558 Y39.852
G1 X19.245 Y37.885
G1 X20.055 Y35.963
G1 X20.984 Y34.094
G1 X22.030 Y32.287
G1 X23.188 Y30.548
G1 X24.453 Y28.883
G1 X25.822 Y27.301
G1 X27.287 Y25.807
G1 X28.845 Y24.407
G1 X30.489 Y23.107
G1 X32.212 Y21.911
G1 X34.007 Y20.826
G1 X35.869 Y19.855
G1 X37.789 Y19.003
G1 X39.760 Y18.272
G1 X41.774 Y17.666
G1 X43.823 Y17.187
G1 X45.900 Y16.838
G1 X47.995 Y16.620
G1 X50.102 Y16.534
G1 X52.211 Y16.580
G1 X54.314 Y16.759
G1 X56.403 Y17.069
G1 X58.470 Y17.511
G1 X60.506 Y18.081
G1 X62.503 Y18.779
G1 X64.454 Y19.601
G1 X66.351 Y20.545
G1 X68.185 Y21.607
G1 X69.950 Y22.782
G1 X71.639 Y24.067
G1 X73.245 Y25.456
G1 X74.762 Y26.944
G1 X76.183 Y28.526
G1 X77.502 Y30.194
G1 X78.715 Y31.943
G1 X79.816 Y33.766
G1 X80.802 Y35.656
G1 X81.667 Y37.604
G1 X82.408 Y39.605
G1 X83.023 Y41.649
G1 X83.508 Y43.729
G1 X83.863 Y45.837
G1 X84.084 Y47.964
G1 X84.171 Y50.102
G1 X84.124 Y52.242
G1 X83.942 Y54.377
G1 X83.627 Y56.497
G1 X83.178 Y58.594
G1 X82.599 Y60.661
G1 X81.890 Y62.688
G1 X81.055 Y64.667
G1 X80.097 Y66.592
G1 X79.020 Y68.454
G1 X77.826 Y70.245
G1 X76.522 Y71.959
G1 X75.112 Y73.588
G1 X73.602 Y75.127
G1 X71.997 Y76.569
G1 X70.304 Y77.908
G1 X68.529 Y79.138
G1 X66.679 Y80.255
G1 X64.761 Y81.255
G1 X62.784 Y82.133
G1 X60.754 Y82.885
G1 X58.679 Y83.508
G1 X56.568 Y84.001
G1 X54.430 Y84.360
G1 X52.271 Y84.584
G1 X50.102 Y84.672
G1 X47.930 Y84.624
G1 X45.764 Y84.439
G1 X43.613 Y84.119
G1 X41.485 Y83.664
G1 X39.388 Y83.075
G1 X37.331 Y82.356
G1 X35.323 Y81.509
G1 X33.370 Y80.536
G1 X31.481 Y79.443
G1 X29.664 Y78.232
G1 X27.925 Y76.908
G1 X26.272 Y75.478
G1 X24.711 Y73.945
G1 X23.249 Y72.316
G1 X21.891 Y70.598
G1 X20.642 Y68.797
G1 X19.509 Y66.920
G1 X18.495 Y64.975
G1 X17.605 Y62.968
G1 X16.842 Y60.908
G1 X16.210 Y58.804
G1 X15.711 Y56.662
G1 X15.347 Y54.492
G1 X15.120 Y52.303
G1 X15.031 Y50.102
G1 X15.080 Y47.898
G1 X15.267 Y45.701
G1 X15.593 Y43.519
G1 X16.055 Y41.360
G1 X16.652 Y39.233
G1 X17.382 Y37.147
G1 X18.241 Y35.109
G1 X19.228 Y33.129
G1 X20.338 Y31.213
G1 X21.566 Y29.370
G1 X22.909 Y27.606
G1 X24.361 Y25.929
G1 X25.916 Y24.346
G1 X27.568 Y22.863
G1 X29.311 Y21.485
G1 X31.138 Y20.219
G1 X33.042 Y19.070
G1 X35.016 Y18.042
G1 X37.051 Y17.139
G1 X39.140 Y16.366
G1 X41.275 Y15.725
G1 X43.447 Y15.219
G1 X45.648 Y14.850
G1 X47.869 Y14.620
G1 X50.102 Y14.530
G1 X52.337 Y14.580
G1 X54.565 Y14.770
G1 X56.779 Y15.101
G1 X58.968 Y15.569
G1 X61.125 Y16.175
G1 X63.241 Y16.916
G1 X65.307 Y17.788
G1 X67.316 Y18.789
G1 X69.259 Y19.915
G1 X71.128 Y21.161
G1 X72.917 Y22.523
G1 X74.617 Y23.995
G1 X76.223 Y25.573
G1 X77.727 Y27.248
G1 X79.124 Y29.016
G1 X80.407 Y30.869
G1 X81.573 Y32.801
G1 X82.615 Y34.802
G1 X83.530 Y36.867
G1 X84.314 Y38.985
G1 X84.964 Y41.151
G1 X85.477 Y43.354
G1 X85.851 Y45.586
G1 X86.084 Y47.838
G1 X86.175 Y50.102
G1 X86.124 Y52.368
G1 X85.930 Y54.628
G1 X85.595 Y56.872
G1 X85.119 Y59.093
G1 X84.505 Y61.280
G1 X83.754 Y63.425
G1 X82.869 Y65.521
G1 X81.854 Y67.557
G1 X80.712 Y69.527
G1 X79.448 Y71.423
G1 X78.067 Y73.236
G1 X76.573 Y74.960
G1 X74.974 Y76.588
G1 X73.275 Y78.113
G1 X71.482 Y79.529
G1 X69.603 Y80.830
G1 X67.644 Y82.012
G1 X65.615 Y83.068
G1 X63.521 Y83.996
G1 X61.373 Y84.791
G1 X59.177 Y85.449
G1 X56.944 Y85.969
G1 X54.681 Y86.348
G1 X52.397 Y86.584
G1 X50.102 Y86.676
G1 X47.804 Y86.624
G1 X45.513 Y86.427
G1 X43.237 Y86.087
G1 X40.986 Y85.605
G1 X38.769 Y84.981
G1 X36.594 Y84.219
G1 X34.469 Y83.322
G1 X32.405 Y82.293
G1 X30.408 Y81.135
G1 X28.486 Y79.853
G1 X26.648 Y78.453
G1 X24.900 Y76.939
G1 X23.250 Y75.317
G1 X21.705 Y73.594
G1 X20.269 Y71.776
G1 X18.950 Y69.871
G1 X17.753 Y67.886
G1 X16.682 Y65.828
G1 X15.742 Y63.706
G1 X14.936 Y61.528
G1 X14.269 Y59.302
G1 X13.742 Y57.038
G1 X13.359 Y54.744
G1 X13.120 Y52.428
G1 X13.026 Y50.102
G1 X13.080 Y47.773
G1 X13.279 Y45.450
G1 X13.624 Y43.143
G1 X14.114 Y40.862
G1 X14.746 Y38.614
G1 X15.518 Y36.409
G1 X16.428 Y34.256
G1 X17.472 Y32.163
G1 X18.646 Y30.139
G1 X19.945 Y28.192
G1 X21.365 Y26.329
G1 X22.900 Y24.557
G1 X24.544 Y22.885
G1 X26.290 Y21.319
G1 X28.133 Y19.864
G1 X30.064 Y18.527
G1 X32.076 Y17.314
G1 X34.162 Y16.229
G1 X36.313 Y15.276
G1 X38.521 Y14.460
G1 X40.777 Y13.784
G1 X43.072 Y13.250
G1 X45.397 Y12.862
G1 X47.744 Y12.620
G1 X50.102 Y12.525
G1 X52.462 Y12.580
G1 X54.816 Y12.782
G1 X57.154 Y13.132
G1 X59.467 Y13.628
G1 X61.744 Y14.269
G1 X63.979 Y15.052
G1 X66.161 Y15.975
G1 X68.282 Y17.033
G1 X70.333 Y18.223
G1 X72.306 Y19.540
G1 X74.194 Y20.979
G1 X75.989 Y22.534
G1 X77.684 Y24.201
G1 X79.271 Y25.971
G1 X80.745 Y27.838
G1 X82.099 Y29.796
G1 X83.329 Y31.835
G1 X84.428 Y33.949
G1 X85.393 Y36.129
G1 X86.220 Y38.366
G1 X86.905 Y40.652
G1 X87.446 Y42.978
G1 X87.839 Y45.334
G1 X88.084 Y47.712
G1 X88.179 Y50.102
G1 X88.124 Y52.494
G1 X87.919 Y54.879
G1 X87.564 Y57.248
G1 X87.060 Y59.591
G1 X86.411 Y61.899
G1 X85.617 Y64.163
G1 X84.682 Y66.374
G1 X83.610 Y68.523
G1 X82.404 Y70.601
G1 X81.069 Y72.601
G1 X79.611 Y74.514
G1 X78.034 Y76.332
G1 X76.346 Y78.049
G1 X74.552 Y79.657
G1 X72.660 Y81.150
G1 X70.676 Y82.522
G1 X68.610 Y83.768
G1 X66.468 Y84.882
G1 X64.259 Y85.859
G1 X61.992 Y86.697
G1 X59.676 Y87.390
G1 X57.319 Y87.938
G1 X54.932 Y88.336
G1 X52.523 Y88.584
G1 X50.102 Y88.680
G1 X47.678 Y88.624
G1 X45.262 Y88.416
G1 X42.862 Y88.056
G1 X40.488 Y87.546
G1 X38.149 Y86.887
G1 X35.856 Y86.083
G1 X33.616 Y85.135
G1 X31.439 Y84.049
G1 X29.334 Y82.827
G1 X27.308 Y81.474
G1 X25.370 Y79.997
G1 X23.528 Y78.399
G1 X21.789 Y76.689
G1 X20.160 Y74.871
G1 X18.648 Y72.954
G1 X17.258 Y70.945
G1 X15.997 Y68.851
G1 X14.869 Y66.681
G1 X13.878 Y64.444
G1 X13.030 Y62.147
G1 X12.328 Y59.800
G1 X11.774 Y57.413
G1 X11.370 Y54.995
G1 X11.120 Y52.554
G1 X11.022 Y50.102
G1 X11.080 Y47.647
G1 X11.291 Y45.199
G1 X11.656 Y42.768
G1 X12.172 Y40.363
G1 X12.840 Y37.995
G1 X13.655 Y35.671
G1 X14.615 Y33.403
G1 X15.716 Y31.198
G1 X16.954 Y29.065
G1 X18.324 Y27.014
G1 X19.821 Y25.051
G1 X21.439 Y23.185
G1 X23.172 Y21.424
G1 X25.013 Y19.774
G1 X26.955 Y18.243
G1 X28.990 Y16.835
G1 X31.111 Y15.558
G1 X33.309 Y14.415
G1 X35.576 Y13.413
G1 X37.902 Y12.554
G1 X40.278 Y11.843
G1 X42.696 Y11.282
G1 X45.146 Y10.873
G1 X47.618 Y10.619
G1 X50.102 Y10.521
G1 X52.588 Y10.579
G1 X55.068 Y10.794
G1 X57.530 Y11.163
G1 X59.965 Y11.687
G1 X62.364 Y12.363
G1 X64.717 Y13.189
G1 X67.014 Y14.161
G1 X69.247 Y15.277
G1 X71.407 Y16.531
G1 X73.484 Y17.918
G1 X75.472 Y19.435
G1 X77.361 Y21.074
G1 X79.145 Y22.829
G1 X80.815 Y24.693
G1 X82.366 Y26.660
G1 X83.791 Y28.722
G1 X85.085 Y30.870
G1 X86.242 Y33.096
G1 X87.257 Y35.391
G1 X88.126 Y37.747
G1 X88.846 Y40.154
G1 X89.414 Y42.603
G1 X89.827 Y45.083
G1 X90.084 Y47.586
G0 Z26.053
M5

; ===== TOOL CHANGE TO T2 =====
G0 Z26.053
G0 X0.000 Y0.000
M5
G4 P3.0
M6 T2  ; Change to Tool 2 - 3mm Ball End Mill
G4 P5.0

; ===== GRID PATTERN - 3000 operations =====
M3 S20252
G4 P2.0
G0 X10.020 Y10.020
G1 Z0.000 F300
G1 X12.024 Y10.020 F800
G1 X12.024 Y12.024
G1 X10.020 Y12.024
G1 X10.020 Y10.020
G1 X12.024 Y14.028
G1 X12.024 Y16.033
G1 X10.020 Y16.033
G1 X10.020 Y14.028
G1 X12.024 Y18.037
G1 X12.024 Y20.041
G1 X10.020 Y20.041
G1 X10.020 Y18.037
G1 X12.024 Y22.045
G1 X12.024 Y24.049
G1 X10.020 Y24.049
G1 X10.020 Y22.045
G1 X12.024 Y26.053
G1 X12.024 Y28.057
G1 X10.020 Y28.057
G1 X10.020 Y26.053
G1 X12.024 Y30.061
G1 X12.024 Y32.065
G1 X10.020 Y32.065
G1 X10.020 Y30.061
G1 X12.024 Y34.069
G1 X12.024 Y36.073
G1 X10.020 Y36.073
G1 X10.020 Y34.069
G1 X12.024 Y38.077
G1 X12.024 Y40.081
G1 X10.020 Y40.081
G1 X10.020 Y38.077
G1 X12.024 Y42.085
G1 X12.024 Y44.090
G1 X10.020 Y44.090
G1 X10.020 Y42.085
G1 X12.024 Y46.094
G1 X12.024 Y48.098
G1 X10.020 Y48.098
G1 X10.020 Y46.094
G1 X12.024 Y50.102
G1 X12.024 Y52.106
G1 X10.020 Y52.106
G1 X10.020 Y50.102
G1 X12.024 Y54.110
G1 X12.024 Y56.114
G1 X10.020 Y56.114
G1 X10.020 Y54.110
G1 X12.024 Y58.118
G1 X12.024 Y60.122
G1 X10.020 Y60.122
G1 X10.020 Y58.118
G1 X12.024 Y62.126
G1 X12.024 Y64.130
G1 X10.020 Y64.130
G1 X10.020 Y62.126
G1 X12.024 Y66.134
G1 X12.024 Y68.138
G1 X10.020 Y68.138
G1 X10.020 Y66.134
G1 X12.024 Y70.142
G1 X12.024 Y72.147
G1 X10.020 Y72.147
G1 X10.020 Y70.142
G1 X12.024 Y74.151
G1 X12.024 Y76.155
G1 X10.020 Y76.155
G1 X10.020 Y74.151
G1 X12.024 Y78.159
G1 X12.024 Y80.163
G1 X10.020 Y80.163
G1 X10.020 Y78.159
G1 X12.024 Y82.167
G1 X12.024 Y84.171
G1 X10.020 Y84.171
G1 X10.020 Y82.167
G1 X12.024 Y86.175
G1 X12.024 Y88.179
G1 X10.020 Y88.179
G1 X10.020 Y86.175
G1 X16.033 Y10.020
G1 X16.033 Y12.024
G1 X14.028 Y12.024
G1 X14.028 Y10.020
G1 X16.033 Y14.028
G1 X16.033 Y16.033
G1 X14.028 Y16.033
G1 X14.028 Y14.028
G1 X16.033 Y18.037
G1 X16.033 Y20.041
G1 X14.028 Y20.041
G1 X14.028 Y18.037
G1 X16.033 Y22.045
G1 X16.033 Y24.049
G1 X14.028 Y24.049
G1 X14.028 Y22.045
G1 X16.033 Y26.053
G1 X16.033 Y28.057
G1 X14.028 Y28.057
G1 X14.028 Y26.053
G1 X16.033 Y30.061
G1 X16.033 Y32.065
G1 X14.028 Y32.065
G1 X14.028 Y30.061
G1 X16.033 Y34.069
G1 X16.033 Y36.073
G1 X14.028 Y36.073
G1 X14.028 Y34.069
G1 X16.033 Y38.077
G1 X16.033 Y40.081
G1 X14.028 Y40.081
G1 X14.028 Y38.077
G1 X16.033 Y42.085
G1 X16.033 Y44.090
G1 X14.028 Y44.090
G1 X14.028 Y42.085
G1 X16.033 Y46.094
G1 X16.033 Y48.098
G1 X14.028 Y48.098
G1 X14.028 Y46.094
G1 X16.033 Y50.102
G1 X16.033 Y52.106
G1 X14.028 Y52.106
G1 X14.028 Y50.102
G1 X16.033 Y54.110
G1 X16.033 Y56.114
G1 X14.028 Y56.114
G1 X14.028 Y54.110
G1 X16.033 Y58.118
G1 X16.033 Y60.122
G1 X14.028 Y60.122
G1 X14.028 Y58.118
G1 X16.033 Y62.126
G1 X16.033 Y64.130
G1 X14.028 Y64.130
G1 X14.028 Y62.126
G1 X16.033 Y66.134
G1 X16.033 Y68.138
G1 X14.028 Y68.138
G1 X14.028 Y66.134
G1 X16.033 Y70.142
G1 X16.033 Y72.147
G1 X14.028 Y72.147
G1 X14.028 Y70.142
G1 X16.033 Y74.151
G1 X16.033 Y76.155
G1 X14.028 Y76.155
G1 X14.028 Y74.151
G1 X16.033 Y78.159
G1 X16.033 Y80.163
G1 X14.028 Y80.163
G1 X14.028 Y78.159
G1 X16.033 Y82.167
G1 X16.033 Y84.171
G1 X14.028 Y84.171
G1 X14.028 Y82.167
G1 X16.033 Y86.175
G1 X16.033 Y88.179
G1 X14.028 Y88.179
G1 X14.028 Y86.175
G1 X20.041 Y10.020
G1 X20.041 Y12.024
G1 X18.037 Y12.024
G1 X18.037 Y10.020
G1 X20.041 Y14.028
G1 X20.041 Y16.033
G1 X18.037 Y16.033
G1 X18.037 Y14.028
G1 X20.041 Y18.037
G1 X20.041 Y20.041
G1 X18.037 Y20.041
G1 X18.037 Y18.037
G1 X20.041 Y22.045
G1 X20.041 Y24.049
G1 X18.037 Y24.049
G1 X18.037 Y22.045
G1 X20.041 Y26.053
G1 X20.041 Y28.057
G1 X18.037 Y28.057
G1 X18.037 Y26.053
G1 X20.041 Y30.061
G1 X20.041 Y32.065
G1 X18.037 Y32.065
G1 X18.037 Y30.061
G1 X20.041 Y34.069
G1 X20.041 Y36.073
G1 X18.037 Y36.073
G1 X18.037 Y34.069
G1 X20.041 Y38.077
G1 X20.041 Y40.081
G1 X18.037 Y40.081
G1 X18.037 Y38.077
G1 X20.041 Y42.085
G1 X20.041 Y44.090
G1 X18.037 Y44.090
G1 X18.037 Y42.085
G1 X20.041 Y46.094
G1 X20.041 Y48.098
G1 X18.037 Y48.098
G1 X18.037 Y46.094
G1 X20.041 Y50.102
G1 X20.041 Y52.106
G1 X18.037 Y52.106
G1 X18.037 Y50.102
G1 X20.041 Y54.110
G1 X20.041 Y56.114
G1 X18.037 Y56.114
G1 X18.037 Y54.110
G1 X20.041 Y58.118
G1 X20.041 Y60.122
G1 X18.037 Y60.122
G1 X18.037 Y58.118
G1 X20.041 Y62.126
G1 X20.041 Y64.130
G1 X18.037 Y64.130
G1 X18.037 Y62.126
G1 X20.041 Y66.134
G1 X20.041 Y68.138
G1 X18.037 Y68.138
G1 X18.037 Y66.134
G1 X20.041 Y70.142
G1 X20.041 Y72.147
G1 X18.037 Y72.147
G1 X18.037 Y70.142
G1 X20.041 Y74.151
G1 X20.041 Y76.155
G1 X18.037 Y76.155
G1 X18.037 Y74.151
G1 X20.041 Y78.159
G1 X20.041 Y80.163
G1 X18.037 Y80.163
G1 X18.037 Y78.159
G1 X20.041 Y82.167
G1 X20.041 Y84.171
G1 X18.037 Y84.171
G1 X18.037 Y82.167
G1 X20.041 Y86.175
G1 X20.041 Y88.179
G1 X18.037 Y88.179
G1 X18.037 Y86.175
G1 X24.049 Y10.020
G1 X24.049 Y12.024
G1 X22.045 Y12.024
G1 X22.045 Y10.020
G1 X24.049 Y14.028
G1 X24.049 Y16.033
G1 X22.045 Y16.033
G1 X22.045 Y14.028
G1 X24.049 Y18.037
G1 X24.049 Y20.041
G1 X22.045 Y20.041
G1 X22.045 Y18.037
G1 X24.049 Y22.045
G1 X24.049 Y24.049
G1 X22.045 Y24.049
G1 X22.045 Y22.045
G1 X24.049 Y26.053
G1 X24.049 Y28.057
G1 X22.045 Y28.057
G1 X22.045 Y26.053
G1 X24.049 Y30.061
G1 X24.049 Y32.065
G1 X22.045 Y32.065
G1 X22.045 Y30.061
G1 X24.049 Y34.069
G1 X24.049 Y36.073
G1 X22.045 Y36.073
G1 X22.045 Y34.069
G1 X24.049 Y38.077
G1 X24.049 Y40.081
G1 X22.045 Y40.081
G1 X22.045 Y38.077
G1 X24.049 Y42.085
G1 X24.049 Y44.090
G1 X22.045 Y44.090
G1 X22.045 Y42.085
G1 X24.049 Y46.094
G1 X24.049 Y48.098
G1 X22.045 Y48.098
G1 X22.045 Y46.094
G1 X24.049 Y50.102
G1 X24.049 Y52.106
G1 X22.045 Y52.106
G1 X22.045 Y50.102
G1 X24.049 Y54.110
G1 X24.049 Y56.114
G1 X22.045 Y56.114
G1 X22.045 Y54.110
G1 X24.049 Y58.118
G1 X24.049 Y60.122
G1 X22.045 Y60.122
G1 X22.045 Y58.118
G1 X24.049 Y62.126
G1 X24.049 Y64.130
G1 X22.045 Y64.130
G1 X22.045 Y62.126
G1 X24.049 Y66.134
G1 X24.049 Y68.138
G1 X22.045 Y68.138
G1 X22.045 Y66.134
G1 X24.049 Y70.142
G1 X24.049 Y72.147
G1 X22.045 Y72.147
G1 X22.045 Y70.142
G1 X24.049 Y74.151
G1 X24.049 Y76.155
G1 X22.045 Y76.155
G1 X22.045 Y74.151
G1 X24.049 Y78.159
G1 X24.049 Y80.163
G1 X22.045 Y80.163
G1 X22.045 Y78.159
G1 X24.049 Y82.167
G1 X24.049 Y84.171
G1 X22.045 Y84.171
G1 X22.045 Y82.167
G1 X24.049 Y86.175
G1 X24.049 Y88.179
G1 X22.045 Y88.179
G1 X22.045 Y86.175
G1 X28.057 Y10.020
G1 X28.057 Y12.024
G1 X26.053 Y12.024
G1 X26.053 Y10.020
G1 X28.057 Y14.028
G1 X28.057 Y16.033
G1 X26.053 Y16.033
G1 X26.053 Y14.028
G1 X28.057 Y18.037
G1 X28.057 Y20.041
G1 X26.053 Y20.041
G1 X26.053 Y18.037
G1 X28.057 Y22.045
G1 X28.057 Y24.049
G1 X26.053 Y24.049
G1 X26.053 Y22.045
G1 X28.057 Y26.053
G1 X28.057 Y28.057
G1 X26.053 Y28.057
G1 X26.053 Y26.053
G1 X28.057 Y30.061
G1 X28.057 Y32.065
G1 X26.053 Y32.065
G1 X26.053 Y30.061
G1 X28.057 Y34.069
G1 X28.057 Y36.073
G1 X26.053 Y36.073
G1 X26.053 Y34.069
G1 X28.057 Y38.077
G1 X28.057 Y40.081
G1 X26.053 Y40.081
G1 X26.053 Y38.077
G1 X28.057 Y42.085
G1 X28.057 Y44.090
G1 X26.053 Y44.090
G1 X26.053 Y42.085
G1 X28.057 Y46.094
G1 X28.057 Y48.098
G1 X26.053 Y48.098
G1 X26.053 Y46.094
G1 X28.057 Y50.102
G1 X28.057 Y52.106
G1 X26.053 Y52.106
G1 X26.053 Y50.102
G1 X28.057 Y54.110
G1 X28.057 Y56.114
G1 X26.053 Y56.114
G1 X26.053 Y54.110
G1 X28.057 Y58.118
G1 X28.057 Y60.122
G1 X26.053 Y60.122
G1 X26.053 Y58.118
G1 X28.057 Y62.126
G1 X28.057 Y64.130
G1 X26.053 Y64.130
G1 X26.053 Y62.126
G1 X28.057 Y66.134
G1 X28.057 Y68.138
G1 X26.053 Y68.138
G1 X26.053 Y66.134
G1 X28.057 Y70.142
G1 X28.057 Y72.147
G1 X26.053 Y72.147
G1 X26.053 Y70.142
G1 X28.057 Y74.151
G1 X28.057 Y76.155
G1 X26.053 Y76.155
G1 X26.053 Y74.151
G1 X28.057 Y78.159
G1 X28.057 Y80.163
G1 X26.053 Y80.163
G1 X26.053 Y78.159
G1 X28.057 Y82.167
G1 X28.057 Y84.171
G1 X26.053 Y84.171
G1 X26.053 Y82.167
G1 X28.057 Y86.175
G1 X28.057 Y88.179
G1 X26.053 Y88.179
G1 X26.053 Y86.175
G1 X32.065 Y10.020
G1 X32.065 Y12.024
G1 X30.061 Y12.024
G1 X30.061 Y10.020
G1 X32.065 Y14.028
G1 X32.065 Y16.033
G1 X30.061 Y16.033
G1 X30.061 Y14.028
G1 X32.065 Y18.037
G1 X32.065 Y20.041
G1 X30.061 Y20.041
G1 X30.061 Y18.037
G1 X32.065 Y22.045
G1 X32.065 Y24.049
G1 X30.061 Y24.049
G1 X30.061 Y22.045
G1 X32.065 Y26.053
G1 X32.065 Y28.057
G1 X30.061 Y28.057
G1 X30.061 Y26.053
G1 X32.065 Y30.061
G1 X32.065 Y32.065
G1 X30.061 Y32.065
G1 X30.061 Y30.061
G1 X32.065 Y34.069
G1 X32.065 Y36.073
G1 X30.061 Y36.073
G1 X30.061 Y34.069
G1 X32.065 Y38.077
G1 X32.065 Y40.081
G1 X30.061 Y40.081
G1 X30.061 Y38.077
G1 X32.065 Y42.085
G1 X32.065 Y44.090
G1 X30.061 Y44.090
G1 X30.061 Y42.085
G1 X32.065 Y46.094
G1 X32.065 Y48.098
G1 X30.061 Y48.098
G1 X30.061 Y46.094
G1 X32.065 Y50.102
G1 X32.065 Y52.106
G1 X30.061 Y52.106
G1 X30.061 Y50.102
G1 X32.065 Y54.110
G1 X32.065 Y56.114
G1 X30.061 Y56.114
G1 X30.061 Y54.110
G1 X32.065 Y58.118
G1 X32.065 Y60.122
G1 X30.061 Y60.122
G1 X30.061 Y58.118
G1 X32.065 Y62.126
G1 X32.065 Y64.130
G1 X30.061 Y64.130
G1 X30.061 Y62.126
G1 X32.065 Y66.134
G1 X32.065 Y68.138
G1 X30.061 Y68.138
G1 X30.061 Y66.134
G1 X32.065 Y70.142
G1 X32.065 Y72.147
G1 X30.061 Y72.147
G1 X30.061 Y70.142
G1 X32.065 Y74.151
G1 X32.065 Y76.155
G1 X30.061 Y76.155
G1 X30.061 Y74.151
G1 X32.065 Y78.159
G1 X32.065 Y80.163
G1 X30.061 Y80.163
G1 X30.061 Y78.159
G1 X32.065 Y82.167
G1 X32.065 Y84.171
G1 X30.061 Y84.171
G1 X30.061 Y82.167
G1 X32.065 Y86.175
G1 X32.065 Y88.179
G1 X30.061 Y88.179
G1 X30.061 Y86.175
G1 X36.073 Y10.020
G1 X36.073 Y12.024
G1 X34.069 Y12.024
G1 X34.069 Y10.020
G1 X36.073 Y14.028
G1 X36.073 Y16.033
G1 X34.069 Y16.033
G1 X34.069 Y14.028
G1 X36.073 Y18.037
G1 X36.073 Y20.041
G1 X34.069 Y20.041
G1 X34.069 Y18.037
G1 X36.073 Y22.045
G1 X36.073 Y24.049
G1 X34.069 Y24.049
G1 X34.069 Y22.045
G1 X36.073 Y26.053
G1 X36.073 Y28.057
G1 X34.069 Y28.057
G1 X34.069 Y26.053
G1 X36.073 Y30.061
G1 X36.073 Y32.065
G1 X34.069 Y32.065
G1 X34.069 Y30.061
G1 X36.073 Y34.069
G1 X36.073 Y36.073
G1 X34.069 Y36.073
G1 X34.069 Y34.069
G1 X36.073 Y38.077
G1 X36.073 Y40.081
G1 X34.069 Y40.081
G1 X34.069 Y38.077
G1 X36.073 Y42.085
G1 X36.073 Y44.090
G1 X34.069 Y44.090
G1 X34.069 Y42.085
G1 X36.073 Y46.094
G1 X36.073 Y48.098
G1 X34.069 Y48.098
G1 X34.069 Y46.094
G1 X36.073 Y50.102
G1 X36.073 Y52.106
G1 X34.069 Y52.106
G1 X34.069 Y50.102
G1 X36.073 Y54.110
G1 X36.073 Y56.114
G1 X34.069 Y56.114
G1 X34.069 Y54.110
G1 X36.073 Y58.118
G1 X36.073 Y60.122
G1 X34.069 Y60.122
G1 X34.069 Y58.118
G1 X36.073 Y62.126
G1 X36.073 Y64.130
G1 X34.069 Y64.130
G1 X34.069 Y62.126
G1 X36.073 Y66.134
G1 X36.073 Y68.138
G1 X34.069 Y68.138
G1 X34.069 Y66.134
G1 X36.073 Y70.142
G1 X36.073 Y72.147
G1 X34.069 Y72.147
G1 X34.069 Y70.142
G1 X36.073 Y74.151
G1 X36.073 Y76.155
G1 X34.069 Y76.155
G1 X34.069 Y74.151
G1 X36.073 Y78.159
G1 X36.073 Y80.163
G1 X34.069 Y80.163
G1 X34.069 Y78.159
G1 X36.073 Y82.167
G1 X36.073 Y84.171
G1 X34.069 Y84.171
G1 X34.069 Y82.167
G1 X36.073 Y86.175
G1 X36.073 Y88.179
G1 X34.069 Y88.179
G1 X34.069 Y86.175
G1 X40.081 Y10.020
G1 X40.081 Y12.024
G1 X38.077 Y12.024
G1 X38.077 Y10.020
G1 X40.081 Y14.028
G1 X40.081 Y16.033
G1 X38.077 Y16.033
G1 X38.077 Y14.028
G1 X40.081 Y18.037
G1 X40.081 Y20.041
G1 X38.077 Y20.041
G1 X38.077 Y18.037
G1 X40.081 Y22.045
G1 X40.081 Y24.049
G1 X38.077 Y24.049
G1 X38.077 Y22.045
G1 X40.081 Y26.053
G1 X40.081 Y28.057
G1 X38.077 Y28.057
G1 X38.077 Y26.053
G1 X40.081 Y30.061
G1 X40.081 Y32.065
G1 X38.077 Y32.065
G1 X38.077 Y30.061
G1 X40.081 Y34.069
G1 X40.081 Y36.073
G1 X38.077 Y36.073
G1 X38.077 Y34.069
G1 X40.081 Y38.077
G1 X40.081 Y40.081
G1 X38.077 Y40.081
G1 X38.077 Y38.077
G1 X40.081 Y42.085
G1 X40.081 Y44.090
G1 X38.077 Y44.090
G1 X38.077 Y42.085
G1 X40.081 Y46.094
G1 X40.081 Y48.098
G1 X38.077 Y48.098
G1 X38.077 Y46.094
G1 X40.081 Y50.102
G1 X40.081 Y52.106
G1 X38.077 Y52.106
G1 X38.077 Y50.102
G1 X40.081 Y54.110
G1 X40.081 Y56.114
G1 X38.077 Y56.114
G1 X38.077 Y54.110
G1 X40.081 Y58.118
G1 X40.081 Y60.122
G1 X38.077 Y60.122
G1 X38.077 Y58.118
G1 X40.081 Y62.126
G1 X40.081 Y64.130
G1 X38.077 Y64.130
G1 X38.077 Y62.126
G1 X40.081 Y66.134
G1 X40.081 Y68.138
G1 X38.077 Y68.138
G1 X38.077 Y66.134
G1 X40.081 Y70.142
G1 X40.081 Y72.147
G1 X38.077 Y72.147
G1 X38.077 Y70.142
G1 X40.081 Y74.151
G1 X40.081 Y76.155
G1 X38.077 Y76.155
G1 X38.077 Y74.151
G1 X40.081 Y78.159
G1 X40.081 Y80.163
G1 X38.077 Y80.163
G1 X38.077 Y78.159
G1 X40.081 Y82.167
G1 X40.081 Y84.171
G1 X38.077 Y84.171
G1 X38.077 Y82.167
G1 X40.081 Y86.175
G1 X40.081 Y88.179
G1 X38.077 Y88.179
G1 X38.077 Y86.175
G1 X44.090 Y10.020
G1 X44.090 Y12.024
G1 X42.085 Y12.024
G1 X42.085 Y10.020
G1 X44.090 Y14.028
G1 X44.090 Y16.033
G1 X42.085 Y16.033
G1 X42.085 Y14.028
G1 X44.090 Y18.037
G1 X44.090 Y20.041
G1 X42.085 Y20.041
G1 X42.085 Y18.037
G1 X44.090 Y22.045
G1 X44.090 Y24.049
G1 X42.085 Y24.049
G1 X42.085 Y22.045
G1 X44.090 Y26.053
G1 X44.090 Y28.057
G1 X42.085 Y28.057
G1 X42.085 Y26.053
G1 X44.090 Y30.061
G1 X44.090 Y32.065
G1 X42.085 Y32.065
G1 X42.085 Y30.061
G1 X44.090 Y34.069
G1 X44.090 Y36.073
G1 X42.085 Y36.073
G1 X42.085 Y34.069
G1 X44.090 Y38.077
G1 X44.090 Y40.081
G1 X42.085 Y40.081
G1 X42.085 Y38.077
G1 X44.090 Y42.085
G1 X44.090 Y44.090
G1 X42.085 Y44.090
G1 X42.085 Y42.085
G1 X44.090 Y46.094
G1 X44.090 Y48.098
G1 X42.085 Y48.098
G1 X42.085 Y46.094
G1 X44.090 Y50.102
G1 X44.090 Y52.106
G1 X42.085 Y52.106
G1 X42.085 Y50.102
G1 X44.090 Y54.110
G1 X44.090 Y56.114
G1 X42.085 Y56.114
G1 X42.085 Y54.110
G1 X44.090 Y58.118
G1 X44.090 Y60.122
G1 X42.085 Y60.122
G1 X42.085 Y58.118
G1 X44.090 Y62.126
G1 X44.090 Y64.130
G1 X42.085 Y64.130
G1 X42.085 Y62.126
G1 X44.090 Y66.134
G1 X44.090 Y68.138
G1 X42.085 Y68.138
G1 X42.085 Y66.134
G1 X44.090 Y70.142
G1 X44.090 Y72.147
G1 X42.085 Y72.147
G1 X42.085 Y70.142
G1 X44.090 Y74.151
G1 X44.090 Y76.155
G1 X42.085 Y76.155
G1 X42.085 Y74.151
G1 X44.090 Y78.159
G1 X44.090 Y80.163
G1 X42.085 Y80.163
G1 X42.085 Y78.159
G1 X44.090 Y82.167
G1 X44.090 Y84.171
G1 X42.085 Y84.171
G1 X42.085 Y82.167
G1 X44.090 Y86.175
G1 X44.090 Y88.179
G1 X42.085 Y88.179
G1 X42.085 Y86.175
G1 X48.098 Y10.020
G1 X48.098 Y12.024
G1 X46.094 Y12.024
G1 X46.094 Y10.020
G1 X48.098 Y14.028
G1 X48.098 Y16.033
G1 X46.094 Y16.033
G1 X46.094 Y14.028
G1 X48.098 Y18.037
G1 X48.098 Y20.041
G1 X46.094 Y20.041
G1 X46.094 Y18.037
G1 X48.098 Y22.045
G1 X48.098 Y24.049
G1 X46.094 Y24.049
G1 X46.094 Y22.045
G1 X48.098 Y26.053
G1 X48.098 Y28.057
G1 X46.094 Y28.057
G1 X46.094 Y26.053
G1 X48.098 Y30.061
G1 X48.098 Y32.065
G1 X46.094 Y32.065
G1 X46.094 Y30.061
G1 X48.098 Y34.069
G1 X48.098 Y36.073
G1 X46.094 Y36.073
G1 X46.094 Y34.069
G1 X48.098 Y38.077
G1 X48.098 Y40.081
G1 X46.094 Y40.081
G1 X46.094 Y38.077
G1 X48.098 Y42.085
G1 X48.098 Y44.090
G1 X46.094 Y44.090
G1 X46.094 Y42.085
G1 X48.098 Y46.094
G1 X48.098 Y48.098
G1 X46.094 Y48.098
G1 X46.094 Y46.094
G1 X48.098 Y50.102
G1 X48.098 Y52.106
G1 X46.094 Y52.106
G1 X46.094 Y50.102
G1 X48.098 Y54.110
G1 X48.098 Y56.114
G1 X46.094 Y56.114
G1 X46.094 Y54.110
G1 X48.098 Y58.118
G1 X48.098 Y60.122
G1 X46.094 Y60.122
G1 X46.094 Y58.118
G1 X48.098 Y62.126
G1 X48.098 Y64.130
G1 X46.094 Y64.130
G1 X46.094 Y62.126
G1 X48.098 Y66.134
G1 X48.098 Y68.138
G1 X46.094 Y68.138
G1 X46.094 Y66.134
G1 X48.098 Y70.142
G1 X48.098 Y72.147
G1 X46.094 Y72.147
G1 X46.094 Y70.142
G1 X48.098 Y74.151
G1 X48.098 Y76.155
G1 X46.094 Y76.155
G1 X46.094 Y74.151
G1 X48.098 Y78.159
G1 X48.098 Y80.163
G1 X46.094 Y80.163
G1 X46.094 Y78.159
G1 X48.098 Y82.167
G1 X48.098 Y84.171
G1 X46.094 Y84.171
G1 X46.094 Y82.167
G1 X48.098 Y86.175
G1 X48.098 Y88.179
G1 X46.094 Y88.179
G1 X46.094 Y86.175
G1 X52.106 Y10.020
G1 X52.106 Y12.024
G1 X50.102 Y12.024
G1 X50.102 Y10.020
G1 X52.106 Y14.028
G1 X52.106 Y16.033
G1 X50.102 Y16.033
G1 X50.102 Y14.028
G1 X52.106 Y18.037
G1 X52.106 Y20.041
G1 X50.102 Y20.041
G1 X50.102 Y18.037
G1 X52.106 Y22.045
G1 X52.106 Y24.049
G1 X50.102 Y24.049
G1 X50.102 Y22.045
G1 X52.106 Y26.053
G1 X52.106 Y28.057
G1 X50.102 Y28.057
G1 X50.102 Y26.053
G1 X52.106 Y30.061
G1 X52.106 Y32.065
G1 X50.102 Y32.065
G1 X50.102 Y30.061
G1 X52.106 Y34.069
G1 X52.106 Y36.073
G1 X50.102 Y36.073
G1 X50.102 Y34.069
G1 X52.106 Y38.077
G1 X52.106 Y40.081
G1 X50.102 Y40.081
G1 X50.102 Y38.077
G1 X52.106 Y42.085
G1 X52.106 Y44.090
G1 X50.102 Y44.090
G1 X50.102 Y42.085
G1 X52.106 Y46.094
G1 X52.106 Y48.098
G1 X50.102 Y48.098
G1 X50.102 Y46.094
G1 X52.106 Y50.102
G1 X52.106 Y52.106
G1 X50.102 Y52.106
G1 X50.102 Y50.102
G1 X52.106 Y54.110
G1 X52.106 Y56.114
G1 X50.102 Y56.114
G1 X50.102 Y54.110
G1 X52.106 Y58.118
G1 X52.106 Y60.122
G1 X50.102 Y60.122
G1 X50.102 Y58.118
G1 X52.106 Y62.126
G1 X52.106 Y64.130
G1 X50.102 Y64.130
G1 X50.102 Y62.126
G1 X52.106 Y66.134
G1 X52.106 Y68.138
G1 X50.102 Y68.138
G1 X50.102 Y66.134
G1 X52.106 Y70.142
G1 X52.106 Y72.147
G1 X50.102 Y72.147
G1 X50.102 Y70.142
G1 X52.106 Y74.151
G1 X52.106 Y76.155
G1 X50.102 Y76.155
G1 X50.102 Y74.151
G1 X52.106 Y78.159
G1 X52.106 Y80.163
G1 X50.102 Y80.163
G1 X50.102 Y78.159
G1 X52.106 Y82.167
G1 X52.106 Y84.171
G1 X50.102 Y84.171
G1 X50.102 Y82.167
G1 X52.106 Y86.175
G1 X52.106 Y88.179
G1 X50.102 Y88.179
G1 X50.102 Y86.175
G1 X56.114 Y10.020
G1 X56.114 Y12.024
G1 X54.110 Y12.024
G1 X54.110 Y10.020
G1 X56.114 Y14.028
G1 X56.114 Y16.033
G1 X54.110 Y16.033
G1 X54.110 Y14.028
G1 X56.114 Y18.037
G1 X56.114 Y20.041
G1 X54.110 Y20.041
G1 X54.110 Y18.037
G1 X56.114 Y22.045
G1 X56.114 Y24.049
G1 X54.110 Y24.049
G1 X54.110 Y22.045
G1 X56.114 Y26.053
G1 X56.114 Y28.057
G1 X54.110 Y28.057
G1 X54.110 Y26.053
G1 X56.114 Y30.061
G1 X56.114 Y32.065
G1 X54.110 Y32.065
G1 X54.110 Y30.061
G1 X56.114 Y34.069
G1 X56.114 Y36.073
G1 X54.110 Y36.073
G1 X54.110 Y34.069
G1 X56.114 Y38.077
G1 X56.114 Y40.081
G1 X54.110 Y40.081
G1 X54.110 Y38.077
G1 X56.114 Y42.085
G1 X56.114 Y44.090
G1 X54.110 Y44.090
G1 X54.110 Y42.085
G1 X56.114 Y46.094
G1 X56.114 Y48.098
G1 X54.110 Y48.098
G1 X54.110 Y46.094
G1 X56.114 Y50.102
G1 X56.114 Y52.106
G1 X54.110 Y52.106
G1 X54.110 Y50.102
G1 X56.114 Y54.110
G1 X56.114 Y56.114
G1 X54.110 Y56.114
G1 X54.110 Y54.110
G1 X56.114 Y58.118
G1 X56.114 Y60.122
G1 X54.110 Y60.122
G1 X54.110 Y58.118
G1 X56.114 Y62.126
G1 X56.114 Y64.130
G1 X54.110 Y64.130
G1 X54.110 Y62.126
G1 X56.114 Y66.134
G1 X56.114 Y68.138
G1 X54.110 Y68.138
G1 X54.110 Y66.134
G1 X56.114 Y70.142
G1 X56.114 Y72.147
G1 X54.110 Y72.147
G1 X54.110 Y70.142
G1 X56.114 Y74.151
G1 X56.114 Y76.155
G1 X54.110 Y76.155
G1 X54.110 Y74.151
G1 X56.114 Y78.159
G1 X56.114 Y80.163
G1 X54.110 Y80.163
G1 X54.110 Y78.159
G1 X56.114 Y82.167
G1 X56.114 Y84.171
G1 X54.110 Y84.171
G1 X54.110 Y82.167
G1 X56.114 Y86.175
G1 X56.114 Y88.179
G1 X54.110 Y88.179
G1 X54.110 Y86.175
G1 X60.122 Y10.020
G1 X60.122 Y12.024
G1 X58.118 Y12.024
G1 X58.118 Y10.020
G1 X60.122 Y14.028
G1 X60.122 Y16.033
G1 X58.118 Y16.033
G1 X58.118 Y14.028
G1 X60.122 Y18.037
G1 X60.122 Y20.041
G1 X58.118 Y20.041
G1 X58.118 Y18.037
G1 X60.122 Y22.045
G1 X60.122 Y24.049
G1 X58.118 Y24.049
G1 X58.118 Y22.045
G1 X60.122 Y26.053
G1 X60.122 Y28.057
G1 X58.118 Y28.057
G1 X58.118 Y26.053
G1 X60.122 Y30.061
G1 X60.122 Y32.065
G1 X58.118 Y32.065
G1 X58.118 Y30.061
G1 X60.122 Y34.069
G1 X60.122 Y36.073
G1 X58.118 Y36.073
G1 X58.118 Y34.069
G1 X60.122 Y38.077
G1 X60.122 Y40.081
G1 X58.118 Y40.081
G1 X58.118 Y38.077
G1 X60.122 Y42.085
G1 X60.122 Y44.090
G1 X58.118 Y44.090
G1 X58.118 Y42.085
G1 X60.122 Y46.094
G1 X60.122 Y48.098
G1 X58.118 Y48.098
G1 X58.118 Y46.094
G1 X60.122 Y50.102
G1 X60.122 Y52.106
G1 X58.118 Y52.106
G1 X58.118 Y50.102
G1 X60.122 Y54.110
G1 X60.122 Y56.114
G1 X58.118 Y56.114
G1 X58.118 Y54.110
G1 X60.122 Y58.118
G1 X60.122 Y60.122
G1 X58.118 Y60.122
G1 X58.118 Y58.118
G1 X60.122 Y62.126
G1 X60.122 Y64.130
G1 X58.118 Y64.130
G1 X58.118 Y62.126
G1 X60.122 Y66.134
G1 X60.122 Y68.138
G1 X58.118 Y68.138
G1 X58.118 Y66.134
G1 X60.122 Y70.142
G1 X60.122 Y72.147
G1 X58.118 Y72.147
G1 X58.118 Y70.142
G1 X60.122 Y74.151
G1 X60.122 Y76.155
G1 X58.118 Y76.155
G1 X58.118 Y74.151
G1 X60.122 Y78.159
G1 X60.122 Y80.163
G1 X58.118 Y80.163
G1 X58.118 Y78.159
G1 X60.122 Y82.167
G1 X60.122 Y84.171
G1 X58.118 Y84.171
G1 X58.118 Y82.167
G1 X60.122 Y86.175
G1 X60.122 Y88.179
G1 X58.118 Y88.179
G1 X58.118 Y86.175
G1 X64.130 Y10.020
G1 X64.130 Y12.024
G1 X62.126 Y12.024
G1 X62.126 Y10.020
G1 X64.130 Y14.028
G1 X64.130 Y16.033
G1 X62.126 Y16.033
G1 X62.126 Y14.028
G1 X64.130 Y18.037
G1 X64.130 Y20.041
G1 X62.126 Y20.041
G1 X62.126 Y18.037
G1 X64.130 Y22.045
G1 X64.130 Y24.049
G1 X62.126 Y24.049
G1 X62.126 Y22.045
G1 X64.130 Y26.053
G1 X64.130 Y28.057
G1 X62.126 Y28.057
G1 X62.126 Y26.053
G1 X64.130 Y30.061
G1 X64.130 Y32.065
G1 X62.126 Y32.065
G1 X62.126 Y30.061
G1 X64.130 Y34.069
G1 X64.130 Y36.073
G1 X62.126 Y36.073
G1 X62.126 Y34.069
G1 X64.130 Y38.077
G1 X64.130 Y40.081
G1 X62.126 Y40.081
G1 X62.126 Y38.077
G1 X64.130 Y42.085
G1 X64.130 Y44.090
G1 X62.126 Y44.090
G1 X62.126 Y42.085
G1 X64.130 Y46.094
G1 X64.130 Y48.098
G1 X62.126 Y48.098
G1 X62.126 Y46.094
G1 X64.130 Y50.102
G1 X64.130 Y52.106
G1 X62.126 Y52.106
G1 X62.126 Y50.102
G1 X64.130 Y54.110
G1 X64.130 Y56.114
G1 X62.126 Y56.114
G1 X62.126 Y54.110
G1 X64.130 Y58.118
G1 X64.130 Y60.122
G1 X62.126 Y60.122
G1 X62.126 Y58.118
G1 X64.130 Y62.126
G1 X64.130 Y64.130
G1 X62.126 Y64.130
G1 X62.126 Y62.126
G1 X64.130 Y66.134
G1 X64.130 Y68.138
G1 X62.126 Y68.138
G1 X62.126 Y66.134
G1 X64.130 Y70.142
G1 X64.130 Y72.147
G1 X62.126 Y72.147
G1 X62.126 Y70.142
G1 X64.130 Y74.151
G1 X64.130 Y76.155
G1 X62.126 Y76.155
G1 X62.126 Y74.151
G1 X64.130 Y78.159
G1 X64.130 Y80.163
G1 X62.126 Y80.163
G1 X62.126 Y78.159
G1 X64.130 Y82.167
G1 X64.130 Y84.171
G1 X62.126 Y84.171
G1 X62.126 Y82.167
G1 X64.130 Y86.175
G1 X64.130 Y88.179
G1 X62.126 Y88.179
G1 X62.126 Y86.175
G1 X68.138 Y10.020
G1 X68.138 Y12.024
G1 X66.134 Y12.024
G1 X66.134 Y10.020
G1 X68.138 Y14.028
G1 X68.138 Y16.033
G1 X66.134 Y16.033
G1 X66.134 Y14.028
G1 X68.138 Y18.037
G1 X68.138 Y20.041
G1 X66.134 Y20.041
G1 X66.134 Y18.037
G1 X68.138 Y22.045
G1 X68.138 Y24.049
G1 X66.134 Y24.049
G1 X66.134 Y22.045
G1 X68.138 Y26.053
G1 X68.138 Y28.057
G1 X66.134 Y28.057
G1 X66.134 Y26.053
G1 X68.138 Y30.061
G1 X68.138 Y32.065
G1 X66.134 Y32.065
G1 X66.134 Y30.061
G1 X68.138 Y34.069
G1 X68.138 Y36.073
G1 X66.134 Y36.073
G1 X66.134 Y34.069
G1 X68.138 Y38.077
G1 X68.138 Y40.081
G1 X66.134 Y40.081
G1 X66.134 Y38.077
G1 X68.138 Y42.085
G1 X68.138 Y44.090
G1 X66.134 Y44.090
G1 X66.134 Y42.085
G1 X68.138 Y46.094
G1 X68.138 Y48.098
G1 X66.134 Y48.098
G1 X66.134 Y46.094
G1 X68.138 Y50.102
G1 X68.138 Y52.106
G1 X66.134 Y52.106
G1 X66.134 Y50.102
G1 X68.138 Y54.110
G1 X68.138 Y56.114
G1 X66.134 Y56.114
G1 X66.134 Y54.110
G1 X68.138 Y58.118
G1 X68.138 Y60.122
G1 X66.134 Y60.122
G1 X66.134 Y58.118
G1 X68.138 Y62.126
G1 X68.138 Y64.130
G1 X66.134 Y64.130
G1 X66.134 Y62.126
G1 X68.138 Y66.134
G1 X68.138 Y68.138
G1 X66.134 Y68.138
G1 X66.134 Y66.134
G1 X68.138 Y70.142
G1 X68.138 Y72.147
G1 X66.134 Y72.147
G1 X66.134 Y70.142
G1 X68.138 Y74.151
G1 X68.138 Y76.155
G1 X66.134 Y76.155
G1 X66.134 Y74.151
G1 X68.138 Y78.159
G1 X68.138 Y80.163
G1 X66.134 Y80.163
G1 X66.134 Y78.159
G1 X68.138 Y82.167
G1 X68.138 Y84.171
G1 X66.134 Y84.171
G1 X66.134 Y82.167
G1 X68.138 Y86.175
G1 X68.138 Y88.179
G1 X66.134 Y88.179
G1 X66.134 Y86.175
G1 X72.147 Y10.020
G1 X72.147 Y12.024
G1 X70.142 Y12.024
G1 X70.142 Y10.020
G1 X72.147 Y14.028
G1 X72.147 Y16.033
G1 X70.142 Y16.033
G1 X70.142 Y14.028
G1 X72.147 Y18.037
G1 X72.147 Y20.041
G1 X70.142 Y20.041
G1 X70.142 Y18.037
G1 X72.147 Y22.045
G1 X72.147 Y24.049
G1 X70.142 Y24.049
G1 X70.142 Y22.045
G1 X72.147 Y26.053
G1 X72.147 Y28.057
G1 X70.142 Y28.057
G1 X70.142 Y26.053
G1 X72.147 Y30.061
G1 X72.147 Y32.065
G1 X70.142 Y32.065
G1 X70.142 Y30.061
G1 X72.147 Y34.069
G1 X72.147 Y36.073
G1 X70.142 Y36.073
G1 X70.142 Y34.069
G1 X72.147 Y38.077
G1 X72.147 Y40.081
G1 X70.142 Y40.081
G1 X70.142 Y38.077
G1 X72.147 Y42.085
G1 X72.147 Y44.090
G1 X70.142 Y44.090
G1 X70.142 Y42.085
G1 X72.147 Y46.094
G1 X72.147 Y48.098
G1 X70.142 Y48.098
G1 X70.142 Y46.094
G1 X72.147 Y50.102
G1 X72.147 Y52.106
G1 X70.142 Y52.106
G1 X70.142 Y50.102
G1 X72.147 Y54.110
G1 X72.147 Y56.114
G1 X70.142 Y56.114
G1 X70.142 Y54.110
G1 X72.147 Y58.118
G1 X72.147 Y60.122
G1 X70.142 Y60.122
G1 X70.142 Y58.118
G1 X72.147 Y62.126
G1 X72.147 Y64.130
G1 X70.142 Y64.130
G1 X70.142 Y62.126
G1 X72.147 Y66.134
G1 X72.147 Y68.138
G1 X70.142 Y68.138
G1 X70.142 Y66.134
G1 X72.147 Y70.142
G1 X72.147 Y72.147
G1 X70.142 Y72.147
G1 X70.142 Y70.142
G1 X72.147 Y74.151
G1 X72.147 Y76.155
G1 X70.142 Y76.155
G1 X70.142 Y74.151
G1 X72.147 Y78.159
G1 X72.147 Y80.163
G1 X70.142 Y80.163
G1 X70.142 Y78.159
G1 X72.147 Y82.167
G1 X72.147 Y84.171
G1 X70.142 Y84.171
G1 X70.142 Y82.167
G1 X72.147 Y86.175
G1 X72.147 Y88.179
G1 X70.142 Y88.179
G1 X70.142 Y86.175
G1 X76.155 Y10.020
G1 X76.155 Y12.024
G1 X74.151 Y12.024
G1 X74.151 Y10.020
G1 X76.155 Y14.028
G1 X76.155 Y16.033
G1 X74.151 Y16.033
G1 X74.151 Y14.028
G1 X76.155 Y18.037
G1 X76.155 Y20.041
G1 X74.151 Y20.041
G1 X74.151 Y18.037
G1 X76.155 Y22.045
G1 X76.155 Y24.049
G1 X74.151 Y24.049
G1 X74.151 Y22.045
G1 X76.155 Y26.053
G1 X76.155 Y28.057
G1 X74.151 Y28.057
G1 X74.151 Y26.053
G1 X76.155 Y30.061
G1 X76.155 Y32.065
G1 X74.151 Y32.065
G1 X74.151 Y30.061
G1 X76.155 Y34.069
G1 X76.155 Y36.073
G1 X74.151 Y36.073
G1 X74.151 Y34.069
G1 X76.155 Y38.077
G1 X76.155 Y40.081
G1 X74.151 Y40.081
G1 X74.151 Y38.077
G1 X76.155 Y42.085
G1 X76.155 Y44.090
G1 X74.151 Y44.090
G1 X74.151 Y42.085
G1 X76.155 Y46.094
G1 X76.155 Y48.098
G1 X74.151 Y48.098
G1 X74.151 Y46.094
G1 X76.155 Y50.102
G1 X76.155 Y52.106
G1 X74.151 Y52.106
G1 X74.151 Y50.102
G1 X76.155 Y54.110
G1 X76.155 Y56.114
G1 X74.151 Y56.114
G1 X74.151 Y54.110
G1 X76.155 Y58.118
G1 X76.155 Y60.122
G1 X74.151 Y60.122
G1 X74.151 Y58.118
G1 X76.155 Y62.126
G1 X76.155 Y64.130
G1 X74.151 Y64.130
G1 X74.151 Y62.126
G1 X76.155 Y66.134
G1 X76.155 Y68.138
G1 X74.151 Y68.138
G1 X74.151 Y66.134
G1 X76.155 Y70.142
G1 X76.155 Y72.147
G1 X74.151 Y72.147
G1 X74.151 Y70.142
G1 X76.155 Y74.151
G1 X76.155 Y76.155
G1 X74.151 Y76.155
G1 X74.151 Y74.151
G1 X76.155 Y78.159
G1 X76.155 Y80.163
G1 X74.151 Y80.163
G1 X74.151 Y78.159
G1 X76.155 Y82.167
G1 X76.155 Y84.171
G1 X74.151 Y84.171
G1 X74.151 Y82.167
G1 X76.155 Y86.175
G1 X76.155 Y88.179
G1 X74.151 Y88.179
G1 X74.151 Y86.175
G1 X80.163 Y10.020
G1 X80.163 Y12.024
G1 X78.159 Y12.024
G1 X78.159 Y10.020
G1 X80.163 Y14.028
G1 X80.163 Y16.033
G1 X78.159 Y16.033
G1 X78.159 Y14.028
G1 X80.163 Y18.037
G1 X80.163 Y20.041
G1 X78.159 Y20.041
G1 X78.159 Y18.037
G1 X80.163 Y22.045
G1 X80.163 Y24.049
G1 X78.159 Y24.049
G1 X78.159 Y22.045
G1 X80.163 Y26.053
G1 X80.163 Y28.057
G1 X78.159 Y28.057
G1 X78.159 Y26.053
G1 X80.163 Y30.061
G1 X80.163 Y32.065
G1 X78.159 Y32.065
G1 X78.159 Y30.061
G1 X80.163 Y34.069
G1 X80.163 Y36.073
G1 X78.159 Y36.073
G1 X78.159 Y34.069
G1 X80.163 Y38.077
G1 X80.163 Y40.081
G1 X78.159 Y40.081
G1 X78.159 Y38.077
G1 X80.163 Y42.085
G1 X80.163 Y44.090
G1 X78.159 Y44.090
G1 X78.159 Y42.085
G1 X80.163 Y46.094
G1 X80.163 Y48.098
G1 X78.159 Y48.098
G1 X78.159 Y46.094
G1 X80.163 Y50.102
G1 X80.163 Y52.106
G1 X78.159 Y52.106
G1 X78.159 Y50.102
G1 X80.163 Y54.110
G1 X80.163 Y56.114
G1 X78.159 Y56.114
G1 X78.159 Y54.110
G1 X80.163 Y58.118
G1 X80.163 Y60.122
G1 X78.159 Y60.122
G1 X78.159 Y58.118
G1 X80.163 Y62.126
G1 X80.163 Y64.130
G1 X78.159 Y64.130
G1 X78.159 Y62.126
G1 X80.163 Y66.134
G1 X80.163 Y68.138
G1 X78.159 Y68.138
G1 X78.159 Y66.134
G1 X80.163 Y70.142
G1 X80.163 Y72.147
G1 X78.159 Y72.147
G1 X78.159 Y70.142
G1 X80.163 Y74.151
G1 X80.163 Y76.155
G1 X78.159 Y76.155
G1 X78.159 Y74.151
G1 X80.163 Y78.159
G1 X80.163 Y80.163
G1 X78.159 Y80.163
G1 X78.159 Y78.159
G1 X80.163 Y82.167
G1 X80.163 Y84.171
G1 X78.159 Y84.171
G1 X78.159 Y82.167
G1 X80.163 Y86.175
G1 X80.163 Y88.179
G1 X78.159 Y88.179
G1 X78.159 Y86.175
G1 X84.171 Y10.020
G1 X84.171 Y12.024
G1 X82.167 Y12.024
G1 X82.167 Y10.020
G1 X84.171 Y14.028
G1 X84.171 Y16.033
G1 X82.167 Y16.033
G1 X82.167 Y14.028
G1 X84.171 Y18.037
G1 X84.171 Y20.041
G1 X82.167 Y20.041
G1 X82.167 Y18.037
G1 X84.171 Y22.045
G1 X84.171 Y24.049
G1 X82.167 Y24.049
G1 X82.167 Y22.045
G1 X84.171 Y26.053
G1 X84.171 Y28.057
G1 X82.167 Y28.057
G1 X82.167 Y26.053
G1 X84.171 Y30.061
G1 X84.171 Y32.065
G1 X82.167 Y32.065
G1 X82.167 Y30.061
G1 X84.171 Y34.069
G1 X84.171 Y36.073
G1 X82.167 Y36.073
G1 X82.167 Y34.069
G1 X84.171 Y38.077
G1 X84.171 Y40.081
G1 X82.167 Y40.081
G1 X82.167 Y38.077
G1 X84.171 Y42.085
G1 X84.171 Y44.090
G1 X82.167 Y44.090
G1 X82.167 Y42.085
G1 X84.171 Y46.094
G1 X84.171 Y48.098
G1 X82.167 Y48.098
G1 X82.167 Y46.094
G1 X84.171 Y50.102
G1 X84.171 Y52.106
G1 X82.167 Y52.106
G1 X82.167 Y50.102
G1 X84.171 Y54.110
G1 X84.171 Y56.114
G1 X82.167 Y56.114
G1 X82.167 Y54.110
G1 X84.171 Y58.118
G1 X84.171 Y60.122
G1 X82.167 Y60.122
G1 X82.167 Y58.118
G1 X84.171 Y62.126
G1 X84.171 Y64.130
G1 X82.167 Y64.130
G1 X82.167 Y62.126
G1 X84.171 Y66.134
G1 X84.171 Y68.138
G1 X82.167 Y68.138
G1 X82.167 Y66.134
G1 X84.171 Y70.142
G1 X84.171 Y72.147
G1 X82.167 Y72.147
G1 X82.167 Y70.142
G1 X84.171 Y74.151
G1 X84.171 Y76.155
G1 X82.167 Y76.155
G1 X82.167 Y74.151
G1 X84.171 Y78.159
G1 X84.171 Y80.163
G1 X82.167 Y80.163
G1 X82.167 Y78.159
G1 X84.171 Y82.167
G1 X84.171 Y84.171
G1 X82.167 Y84.171
G1 X82.167 Y82.167
G1 X84.171 Y86.175
G1 X84.171 Y88.179
G1 X82.167 Y88.179
G1 X82.167 Y86.175
G1 X88.179 Y10.020
G1 X88.179 Y12.024
G1 X86.175 Y12.024
G1 X86.175 Y10.020
G1 X88.179 Y14.028
G1 X88.179 Y16.033
G1 X86.175 Y16.033
G1 X86.175 Y14.028
G1 X88.179 Y18.037
G1 X88.179 Y20.041
G1 X86.175 Y20.041
G1 X86.175 Y18.037
G1 X88.179 Y22.045
G1 X88.179 Y24.049
G1 X86.175 Y24.049
G1 X86.175 Y22.045
G1 X88.179 Y26.053
G1 X88.179 Y28.057
G1 X86.175 Y28.057
G1 X86.175 Y26.053
G1 X88.179 Y30.061
G1 X88.179 Y32.065
G1 X86.175 Y32.065
G1 X86.175 Y30.061
G1 X88.179 Y34.069
G1 X88.179 Y36.073
G1 X86.175 Y36.073
G1 X86.175 Y34.069
G1 X88.179 Y38.077
G1 X88.179 Y40.081
G1 X86.175 Y40.081
G1 X86.175 Y38.077
G1 X88.179 Y42.085
G1 X88.179 Y44.090
G1 X86.175 Y44.090
G1 X86.175 Y42.085
G1 X88.179 Y46.094
G1 X88.179 Y48.098
G1 X86.175 Y48.098
G1 X86.175 Y46.094
G1 X88.179 Y50.102
G1 X88.179 Y52.106
G1 X86.175 Y52.106
G1 X86.175 Y50.102
G1 X88.179 Y54.110
G1 X88.179 Y56.114
G1 X86.175 Y56.114
G1 X86.175 Y54.110
G1 X88.179 Y58.118
G1 X88.179 Y60.122
G1 X86.175 Y60.122
G1 X86.175 Y58.118
G1 X88.179 Y62.126
G1 X88.179 Y64.130
G1 X86.175 Y64.130
G1 X86.175 Y62.126
G1 X88.179 Y66.134
G1 X88.179 Y68.138
G1 X86.175 Y68.138
G1 X86.175 Y66.134
G1 X88.179 Y70.142
G1 X88.179 Y72.147
G1 X86.175 Y72.147
G1 X86.175 Y70.142
G1 X88.179 Y74.151
G1 X88.179 Y76.155
G1 X86.175 Y76.155
G1 X86.175 Y74.151
G1 X88.179 Y78.159
G1 X88.179 Y80.163
G1 X86.175 Y80.163
G1 X86.175 Y78.159
G1 X88.179 Y82.167
G1 X88.179 Y84.171
G1 X86.175 Y84.171
G1 X86.175 Y82.167
G1 X88.179 Y86.175
G1 X88.179 Y88.179
G1 X86.175 Y88.179
G1 X86.175 Y86.175
G0 Z26.053
M5

; ===== TOOL CHANGE TO T3 =====
G0 Z26.053
G0 X0.000 Y0.000
M5
G4 P3.0
M6 T3  ; Change to Tool 3 - 1/8 V-Bit
G4 P5.0

; ===== SPIRAL PATTERN - 1500 operations =====
M3 S21875
G4 P2.0
G0 X150.305 Y50.102
G1 Z0.501 F300
G1 X150.325 Y50.103 F1000
G1 X150.345 Y50.107
G1 X150.364 Y50.113
G1 X150.383 Y50.122
G1 X150.401 Y50.133
G1 X150.417 Y50.146
G1 X150.432 Y50.161
G1 X150.446 Y50.179
G1 X150.458 Y50.198
G1 X150.467 Y50.220
G1 X150.475 Y50.242
G1 X150.481 Y50.266
G1 X150.484 Y50.292
G1 X150.484 Y50.318
G1 X150.482 Y50.345
G1 X150.477 Y50.373
G1 X150.469 Y50.400
G1 X150.459 Y50.428
G1 X150.445 Y50.456
G1 X150.429 Y50.483
G1 X150.410 Y50.509
G1 X150.388 Y50.535
G1 X150.363 Y50.559
G1 X150.335 Y50.582
G1 X150.305 Y50.603
G1 X150.273 Y50.622
G1 X150.237 Y50.639
G1 X150.200 Y50.653
G1 X150.161 Y50.665
G1 X150.120 Y50.674
G1 X150.077 Y50.679
G1 X150.032 Y50.682
G1 X149.987 Y50.681
G1 X149.940 Y50.677
G1 X149.893 Y50.669
G1 X149.845 Y50.658
G1 X149.798 Y50.642
G1 X149.750 Y50.623
G1 X149.703 Y50.600
G1 X149.657 Y50.573
G1 X149.612 Y50.542
G1 X149.568 Y50.507
G1 X149.526 Y50.469
G1 X149.485 Y50.426
G1 X149.448 Y50.380
G1 X149.412 Y50.331
G1 X149.380 Y50.278
G1 X149.351 Y50.222
G1 X149.325 Y50.163
G1 X149.303 Y50.102
G1 X149.285 Y50.038
G1 X149.271 Y49.971
G1 X149.262 Y49.903
G1 X149.257 Y49.833
G1 X149.257 Y49.761
G1 X149.262 Y49.689
G1 X149.272 Y49.615
G1 X149.287 Y49.542
G1 X149.307 Y49.468
G1 X149.333 Y49.395
G1 X149.363 Y49.323
G1 X149.400 Y49.251
G1 X149.441 Y49.181
G1 X149.488 Y49.114
G1 X149.540 Y49.048
G1 X149.597 Y48.985
G1 X149.658 Y48.925
G1 X149.725 Y48.869
G1 X149.796 Y48.816
G1 X149.872 Y48.768
G1 X149.951 Y48.724
G1 X150.035 Y48.684
G1 X150.122 Y48.650
G1 X150.212 Y48.622
G1 X150.305 Y48.599
G1 X150.401 Y48.582
G1 X150.499 Y48.571
G1 X150.598 Y48.566
G1 X150.699 Y48.568
G1 X150.801 Y48.577
G1 X150.903 Y48.592
G1 X151.005 Y48.615
G1 X151.107 Y48.644
G1 X151.207 Y48.680
G1 X151.307 Y48.724
G1 X151.404 Y48.774
G1 X151.499 Y48.831
G1 X151.591 Y48.895
G1 X151.680 Y48.965
G1 X151.764 Y49.042
G1 X151.845 Y49.125
G1 X151.921 Y49.214
G1 X151.992 Y49.308
G1 X152.057 Y49.408
G1 X152.116 Y49.513
G1 X152.169 Y49.623
G1 X152.215 Y49.738
G1 X152.254 Y49.856
G1 X152.285 Y49.977
G1 X152.309 Y50.102
G1 X152.325 Y50.229
G1 X152.333 Y50.358
G1 X152.333 Y50.489
G1 X152.324 Y50.620
G1 X152.307 Y50.752
G1 X152.280 Y50.884
G1 X152.246 Y51.015
G1 X152.202 Y51.144
G1 X152.150 Y51.272
G1 X152.089 Y51.398
G1 X152.019 Y51.520
G1 X151.942 Y51.638
G1 X151.856 Y51.753
G1 X151.762 Y51.862
G1 X151.660 Y51.966
G1 X151.551 Y52.065
G1 X151.435 Y52.156
G1 X151.312 Y52.242
G1 X151.183 Y52.319
G1 X151.048 Y52.389
G1 X150.908 Y52.451
G1 X150.763 Y52.503
G1 X150.614 Y52.547
G1 X150.461 Y52.582
G1 X150.305 Y52.607
G1 X150.147 Y52.622
G1 X149.986 Y52.627
G1 X149.825 Y52.622
G1 X149.662 Y52.606
G1 X149.500 Y52.580
G1 X149.339 Y52.543
G1 X149.179 Y52.495
G1 X149.021 Y52.437
G1 X148.866 Y52.369
G1 X148.715 Y52.291
G1 X148.568 Y52.202
G1 X148.426 Y52.103
G1 X148.289 Y51.995
G1 X148.159 Y51.877
G1 X148.035 Y51.751
G1 X147.919 Y51.616
G1 X147.812 Y51.473
G1 X147.712 Y51.322
G1 X147.622 Y51.164
G1 X147.542 Y51.000
G1 X147.471 Y50.829
G1 X147.411 Y50.654
G1 X147.363 Y50.474
G1 X147.325 Y50.289
G1 X147.299 Y50.102
G1 X147.285 Y49.912
G1 X147.283 Y49.720
G1 X147.293 Y49.527
G1 X147.316 Y49.334
G1 X147.351 Y49.142
G1 X147.398 Y48.951
G1 X147.458 Y48.762
G1 X147.531 Y48.576
G1 X147.615 Y48.394
G1 X147.711 Y48.217
G1 X147.819 Y48.045
G1 X147.939 Y47.879
G1 X148.069 Y47.720
G1 X148.210 Y47.569
G1 X148.362 Y47.427
G1 X148.523 Y47.293
G1 X148.693 Y47.169
G1 X148.872 Y47.055
G1 X149.059 Y46.953
G1 X149.253 Y46.862
G1 X149.453 Y46.782
G1 X149.659 Y46.716
G1 X149.871 Y46.662
G1 X150.086 Y46.622
G1 X150.305 Y46.595
G1 X150.527 Y46.582
G1 X150.750 Y46.583
G1 X150.974 Y46.598
G1 X151.197 Y46.627
G1 X151.420 Y46.671
G1 X151.641 Y46.729
G1 X151.858 Y46.801
G1 X152.072 Y46.888
G1 X152.281 Y46.988
G1 X152.485 Y47.102
G1 X152.681 Y47.230
G1 X152.871 Y47.370
G1 X153.052 Y47.523
G1 X153.224 Y47.687
G1 X153.386 Y47.864
G1 X153.537 Y48.051
G1 X153.677 Y48.248
G1 X153.805 Y48.455
G1 X153.920 Y48.671
G1 X154.022 Y48.894
G1 X154.110 Y49.125
G1 X154.183 Y49.362
G1 X154.242 Y49.604
G1 X154.286 Y49.851
G1 X154.313 Y50.102
G1 X154.326 Y50.355
G1 X154.322 Y50.609
G1 X154.302 Y50.864
G1 X154.265 Y51.118
G1 X154.213 Y51.371
G1 X154.144 Y51.622
G1 X154.059 Y51.868
G1 X153.958 Y52.110
G1 X153.842 Y52.346
G1 X153.710 Y52.575
G1 X153.563 Y52.797
G1 X153.402 Y53.010
G1 X153.227 Y53.213
G1 X153.039 Y53.406
G1 X152.838 Y53.588
G1 X152.625 Y53.757
G1 X152.400 Y53.913
G1 X152.165 Y54.055
G1 X151.921 Y54.182
G1 X151.668 Y54.295
G1 X151.407 Y54.392
G1 X151.139 Y54.472
G1 X150.865 Y54.536
G1 X150.587 Y54.582
G1 X150.305 Y54.611
G1 X150.021 Y54.622
G1 X149.735 Y54.615
G1 X149.449 Y54.590
G1 X149.164 Y54.547
G1 X148.881 Y54.486
G1 X148.601 Y54.406
G1 X148.326 Y54.309
G1 X148.056 Y54.194
G1 X147.793 Y54.061
G1 X147.537 Y53.912
G1 X147.291 Y53.746
G1 X147.054 Y53.564
G1 X146.828 Y53.367
G1 X146.615 Y53.155
G1 X146.414 Y52.929
G1 X146.227 Y52.690
G1 X146.055 Y52.438
G1 X145.899 Y52.175
G1 X145.759 Y51.902
G1 X145.636 Y51.619
G1 X145.530 Y51.328
G1 X145.443 Y51.029
G1 X145.374 Y50.725
G1 X145.325 Y50.415
G1 X145.295 Y50.102
G1 X145.285 Y49.786
G1 X145.295 Y49.469
G1 X145.325 Y49.152
G1 X145.375 Y48.836
G1 X145.445 Y48.523
G1 X145.535 Y48.213
G1 X145.645 Y47.909
G1 X145.774 Y47.611
G1 X145.923 Y47.321
G1 X146.090 Y47.039
G1 X146.275 Y46.768
G1 X146.478 Y46.507
G1 X146.697 Y46.260
G1 X146.933 Y46.025
G1 X147.184 Y45.805
G1 X147.449 Y45.601
G1 X147.727 Y45.413
G1 X148.018 Y45.242
G1 X148.321 Y45.089
G1 X148.633 Y44.956
G1 X148.955 Y44.841
G1 X149.284 Y44.747
G1 X149.620 Y44.674
G1 X149.961 Y44.621
G1 X150.305 Y44.591
G1 X150.653 Y44.581
G1 X151.001 Y44.594
G1 X151.349 Y44.629
G1 X151.696 Y44.686
G1 X152.039 Y44.765
G1 X152.378 Y44.866
G1 X152.712 Y44.988
G1 X153.038 Y45.132
G1 X153.355 Y45.296
G1 X153.662 Y45.481
G1 X153.959 Y45.685
G1 X154.243 Y45.909
G1 X154.513 Y46.151
G1 X154.768 Y46.410
G1 X155.007 Y46.686
G1 X155.229 Y46.977
G1 X155.433 Y47.283
G1 X155.618 Y47.602
G1 X155.784 Y47.933
G1 X155.928 Y48.275
G1 X156.051 Y48.627
G1 X156.152 Y48.986
G1 X156.230 Y49.353
G1 X156.286 Y49.726
G1 X156.318 Y50.102
G1 X156.326 Y50.481
G1 X156.310 Y50.860
G1 X156.270 Y51.240
G1 X156.206 Y51.617
G1 X156.119 Y51.991
G1 X156.007 Y52.359
G1 X155.872 Y52.721
G1 X155.714 Y53.075
G1 X155.534 Y53.420
G1 X155.331 Y53.753
G1 X155.108 Y54.075
G1 X154.863 Y54.382
G1 X154.599 Y54.674
G1 X154.316 Y54.950
G1 X154.016 Y55.209
G1 X153.699 Y55.449
G1 X153.366 Y55.669
G1 X153.019 Y55.868
G1 X152.659 Y56.046
G1 X152.287 Y56.201
G1 X151.905 Y56.333
G1 X151.514 Y56.441
G1 X151.117 Y56.524
G1 X150.713 Y56.582
G1 X150.305 Y56.615
G1 X149.895 Y56.622
G1 X149.484 Y56.603
G1 X149.074 Y56.559
G1 X148.666 Y56.488
G1 X148.262 Y56.392
G1 X147.863 Y56.269
G1 X147.472 Y56.122
G1 X147.090 Y55.950
G1 X146.719 Y55.753
G1 X146.359 Y55.533
G1 X146.013 Y55.290
G1 X145.682 Y55.025
G1 X145.367 Y54.739
G1 X145.071 Y54.432
G1 X144.793 Y54.107
G1 X144.535 Y53.764
G1 X144.299 Y53.404
G1 X144.086 Y53.029
G1 X143.895 Y52.640
G1 X143.730 Y52.238
G1 X143.589 Y51.826
G1 X143.474 Y51.405
G1 X143.386 Y50.976
G1 X143.325 Y50.541
G1 X143.291 Y50.102
G1 X143.285 Y49.660
G1 X143.307 Y49.218
G1 X143.356 Y48.776
G1 X143.434 Y48.337
G1 X143.539 Y47.903
G1 X143.672 Y47.475
G1 X143.832 Y47.056
G1 X144.018 Y46.645
G1 X144.231 Y46.247
G1 X144.469 Y45.861
G1 X144.731 Y45.490
G1 X145.017 Y45.136
G1 X145.325 Y44.799
G1 X145.655 Y44.481
G1 X146.006 Y44.184
G1 X146.375 Y43.909
G1 X146.762 Y43.657
G1 X147.165 Y43.429
G1 X147.583 Y43.226
G1 X148.014 Y43.050
G1 X148.456 Y42.900
G1 X148.908 Y42.779
G1 X149.368 Y42.686
G1 X149.835 Y42.621
G1 X150.305 Y42.587
G1 X150.778 Y42.581
G1 X151.252 Y42.606
G1 X151.725 Y42.661
G1 X152.194 Y42.745
G1 X152.659 Y42.859
G1 X153.116 Y43.002
G1 X153.565 Y43.175
G1 X154.003 Y43.376
G1 X154.429 Y43.604
G1 X154.840 Y43.860
G1 X155.236 Y44.141
G1 X155.614 Y44.448
G1 X155.974 Y44.779
G1 X156.312 Y45.133
G1 X156.628 Y45.508
G1 X156.921 Y45.903
G1 X157.190 Y46.317
G1 X157.432 Y46.748
G1 X157.647 Y47.195
G1 X157.834 Y47.656
G1 X157.992 Y48.128
G1 X158.121 Y48.611
G1 X158.219 Y49.102
G1 X158.286 Y49.600
G1 X158.322 Y50.102
G1 X158.326 Y50.606
G1 X158.298 Y51.111
G1 X158.239 Y51.615
G1 X158.147 Y52.115
G1 X158.025 Y52.610
G1 X157.870 Y53.097
G1 X157.686 Y53.575
G1 X157.471 Y54.041
G1 X157.226 Y54.494
G1 X156.953 Y54.931
G1 X156.652 Y55.352
G1 X156.324 Y55.754
G1 X155.971 Y56.135
G1 X155.594 Y56.495
G1 X155.194 Y56.830
G1 X154.772 Y57.141
G1 X154.331 Y57.425
G1 X153.872 Y57.682
G1 X153.396 Y57.909
G1 X152.906 Y58.107
G1 X152.404 Y58.274
G1 X151.890 Y58.409
G1 X151.368 Y58.512
G1 X150.839 Y58.582
G1 X150.305 Y58.619
G1 X149.769 Y58.622
G1 X149.233 Y58.592
G1 X148.698 Y58.527
G1 X148.167 Y58.429
G1 X147.642 Y58.297
G1 X147.126 Y58.133
G1 X146.619 Y57.935
G1 X146.125 Y57.706
G1 X145.645 Y57.445
G1 X145.181 Y57.155
G1 X144.736 Y56.834
G1 X144.310 Y56.486
G1 X143.907 Y56.111
G1 X143.526 Y55.710
G1 X143.171 Y55.285
G1 X142.843 Y54.837
G1 X142.543 Y54.369
G1 X142.272 Y53.882
G1 X142.032 Y53.377
G1 X141.824 Y52.858
G1 X141.648 Y52.325
G1 X141.506 Y51.780
G1 X141.398 Y51.227
G1 X141.325 Y50.667
G1 X141.287 Y50.102
G1 X141.285 Y49.534
G1 X141.318 Y48.966
G1 X141.388 Y48.401
G1 X141.493 Y47.839
G1 X141.633 Y47.284
G1 X141.808 Y46.738
G1 X142.018 Y46.202
G1 X142.262 Y45.680
G1 X142.539 Y45.173
G1 X142.847 Y44.683
G1 X143.187 Y44.213
G1 X143.556 Y43.764
G1 X143.953 Y43.338
G1 X144.378 Y42.937
G1 X144.828 Y42.563
G1 X145.301 Y42.217
G1 X145.797 Y41.900
G1 X146.312 Y41.615
G1 X146.845 Y41.363
G1 X147.395 Y41.144
G1 X147.958 Y40.959
G1 X148.533 Y40.810
G1 X149.117 Y40.697
G1 X149.709 Y40.621
G1 X150.305 Y40.582
G1 X150.904 Y40.581
G1 X151.503 Y40.618
G1 X152.100 Y40.692
G1 X152.693 Y40.804
G1 X153.278 Y40.953
G1 X153.854 Y41.139
G1 X154.418 Y41.361
G1 X154.969 Y41.619
G1 X155.503 Y41.912
G1 X156.018 Y42.238
G1 X156.514 Y42.597
G1 X156.986 Y42.987
G1 X157.435 Y43.407
G1 X157.856 Y43.855
G1 X158.250 Y44.330
G1 X158.613 Y44.829
G1 X158.946 Y45.352
G1 X159.245 Y45.895
G1 X159.510 Y46.457
G1 X159.740 Y47.036
G1 X159.933 Y47.630
G1 X160.089 Y48.235
G1 X160.207 Y48.851
G1 X160.286 Y49.474
G1 X160.326 Y50.102
G1 X160.326 Y50.732
G1 X160.286 Y51.363
G1 X160.207 Y51.991
G1 X160.088 Y52.614
G1 X159.931 Y53.229
G1 X159.734 Y53.835
G1 X159.499 Y54.428
G1 X159.227 Y55.006
G1 X158.918 Y55.568
G1 X158.574 Y56.109
G1 X158.196 Y56.629
G1 X157.785 Y57.126
G1 X157.343 Y57.596
G1 X156.871 Y58.039
G1 X156.372 Y58.452
G1 X155.846 Y58.833
G1 X155.297 Y59.181
G1 X154.725 Y59.495
G1 X154.134 Y59.772
G1 X153.526 Y60.013
G1 X152.902 Y60.215
G1 X152.266 Y60.378
G1 X151.619 Y60.500
G1 X150.965 Y60.582
G1 X150.305 Y60.623
G1 X149.643 Y60.622
G1 X148.982 Y60.580
G1 X148.323 Y60.496
G1 X147.669 Y60.370
G1 X147.023 Y60.203
G1 X146.388 Y59.996
G1 X145.766 Y59.749
G1 X145.159 Y59.462
G1 X144.571 Y59.138
G1 X144.003 Y58.776
G1 X143.458 Y58.378
G1 X142.938 Y57.947
G1 X142.446 Y57.482
G1 X141.982 Y56.987
G1 X141.550 Y56.463
G1 X141.151 Y55.911
G1 X140.787 Y55.335
G1 X140.459 Y54.735
G1 X140.169 Y54.115
G1 X139.918 Y53.477
G1 X139.707 Y52.823
G1 X139.537 Y52.156
G1 X139.410 Y51.478
G1 X139.325 Y50.793
G1 X139.283 Y50.102
G1 X139.285 Y49.408
G1 X139.330 Y48.715
G1 X139.419 Y48.025
G1 X139.552 Y47.341
G1 X139.727 Y46.665
G1 X139.945 Y46.000
G1 X140.205 Y45.349
G1 X140.506 Y44.714
G1 X140.846 Y44.099
G1 X141.226 Y43.505
G1 X141.643 Y42.935
G1 X142.095 Y42.392
G1 X142.582 Y41.877
G1 X143.101 Y41.393
G1 X143.650 Y40.941
G1 X144.227 Y40.525
G1 X144.831 Y40.144
G1 X145.459 Y39.802
G1 X146.108 Y39.499
G1 X146.775 Y39.238
G1 X147.459 Y39.018
G1 X148.157 Y38.842
G1 X148.866 Y38.709
G1 X149.583 Y38.621
G1 X150.305 Y38.578
G1 X151.030 Y38.581
G1 X151.755 Y38.629
G1 X152.476 Y38.723
G1 X153.191 Y38.863
G1 X153.897 Y39.047
G1 X154.592 Y39.276
G1 X155.271 Y39.548
G1 X155.934 Y39.863
G1 X156.576 Y40.220
G1 X157.196 Y40.617
G1 X157.791 Y41.053
G1 X158.358 Y41.526
G1 X158.895 Y42.035
G1 X159.400 Y42.578
G1 X159.871 Y43.152
G1 X160.306 Y43.755
G1 X160.702 Y44.386
G1 X161.058 Y45.042
G1 X161.374 Y45.720
G1 X161.646 Y46.417
G1 X161.874 Y47.131
G1 X162.058 Y47.860
G1 X162.195 Y48.600
G1 X162.286 Y49.348
G1 X162.330 Y50.102
G1 X162.326 Y50.858
G1 X162.275 Y51.614
G1 X162.176 Y52.366
G1 X162.030 Y53.112
G1 X161.837 Y53.848
G1 X161.597 Y54.573
G1 X161.312 Y55.281
G1 X160.983 Y55.972
G1 X160.610 Y56.641
G1 X160.195 Y57.287
G1 X159.740 Y57.907
G1 X159.246 Y58.498
G1 X158.715 Y59.057
G1 X158.149 Y59.583
G1 X157.550 Y60.073
G1 X156.920 Y60.525
G1 X156.262 Y60.937
G1 X155.579 Y61.308
G1 X154.872 Y61.636
G1 X154.145 Y61.919
G1 X153.400 Y62.156
G1 X152.641 Y62.346
G1 X151.870 Y62.489
G1 X151.091 Y62.582
G1 X150.305 Y62.627
G1 X149.518 Y62.622
G1 X148.730 Y62.568
G1 X147.947 Y62.464
G1 X147.170 Y62.311
G1 X146.404 Y62.109
G1 X145.650 Y61.859
G1 X144.912 Y61.562
G1 X144.194 Y61.218
G1 X143.497 Y60.830
G1 X142.825 Y60.397
G1 X142.181 Y59.923
G1 X141.566 Y59.408
G1 X140.985 Y58.854
G1 X140.438 Y58.265
G1 X139.929 Y57.641
G1 X139.459 Y56.985
G1 X139.031 Y56.300
G1 X138.646 Y55.588
G1 X138.305 Y54.853
G1 X138.012 Y54.096
G1 X137.766 Y53.321
G1 X137.569 Y52.531
G1 X137.421 Y51.729
G1 X137.325 Y50.918
G1 X137.279 Y50.102
G1 X137.285 Y49.283
G1 X137.342 Y48.464
G1 X137.451 Y47.650
G1 X137.610 Y46.842
G1 X137.821 Y46.045
G1 X138.082 Y45.262
G1 X138.392 Y44.496
G1 X138.750 Y43.749
G1 X139.154 Y43.025
G1 X139.605 Y42.327
G1 X140.098 Y41.658
G1 X140.634 Y41.020
G1 X141.210 Y40.416
G1 X141.823 Y39.849
G1 X142.472 Y39.320
G1 X143.154 Y38.832
G1 X143.866 Y38.388
G1 X144.605 Y37.989
G1 X145.370 Y37.636
G1 X146.156 Y37.332
G1 X146.961 Y37.077
G1 X147.782 Y36.873
G1 X148.615 Y36.721
G1 X149.457 Y36.621
G1 X150.305 Y36.574
G1 X151.156 Y36.581
G1 X152.006 Y36.641
G1 X152.851 Y36.755
G1 X153.689 Y36.922
G1 X154.516 Y37.141
G1 X155.329 Y37.412
G1 X156.125 Y37.735
G1 X156.899 Y38.107
G1 X157.650 Y38.528
G1 X158.374 Y38.996
G1 X159.069 Y39.509
G1 X159.730 Y40.065
G1 X160.356 Y40.663
G1 X160.945 Y41.300
G1 X161.492 Y41.974
G1 X161.998 Y42.682
G1 X162.458 Y43.421
G1 X162.872 Y44.188
G1 X163.237 Y44.982
G1 X163.552 Y45.798
G1 X163.815 Y46.633
G1 X164.026 Y47.484
G1 X164.183 Y48.349
G1 X164.286 Y49.222
G1 X164.334 Y50.102
G1 X164.326 Y50.984
G1 X164.263 Y51.865
G1 X164.144 Y52.742
G1 X163.971 Y53.610
G1 X163.742 Y54.468
G1 X163.460 Y55.310
G1 X163.126 Y56.135
G1 X162.739 Y56.937
G1 X162.302 Y57.715
G1 X161.817 Y58.465
G1 X161.284 Y59.184
G1 X160.707 Y59.870
G1 X160.087 Y60.518
G1 X159.426 Y61.127
G1 X158.728 Y61.694
G1 X157.994 Y62.217
G1 X157.228 Y62.694
G1 X156.432 Y63.122
G1 X155.610 Y63.499
G1 X154.764 Y63.825
G1 X153.899 Y64.097
G1 X153.017 Y64.315
G1 X152.121 Y64.477
G1 X151.216 Y64.583
G1 X150.305 Y64.631
G1 X149.392 Y64.623
G1 X148.479 Y64.556
G1 X147.571 Y64.433
G1 X146.672 Y64.252
G1 X145.784 Y64.015
G1 X144.912 Y63.723
G1 X144.059 Y63.375
G1 X143.228 Y62.975
G1 X142.423 Y62.522
G1 X141.647 Y62.019
G1 X140.903 Y61.467
G1 X140.195 Y60.869
G1 X139.524 Y60.226
G1 X138.894 Y59.542
G1 X138.307 Y58.819
G1 X137.767 Y58.059
G1 X137.274 Y57.266
G1 X136.832 Y56.442
G1 X136.442 Y55.591
G1 X136.106 Y54.715
G1 X135.825 Y53.820
G1 X135.600 Y52.907
G1 X135.433 Y51.981
G1 X135.324 Y51.044
G1 X135.275 Y50.102
G1 X135.284 Y49.157
G1 X135.354 Y48.213
G1 X135.482 Y47.274
G1 X135.669 Y46.344
G1 X135.915 Y45.426
G1 X136.218 Y44.524
G1 X136.578 Y43.642
G1 X136.993 Y42.784
G1 X137.462 Y41.951
G1 X137.983 Y41.149
G1 X138.554 Y40.380
G1 X139.173 Y39.648
G1 X139.838 Y38.955
G1 X140.546 Y38.304
G1 X141.294 Y37.699
G1 X142.080 Y37.140
G1 X142.900 Y36.632
G1 X143.752 Y36.175
G1 X144.632 Y35.773
G1 X145.537 Y35.426
G1 X146.463 Y35.136
G1 X147.406 Y34.904
G1 X148.364 Y34.732
G1 X149.331 Y34.621
G1 X150.305 Y34.570
G1 X151.282 Y34.581
G1 X152.257 Y34.653
G1 X153.227 Y34.786
G1 X154.188 Y34.981
G1 X155.136 Y35.235
G1 X156.067 Y35.549
G1 X156.978 Y35.921
G1 X157.865 Y36.351
G1 X158.724 Y36.836
G1 X159.552 Y37.374
G1 X160.346 Y37.965
G1 X161.102 Y38.604
G1 X161.817 Y39.291
G1 X162.489 Y40.023
G1 X163.114 Y40.796
G1 X163.690 Y41.608
G1 X164.214 Y42.455
G1 X164.685 Y43.335
G1 X165.100 Y44.244
G1 X165.458 Y45.178
G1 X165.757 Y46.135
G1 X165.995 Y47.109
G1 X166.172 Y48.097
G1 X166.286 Y49.096
G1 X166.338 Y50.102
G1 X166.326 Y51.110
G1 X166.251 Y52.116
G1 X166.113 Y53.117
G1 X165.912 Y54.109
G1 X165.648 Y55.087
G1 X165.324 Y56.048
G1 X164.939 Y56.988
G1 X164.495 Y57.903
G1 X163.994 Y58.789
G1 X163.438 Y59.643
G1 X162.828 Y60.462
G1 X162.168 Y61.241
G1 X161.459 Y61.979
G1 X160.704 Y62.671
G1 X159.906 Y63.316
G1 X159.068 Y63.909
G1 X158.193 Y64.450
G1 X157.285 Y64.935
G1 X156.347 Y65.363
G1 X155.383 Y65.731
G1 X154.397 Y66.038
G1 X153.392 Y66.283
G1 X152.372 Y66.465
G1 X151.342 Y66.583
G1 X150.305 Y66.635
G1 X149.266 Y66.623
G1 X148.228 Y66.545
G1 X147.196 Y66.402
G1 X146.174 Y66.194
G1 X145.165 Y65.921
G1 X144.175 Y65.586
G1 X143.206 Y65.189
G1 X142.263 Y64.731
G1 X141.350 Y64.214
G1 X140.469 Y63.640
G1 X139.626 Y63.011
G1 X138.823 Y62.330
G1 X138.063 Y61.598
G1 X137.350 Y60.820
G1 X136.686 Y59.997
G1 X136.075 Y59.133
G1 X135.518 Y58.231
G1 X135.019 Y57.295
G1 X134.579 Y56.328
G1 X134.200 Y55.335
G1 X133.884 Y54.318
G1 X133.631 Y53.282
G1 X133.445 Y52.232
G1 X133.324 Y51.170
G1 X133.271 Y50.102
G1 X133.284 Y49.031
G1 X133.365 Y47.962
G1 X133.513 Y46.899
G1 X133.728 Y45.845
G1 X134.009 Y44.807
G1 X134.355 Y43.787
G1 X134.765 Y42.789
G1 X135.237 Y41.818
G1 X135.770 Y40.878
G1 X136.362 Y39.971
G1 X137.010 Y39.103
G1 X137.712 Y38.276
G1 X138.466 Y37.494
G1 X139.268 Y36.760
G1 X140.116 Y36.077
G1 X141.006 Y35.448
G1 X141.935 Y34.876
G1 X142.899 Y34.362
G1 X143.894 Y33.909
G1 X144.917 Y33.520
G1 X145.964 Y33.195
G1 X147.031 Y32.936
G1 X148.113 Y32.744
G1 X149.205 Y32.621
G1 X150.305 Y32.566
G1 X151.408 Y32.581
G1 X152.508 Y32.665
G1 X153.602 Y32.818
G1 X154.686 Y33.039
G1 X155.755 Y33.329
G1 X156.805 Y33.686
G1 X157.831 Y34.108
G1 X158.830 Y34.595
G1 X159.798 Y35.144
G1 X160.730 Y35.753
G1 X161.623 Y36.420
G1 X162.474 Y37.144
G1 X163.278 Y37.919
G1 X164.033 Y38.745
G1 X164.735 Y39.618
G1 X165.382 Y40.534
G1 X165.970 Y41.490
G1 X166.498 Y42.482
G1 X166.964 Y43.506
G1 X167.364 Y44.559
G1 X167.698 Y45.636
G1 X167.963 Y46.733
G1 X168.160 Y47.846
G1 X168.286 Y48.970
G1 X168.342 Y50.102
G1 X168.326 Y51.236
G1 X168.239 Y52.367
G1 X168.082 Y53.493
G1 X167.853 Y54.607
G1 X167.554 Y55.706
G1 X167.187 Y56.786
G1 X166.752 Y57.841
G1 X166.251 Y58.868
G1 X165.686 Y59.863
G1 X165.059 Y60.821
G1 X164.373 Y61.739
G1 X163.629 Y62.613
G1 X162.831 Y63.440
G1 X161.981 Y64.215
G1 X161.084 Y64.937
G1 X160.142 Y65.601
G1 X159.159 Y66.206
G1 X158.139 Y66.748
G1 X157.085 Y67.226
G1 X156.003 Y67.637
G1 X154.895 Y67.979
G1 X153.768 Y68.252
G1 X152.624 Y68.453
G1 X151.468 Y68.583
G1 X150.305 Y68.639
G1 X149.140 Y68.623
G1 X147.977 Y68.533
G1 X146.820 Y68.370
G1 X145.675 Y68.135
G1 X144.546 Y67.827
G1 X143.437 Y67.449
G1 X142.353 Y67.002
G1 X141.297 Y66.487
G1 X140.276 Y65.906
G1 X139.291 Y65.261
G1 X138.348 Y64.555
G1 X137.451 Y63.790
G1 X136.602 Y62.970
G1 X135.806 Y62.097
G1 X135.065 Y61.175
G1 X134.383 Y60.207
G1 X133.762 Y59.196
G1 X133.206 Y58.148
G1 X132.715 Y57.066
G1 X132.294 Y55.954
G1 X131.942 Y54.817
G1 X131.663 Y53.658
G1 X131.457 Y52.483
G1 X131.324 Y51.296
G1 X131.267 Y50.102
G1 X131.284 Y48.905
G1 X131.377 Y47.711
G1 X131.545 Y46.523
G1 X131.787 Y45.347
G1 X132.103 Y44.188
G1 X132.492 Y43.049
G1 X132.952 Y41.936
G1 X133.481 Y40.853
G1 X134.078 Y39.804
G1 X134.741 Y38.793
G1 X135.466 Y37.826
G1 X136.251 Y36.904
G1 X137.094 Y36.033
G1 X137.991 Y35.216
G1 X138.938 Y34.456
G1 X139.932 Y33.756
G1 X140.969 Y33.120
G1 X142.045 Y32.549
G1 X143.157 Y32.046
G1 X144.298 Y31.614
G1 X145.466 Y31.254
G1 X146.655 Y30.967
G1 X147.861 Y30.756
G1 X149.080 Y30.621
G1 X150.305 Y30.562
G1 X151.533 Y30.581
G1 X152.759 Y30.676
G1 X153.978 Y30.849
G1 X155.185 Y31.098
G1 X156.374 Y31.423
G1 X157.543 Y31.822
G1 X158.685 Y32.295
G1 X159.796 Y32.839
G1 X160.872 Y33.452
G1 X161.908 Y34.132
G1 X162.901 Y34.876
G1 X163.846 Y35.683
G1 X164.739 Y36.548
G1 X165.577 Y37.468
G1 X166.356 Y38.440
G1 X167.074 Y39.460
G1 X167.727 Y40.524
G1 X168.312 Y41.629
G1 X168.827 Y42.769
G1 X169.270 Y43.940
G1 X169.639 Y45.138
G1 X169.932 Y46.358
G1 X170.148 Y47.595
G1 X170.286 Y48.845
G1 X170.346 Y50.102
G1 X170.326 Y51.361
G1 X170.228 Y52.619
G1 X170.050 Y53.868
G1 X169.794 Y55.106
G1 X169.460 Y56.326
G1 X169.050 Y57.524
G1 X168.566 Y58.694
G1 X168.008 Y59.834
G1 X167.379 Y60.937
G1 X166.681 Y61.999
G1 X165.917 Y63.017
G1 X165.090 Y63.985
G1 X164.202 Y64.901
G1 X163.259 Y65.760
G1 X162.262 Y66.558
G1 X161.215 Y67.293
G1 X160.124 Y67.962
G1 X158.992 Y68.562
G1 X157.823 Y69.089
G1 X156.622 Y69.543
G1 X155.394 Y69.920
G1 X154.143 Y70.221
G1 X152.875 Y70.442
G1 X151.594 Y70.583
G1 X150.305 Y70.643
G1 X149.014 Y70.623
G1 X147.726 Y70.521
G1 X146.445 Y70.339
G1 X145.177 Y70.076
G1 X143.927 Y69.733
G1 X142.699 Y69.313
G1 X141.499 Y68.815
G1 X140.332 Y68.243
G1 X139.202 Y67.598
G1 X138.113 Y66.883
G1 X137.071 Y66.099
G1 X136.079 Y65.251
G1 X135.141 Y64.342
G1 X134.261 Y63.374
G1 X133.443 Y62.353
G1 X132.691 Y61.280
G1 X132.006 Y60.162
G1 X131.392 Y59.002
G1 X130.852 Y57.804
G1 X130.388 Y56.573
G1 X130.001 Y55.315
G1 X129.694 Y54.034
G1 X129.468 Y52.734
G1 X129.324 Y51.422
G1 X129.263 Y50.102
G1 X129.284 Y48.779
G1 X129.389 Y47.459
G1 X129.576 Y46.147
G1 X129.846 Y44.849
G1 X130.197 Y43.568
G1 X130.628 Y42.311
G1 X131.138 Y41.082
G1 X131.725 Y39.887
G1 X132.386 Y38.730
G1 X133.119 Y37.615
G1 X133.922 Y36.548
G1 X134.790 Y35.532
G1 X135.722 Y34.572
G1 X136.713 Y33.672
G1 X137.760 Y32.835
G1 X138.858 Y32.064
G1 X140.004 Y31.363
G1 X141.192 Y30.735
G1 X142.419 Y30.183
G1 X143.679 Y29.708
G1 X144.968 Y29.312
G1 X146.280 Y28.999
G1 X147.610 Y28.768
G1 X148.954 Y28.621
G1 X150.305 Y28.558
G1 X151.659 Y28.581
G1 X153.010 Y28.688
G1 X154.353 Y28.881
G1 X155.683 Y29.157
G1 X156.994 Y29.517
G1 X158.280 Y29.959
G1 X159.538 Y30.481
G1 X160.761 Y31.082
G1 X161.946 Y31.759
G1 X163.086 Y32.510
G1 X164.178 Y33.332
G1 X165.218 Y34.222
G1 X166.200 Y35.176
G1 X167.121 Y36.190
G1 X167.978 Y37.262
G1 X168.766 Y38.386
G1 X169.483 Y39.559
G1 X170.125 Y40.775
G1 X170.690 Y42.031
G1 X171.176 Y43.321
G1 X171.580 Y44.639
G1 X171.901 Y45.982
G1 X172.136 Y47.344
G1 X172.287 Y48.719
G1 X172.350 Y50.102
G1 X172.327 Y51.487
G1 X172.216 Y52.870
G1 X172.019 Y54.244
G1 X171.735 Y55.604
G1 X171.366 Y56.945
G1 X170.914 Y58.261
G1 X170.379 Y59.548
G1 X169.764 Y60.799
G1 X169.071 Y62.011
G1 X168.302 Y63.177
G1 X167.461 Y64.294
G1 X166.551 Y65.357
G1 X165.574 Y66.362
G1 X164.536 Y67.304
G1 X163.440 Y68.180
G1 X162.289 Y68.986
G1 X161.090 Y69.718
G1 X159.845 Y70.375
G1 X158.561 Y70.953
G1 X157.241 Y71.449
G1 X155.892 Y71.862
G1 X154.519 Y72.189
G1 X153.126 Y72.430
G1 X151.720 Y72.583
G1 X150.305 Y72.648
G1 X148.888 Y72.623
G1 X147.475 Y72.510
G1 X146.069 Y72.307
G1 X144.678 Y72.017
G1 X143.307 Y71.639
G1 X141.961 Y71.176
G1 X140.646 Y70.629
G1 X139.367 Y69.999
G1 X138.128 Y69.290
G1 X136.935 Y68.504
G1 X135.794 Y67.643
G1 X134.707 Y66.712
G1 X133.680 Y65.714
G1 X132.717 Y64.652
G1 X131.822 Y63.531
G1 X130.999 Y62.354
G1 X130.250 Y61.127
G1 X129.579 Y59.855
G1 X128.989 Y58.542
G1 X128.482 Y57.193
G1 X128.060 Y55.813
G1 X127.726 Y54.409
G1 X127.480 Y52.985
G1 X127.324 Y51.548
G1 X127.258 Y50.102
G1 X127.284 Y48.653
G1 X127.400 Y47.208
G1 X127.608 Y45.772
G1 X127.905 Y44.350
G1 X128.291 Y42.949
G1 X128.765 Y41.573
G1 X129.325 Y40.229
G1 X129.969 Y38.922
G1 X130.694 Y37.656
G1 X131.498 Y36.437
G1 X132.378 Y35.271
G1 X133.330 Y34.161
G1 X134.350 Y33.111
G1 X135.436 Y32.128
G1 X136.582 Y31.213
G1 X137.784 Y30.372
G1 X139.038 Y29.607
G1 X140.339 Y28.922
G1 X141.681 Y28.319
G1 X143.060 Y27.802
G1 X144.469 Y27.371
G1 X145.904 Y27.030
G1 X147.359 Y26.779
G1 X148.828 Y26.620
G1 X150.305 Y26.554
G1 X151.785 Y26.580
G1 X153.262 Y26.700
G1 X154.729 Y26.912
G1 X156.181 Y27.216
G1 X157.613 Y27.611
G1 X159.018 Y28.096
G1 X160.391 Y28.668
G1 X161.727 Y29.326
G1 X163.020 Y30.067
G1 X164.264 Y30.889
G1 X165.456 Y31.788
G1 X166.590 Y32.761
G1 X167.661 Y33.804
G1 X168.665 Y34.913
G1 X169.599 Y36.084
G1 X170.458 Y37.312
G1 X171.239 Y38.593
G1 X171.938 Y39.922
G1 X172.554 Y41.293
G1 X173.082 Y42.701
G1 X173.521 Y44.141
G1 X173.869 Y45.607
G1 X174.125 Y47.093
G1 X174.287 Y48.593
G1 X174.354 Y50.102
G1 X174.327 Y51.613
G1 X174.204 Y53.121
G1 X173.987 Y54.619
G1 X173.676 Y56.102
G1 X173.272 Y57.564
G1 X172.777 Y58.999
G1 X172.192 Y60.401
G1 X171.520 Y61.765
G1 X170.763 Y63.084
G1 X169.923 Y64.355
G1 X169.005 Y65.572
G1 X168.011 Y66.729
G1 X166.946 Y67.823
G1 X165.813 Y68.848
G1 X164.618 Y69.801
G1 X163.363 Y70.678
G1 X162.055 Y71.474
G1 X160.698 Y72.188
G1 X159.298 Y72.816
G1 X157.861 Y73.355
G1 X156.391 Y73.803
G1 X154.894 Y74.158
G1 X153.377 Y74.418
G1 X151.846 Y74.583
G1 X150.305 Y74.652
G1 X148.763 Y74.623
G1 X147.223 Y74.498
G1 X145.694 Y74.276
G1 X144.180 Y73.958
G1 X142.688 Y73.545
G1 X141.224 Y73.039
G1 X139.793 Y72.442
G1 X138.401 Y71.755
G1 X137.054 Y70.982
G1 X135.757 Y70.125
G1 X134.516 Y69.188
G1 X133.335 Y68.173
G1 X132.219 Y67.086
G1 X131.173 Y65.929
G1 X130.201 Y64.709
G1 X129.306 Y63.428
G1 X128.494 Y62.093
G1 X127.766 Y60.708
G1 X127.125 Y59.279
G1 X126.576 Y57.812
G1 X126.119 Y56.312
G1 X125.757 Y54.785
G1 X125.492 Y53.236
G1 X125.324 Y51.673
G1 X125.254 Y50.102
G1 X125.284 Y48.528
G1 X125.412 Y46.957
G1 X125.639 Y45.396
G1 X125.964 Y43.852
G1 X126.385 Y42.330
G1 X126.902 Y40.836
G1 X127.512 Y39.376
G1 X128.213 Y37.956
G1 X129.002 Y36.582
G1 X129.877 Y35.259
G1 X130.833 Y33.993
G1 X131.869 Y32.789
G1 X132.978 Y31.651
G1 X134.158 Y30.584
G1 X135.404 Y29.592
G1 X136.711 Y28.680
G1 X138.073 Y27.851
G1 X139.486 Y27.109
G1 X140.943 Y26.456
G1 X142.440 Y25.896
G1 X143.971 Y25.430
G1 X145.529 Y25.062
G1 X147.108 Y24.791
G1 X148.702 Y24.620
G1 X150.305 Y24.550
G1 X151.911 Y24.580
G1 X153.513 Y24.712
G1 X155.105 Y24.943
G1 X156.680 Y25.275
G1 X158.232 Y25.705
G1 X159.756 Y26.232
G1 X161.244 Y26.855
G1 X162.692 Y27.570
G1 X164.093 Y28.375
G1 X165.442 Y29.268
G1 X166.733 Y30.244
G1 X167.961 Y31.300
G1 X169.122 Y32.432
G1 X170.210 Y33.636
G1 X171.220 Y34.906
G1 X172.150 Y36.239
G1 X172.995 Y37.628
G1 X173.752 Y39.069
G1 X174.417 Y40.555
G1 X174.988 Y42.082
G1 X175.462 Y43.643
G1 X175.838 Y45.231
G1 X176.113 Y46.841
G1 X176.287 Y48.467
G1 X176.358 Y50.102
G1 X176.327 Y51.739
G1 X176.193 Y53.372
G1 X175.956 Y54.995
G1 X175.617 Y56.601
G1 X175.178 Y58.184
G1 X174.640 Y59.737
G1 X174.006 Y61.254
G1 X173.276 Y62.730
G1 X172.455 Y64.158
G1 X171.545 Y65.533
G1 X170.549 Y66.849
G1 X169.472 Y68.101
G1 X168.318 Y69.283
G1 X167.091 Y70.392
G1 X165.796 Y71.422
G1 X164.437 Y72.370
G1 X163.021 Y73.231
G1 X161.552 Y74.002
G1 X160.036 Y74.679
G1 X158.480 Y75.261
G1 X156.889 Y75.744
G1 X155.270 Y76.126
G1 X153.628 Y76.407
G1 X151.971 Y76.583
G1 X150.305 Y76.656
G1 X148.637 Y76.623
G1 X146.972 Y76.486
G1 X145.318 Y76.244
G1 X143.682 Y75.899
G1 X142.069 Y75.451
G1 X140.486 Y74.903
G1 X138.939 Y74.255
G1 X137.436 Y73.512
G1 X135.980 Y72.674
G1 X134.579 Y71.746
G1 X133.239 Y70.732
G1 X131.963 Y69.634
G1 X130.758 Y68.458
G1 X129.629 Y67.207
G1 X128.580 Y65.886
G1 X127.614 Y64.502
G1 X126.737 Y63.058
G1 X125.952 Y61.561
G1 X125.262 Y60.017
G1 X124.670 Y58.431
G1 X124.178 Y56.810
G1 X123.789 Y55.160
G1 X123.503 Y53.488
G1 X123.324 Y51.799
G1 X123.250 Y50.102
G1 X123.284 Y48.402
G1 X123.424 Y46.706
G1 X123.671 Y45.021
G1 X124.023 Y43.354
G1 X124.479 Y41.710
G1 X125.038 Y40.098
G1 X125.698 Y38.523
G1 X126.456 Y36.991
G1 X127.310 Y35.508
G1 X128.255 Y34.081
G1 X129.289 Y32.716
G1 X130.408 Y31.417
G1 X131.607 Y30.190
G1 X132.881 Y29.039
G1 X134.226 Y27.971
G1 X135.637 Y26.988
G1 X137.107 Y26.095
G1 X138.632 Y25.295
G1 X140.206 Y24.593
G1 X141.821 Y23.990
G1 X143.472 Y23.489
G1 X145.153 Y23.093
G1 X146.857 Y22.803
G1 X148.576 Y22.620
G1 X150.305 Y22.546
G1 X152.037 Y22.580
G1 X153.764 Y22.723
G1 X155.480 Y22.975
G1 X157.178 Y23.334
G1 X158.852 Y23.799
G1 X160.494 Y24.369
G1 X162.098 Y25.041
G1 X163.658 Y25.814
G1 X165.167 Y26.683
G1 X166.620 Y27.646
G1 X168.011 Y28.700
G1 X169.333 Y29.839
G1 X170.583 Y31.060
G1 X171.754 Y32.358
G1 X172.842 Y33.728
G1 X173.842 Y35.165
G1 X174.751 Y36.662
G1 X175.565 Y38.215
G1 X176.280 Y39.818
G1 X176.894 Y41.463
G1 X177.403 Y43.144
G1 X177.806 Y44.856
G1 X178.101 Y46.590
G1 X178.287 Y48.341
G1 X178.362 Y50.102
G1 X178.327 Y51.865
G1 X178.181 Y53.623
G1 X177.924 Y55.370
G1 X177.558 Y57.099
G1 X177.084 Y58.803
G1 X176.504 Y60.474
G1 X175.819 Y62.108
G1 X175.032 Y63.696
G1 X174.147 Y65.232
G1 X173.166 Y66.711
G1 X172.093 Y68.126
G1 X170.933 Y69.473
G1 X169.690 Y70.744
G1 X168.368 Y71.936
G1 X166.973 Y73.044
G1 X165.511 Y74.062
G1 X163.986 Y74.987
G1 X162.405 Y75.815
G1 X160.774 Y76.543
G1 X159.099 Y77.167
G1 X157.387 Y77.685
G1 X155.645 Y78.095
G1 X153.880 Y78.395
G1 X152.097 Y78.583
G1 X150.305 Y78.660
G1 X148.511 Y78.623
G1 X146.721 Y78.474
G1 X144.943 Y78.213
G1 X143.183 Y77.840
G1 X141.449 Y77.357
G1 X139.748 Y76.766
G1 X138.086 Y76.069
G1 X136.470 Y75.268
G1 X134.907 Y74.366
G1 X133.402 Y73.368
G1 X131.961 Y72.276
G1 X130.591 Y71.095
G1 X129.297 Y69.829
G1 X128.085 Y68.484
G1 X126.958 Y67.064
G1 X125.922 Y65.576
G1 X124.981 Y64.024
G1 X124.139 Y62.415
G1 X123.399 Y60.755
G1 X122.764 Y59.051
G1 X122.237 Y57.309
G1 X121.820 Y55.536
G1 X121.515 Y53.739
G1 X121.324 Y51.925
G1 X121.246 Y50.102
G1 X121.284 Y48.276
G1 X121.436 Y46.455
G1 X121.702 Y44.645
G1 X122.082 Y42.855
G1 X122.573 Y41.091
G1 X123.175 Y39.360
G1 X123.885 Y37.669
G1 X124.700 Y36.025
G1 X125.618 Y34.435
G1 X126.634 Y32.904
G1 X127.745 Y31.438
G1 X128.947 Y30.045
G1 X130.235 Y28.729
G1 X131.604 Y27.495
G1 X133.048 Y26.349
G1 X134.563 Y25.296
G1 X136.142 Y24.339
G1 X137.779 Y23.482
G1 X139.468 Y22.729
G1 X141.202 Y22.084
G1 X142.974 Y21.548
G1 X144.778 Y21.124
G1 X146.605 Y20.815
G1 X148.450 Y20.620
G1 X150.305 Y20.542
G1 X152.163 Y20.580
G1 X154.015 Y20.735
G1 X155.856 Y21.006
G1 X157.677 Y21.393
G1 X159.471 Y21.893
G1 X161.231 Y22.506
G1 X162.951 Y23.228
G1 X164.623 Y24.058
G1 X166.241 Y24.991
G1 X167.798 Y26.025
G1 X169.288 Y27.156
G1 X170.705 Y28.378
G1 X172.044 Y29.688
G1 X173.298 Y31.081
G1 X174.463 Y32.550
G1 X175.534 Y34.091
G1 X176.508 Y35.697
G1 X177.378 Y37.362
G1 X178.144 Y39.080
G1 X178.800 Y40.843
G1 X179.344 Y42.646
G1 X179.775 Y44.480
G1 X180.090 Y46.339
G1 X180.287 Y48.215
G0 Z26.053
M5

; ===== TOOL CHANGE TO T4 =====
G0 Z26.053
G0 X0.000 Y0.000
M5
G4 P3.0
M6 T4  ; Change to Tool 4 - 0.5mm Engraving Bit
G4 P5.0

; ===== TEXT ENGRAVING 'ghsender' - 1000 operations =====
M3 S23452
G4 P2.0
G0 X24.049 Y126.256
G1 Z0.701 F200
G1 X24.049 Y128.261 F400
G1 X22.045 Y128.261
G1 X20.041 Y126.256
G1 X20.041 Y124.252
G1 X20.041 Y122.248
G1 X22.045 Y120.244
G1 X24.049 Y120.244
G1 X24.049 Y122.248
G1 X24.049 Y118.240
G1 X22.045 Y118.240
G1 X20.041 Y118.240
G0 Z3.006
G0 X32.065 Y120.244
G1 Z0.701 F200
G1 X32.065 Y130.265 F400
G1 X32.065 Y125.254
G1 X34.069 Y125.254
G1 X36.073 Y125.254
G1 X36.073 Y120.244
G0 Z3.006
G0 X48.098 Y128.261
G1 Z0.701 F200
G1 X46.094 Y128.261 F400
G1 X44.090 Y126.256
G1 X44.090 Y125.254
